/* XPM */
static char *_09f26bea444495aa7448842c0cdbb6dtJFPN02zy76mbpQq[] = {
/* columns rows colors chars-per-pixel */
"120 120 243 2 ",
"   c #1E5504",
".  c #1F5905",
"X  c #1D560C",
"o  c #1E580B",
"O  c #16500D",
"+  c #164F1A",
"@  c #184F14",
"#  c #165114",
"$  c #1C5512",
"%  c #195318",
"&  c #1C4D0C",
"*  c #215704",
"=  c #245B04",
"-  c #2A5D04",
";  c #21560B",
":  c #225A0B",
">  c #2A5D0A",
",  c #2A5605",
"<  c #315C0A",
"1  c #235912",
"2  c #2B5D13",
"3  c #245718",
"4  c #2D6304",
"5  c #26610B",
"6  c #2B640B",
"7  c #2E690A",
"8  c #2F6904",
"9  c #326504",
"0  c #346A04",
"q  c #3A6D04",
"w  c #33650B",
"e  c #346B0B",
"r  c #3A6C0B",
"t  c #3B6509",
"y  c #3C7104",
"u  c #3D720B",
"i  c #387307",
"p  c #2D6213",
"a  c #326315",
"s  c #356A11",
"d  c #3B6D12",
"f  c #37661A",
"g  c #3D7212",
"h  c #3E7319",
"j  c #3E6B28",
"k  c #426D09",
"l  c #437404",
"z  c #4B7B05",
"x  c #43750A",
"c  c #457A0B",
"v  c #4B7C0B",
"b  c #477807",
"n  c #527D08",
"m  c #416D17",
"M  c #427512",
"N  c #467912",
"B  c #4C7D13",
"V  c #4B7619",
"C  c #557B17",
"Z  c #4B7626",
"A  c #537C27",
"S  c #457129",
"D  c #4E800B",
"F  c #5F8D05",
"G  c #53840C",
"H  c #59860B",
"J  c #57880C",
"K  c #5D8B0C",
"L  c #558306",
"P  c #4E8114",
"I  c #4E8119",
"U  c #548412",
"Y  c #5B8514",
"T  c #568913",
"R  c #5C8B12",
"E  c #548419",
"W  c #5B881A",
"Q  c #5F9010",
"!  c #628D05",
"~  c #6A8E06",
"^  c #628E0A",
"/  c #6A8E0A",
"(  c #638700",
")  c #63900B",
"_  c #6B920C",
"`  c #669006",
"'  c #74950E",
"]  c #78960D",
"[  c #628E12",
"{  c #658A18",
"}  c #649013",
"|  c #6D9413",
" . c #6C931A",
".. c #67931A",
"X. c #729513",
"o. c #759A15",
"O. c #7B9B15",
"+. c #73961A",
"@. c #759A1B",
"#. c #7B9C1B",
"$. c #799615",
"%. c #718F1D",
"&. c #7FA11C",
"*. c #5B852A",
"=. c #568137",
"-. c #658B28",
";. c #6E9227",
":. c #7D9D23",
">. c #769927",
",. c #658B35",
"<. c #6C9335",
"1. c #769B38",
"2. c #718E20",
"3. c #7EA125",
"4. c #7EA237",
"5. c #759C44",
"6. c #7CA245",
"7. c #7CA350",
"8. c #829E1A",
"9. c #849D16",
"0. c #83A31D",
"q. c #88A31A",
"w. c #829E28",
"e. c #849F34",
"r. c #84A324",
"t. c #8AA524",
"y. c #8BA925",
"u. c #85A42B",
"i. c #8AA52D",
"p. c #8EAA2B",
"a. c #85AA26",
"s. c #93AC25",
"d. c #93AC2D",
"f. c #99AE2D",
"g. c #99AF26",
"h. c #94B12B",
"j. c #9CB32D",
"k. c #9AB227",
"l. c #8DA631",
"z. c #8DA931",
"x. c #88A638",
"c. c #91A732",
"v. c #95AB32",
"b. c #9AAE32",
"n. c #93AC3C",
"m. c #9AAE3D",
"M. c #9DB233",
"N. c #9DB23C",
"B. c #99B538",
"V. c #A5B82E",
"C. c #A3B534",
"Z. c #A5B934",
"A. c #ACBB35",
"S. c #A3B53C",
"D. c #A5B93A",
"F. c #ACBC3B",
"G. c #B1BE36",
"H. c #B1BE3A",
"J. c #AEC13B",
"K. c #ABC138",
"L. c #B4C136",
"P. c #B4C33B",
"I. c #BAC53B",
"U. c #BDC93D",
"Y. c #BCC536",
"T. c #C1CA3B",
"R. c #C0C739",
"E. c #86AA45",
"W. c #8EB249",
"Q. c #94B344",
"!. c #9BB543",
"~. c #9EBD43",
"^. c #93B64C",
"/. c #9CBB4C",
"(. c #98B84B",
"). c #8CB052",
"_. c #9BBD52",
"`. c #95B856",
"'. c #94AF40",
"]. c #A3B641",
"[. c #A4BB44",
"{. c #ACBD43",
"}. c #A4BD49",
"|. c #AABE49",
" X c #A9BE4A",
".X c #9EC157",
"XX c #9EC045",
"oX c #A1C146",
"OX c #A5C54B",
"+X c #AAC44D",
"@X c #A9C94E",
"#X c #ACC246",
"$X c #B4C343",
"%X c #BAC643",
"&X c #BDC944",
"*X c #B3C649",
"=X c #A4C453",
"-X c #AAC551",
";X c #A6C953",
":X c #ABCB50",
">X c #AAC951",
",X c #ACCA52",
"<X c #ACCC51",
"1X c #ADCD50",
"2X c #ADCD52",
"3X c #AECE53",
"4X c #AFCF52",
"5X c #AFCF54",
"6X c #AECD55",
"7X c #ADCD52",
"8X c #ACCD5B",
"9X c #A4C65B",
"0X c #B0CE56",
"qX c #B1CF59",
"wX c #B8CF5B",
"eX c #AFD059",
"rX c #B0D055",
"tX c #B1D154",
"yX c #B1D156",
"uX c #B2D257",
"iX c #B3D356",
"pX c #B1D257",
"aX c #B1D156",
"sX c #B3D358",
"dX c #B2D159",
"fX c #B4D459",
"gX c #B5D55A",
"hX c #B6D65B",
"jX c #B4D65B",
"kX c #B7D75C",
"lX c #B6D55D",
"zX c #B4D45A",
"xX c #B8D65E",
"cX c #B9D95E",
"vX c #B9D85E",
"bX c #ABCD63",
"nX c #B2D362",
"mX c #BBDB61",
"MX c #B5D564",
"NX c #ADD165",
"BX c #C2CB43",
"VX c #C4D14A",
"CX c #C0DE64",
/* pixels */
"OX~.B.oXoXoXoXOXoXoXoXoXoXOXOXOX<X@X@X:XOXoX@XhXuXuX5X<X:X<XuXsX<X<X<XuXuX<X5XhXhXuX<X:X<X<X<X@X@X@X@X:X<X<X@XOXsXhXhXsXuX5XuXsXhXkXkXuX<X<XOXoXB.oXOX@XOXoXOX@X<X~.~.OXOX~.~.5XuX5XuXhXvXvXhX5XuXkXhX<XOX@X@XOX:X<XuXhXkXhXhXhXmXhX5X@X@X@XOXoX",
"<XOXoX@X:X@X@X:XOXOXOXOX@X@X:X<X@XOX@X@XOXOX<XvX<X:X@X@X@X@X:X<X<X@X@X5XuXuXuXhXsXuX<X<XuXuX5X<X<X<X<X<X5X<X@XOXuXsXhXsXuXuXhXhXuXhXhX5X<X@XOX~.~.oX@X:X@XOX@X:X<XOXoX@X:XOX@XsXsXuXsXhXkXhXsXuXuXuX5X@X@X<X<XOX5XuXuXsXhXsXsXuXhXuX<X@X<X<X<X<X",
"uX<X<XuXhXuXuXuX:X<X<X<XuXuXuXsX@X@X@X@XOXOX:XhX@X@X@X@X@X@X@X@X:XOXOX<XhXhXhXhXuXuXuXuXsXsXuX5XuXsXhXsXuX<X<X<X<X5XuXuXuXuXuXhXuXhXhXuX<X<X@XoXoX@X<X<X<X@X<X5X@X:X:X<X<XuXuXhXuXhXhXhXhXuXuX5XuXuX<X@X<XhXuX:XhXsXuXuXuXuXuXuXuX5X<X<X5XuXsXsX",
"hXsXsXhXvXkXhXuXuXsXsXhXhXhXhXhX<X<X@XOXoXoXOX:X:X:X@X<X<X<X:X@X<XOXOX<XhXhXsXuXuXuXsXhXhXhXsXuXuXhXkXhXuX5XuXhX5XuXhXhXuXuXuXsXhXvXvXhXuXsXuX<X@X<XuXuXuX5XuXuX@XuXuX<X<XhXhX5X5XuXhXsX<X@X@X:XhXsXuXuXuXsXsXuXhXsXuX<X<X<XuXuXhXsXuXuXuXuXuXuX",
"sXhXhXhXhXkXhX5XhXkXhXhXhXsXsXuX<X<X@XOXoXoXOX@X<X:X@X<X<X<X<X@X<XOXOX<XhXhXuX5XuXuXhXhXsXsXsXsXuXhXhXuX5X5XsXvXhXkXvXkXhXuXuXuXsXkXkXhXhXhXhXuX<XuXuXsXuXuXsXhX<XhXhX<X<XhXhX<X@X<X5X<X@XOXOX@XuXhXkXhX<X@X<XsXsXuX<X<X<X5XuXhXhXhXhXhXuXuXuXuX",
"uXuXsXuXuXhXsX<XhXhXhXhXsXuXuXuX@X@XOXoXoX@X<X<X:X@XOXOX@X<X@XOX:XOXOX<XsXuX5X5XuXuXsXuX5X5XuXsXuXuX5X<X:X<X5XsX<X5XuXuX<X@XOXOX@X5XuX<X5XhXhXuXuXuXuXsXsXhXhXhXsXvXkX5XuXhXhX5X@X@X:X:X@XOX@X@X5XuXhXsX@XoXOXuXuXuX<X<X5XuXhXkXuXsXhXhXhXsXhXkX",
"sXhXuX<X5XhXsX<XuXuXuXuXuXuXuXuX@X<X@XOXOX5XsXuX<XOXoXoXOX@X@XOXOXOX@X5XsX5XuXsXsXsXuX<X@X@X<XsXhX5X@XOXOX@X@X@XoXOXOXOXoXoX~.~.oXOX@XOX:XuXhXuXsXuXuXuXsXhXhXsXhXhXuX<X<XuXsXsX:X@X@X:X<X5X5X5XuXuXsXsX<XOXOXuXuXuXuXuXuXsXhXhX<XuXhXhXhXhXhXvX",
"hXkXsX<X<XhXhX<X<X<X5XuXuXhXhXhXuXsX5X@X@XuXhXuX5X@XoXoXOX:X@XOXoXoX@XuXuX5XuXkXsXsXuX:XOXOX<XuXkX5XOXoXoXOXoXoXoXOXOX@XOXoXoXoX~.oXOXOX@XuXhXhXsXuXuXuXuXsXhXsXuX<X@X@X:X:X5XhX5X<X@X<XuXhXhXhXvXuXuXhXuX:X<XsXuXuXuXuXuXsXhXhXuXhXkXhXsXuXsXhX",
"uX5X5XuXhXhXuX<X<X<X<X<X<XuXsXhXhXhXsXuXuXuXuXsXhXOXB.~.oXoXOX<XB.~.OX@X<X<X5XuXuX<X@X<X<X<XuXhX5X@XOXOX:X<X:XOXOX@X:XOX@X5XuX@XOXOX@X<XhXhXuX<X:X<X<X@X@XuXuXuXuXuX:XOXOX<X5X<X@XoXOXuXvXkXhXhXhXsX5X:X<X5XuX<X5XuXuXuXuXuXuXuX<XuXhXsX5X<XsXvX",
"uXuXuXsXhXhXsX<X<X<X<X5XuXuXhXhXkXhXhXsXuX5X5X5X5XOX~.oXOXOXOX:XoXOX:X<X5XuXuXhXhXuXuXsXhXuXuXhXhXuX<X<XuXhXuX5X5XhXsX<X<XuX5X@XuX5X<XuXkXkXsX<XOX@X@XOXOX:X<X@X<X<XOXoXOX@X@XOXOXoXOXuXhX5X<X<X@X<X<X<X:X<X<X<XuXuXuXuXuXuXuXuX5XsXhXuX<X<XuXkX",
"uXuXuXuXhXhXuX5X<X5XuXsXhXhXhXhXhXhXhXuXuXuXuXuX5X:X:X5XuX<X5XuX:X<XuXuXuXuXhXhXhXsXsXkXhXuX<XuXmXhXsXhXkXvXvXhXhXkXhXuX5XuX5X<XhXsXuXuXhXhXsX5XoXOX@XOXOX@X@XOX<X5X<XOX@X<X<X@XOXOX<XsXuX@XOXOXOX@X<X<X<X@X<X<XhXuXuXuX5XuXuXsX5XuXuX5X:X<XuXkX",
"uXuXuXuXuXuXuX5X5XuXsXhXkXkXhXhXuXsXuXuXsXhXkXvXuXuXhXkXhXhXhXvXuXuXsXuX5X5XuXhXhXsXuXhXuX<X@X<XvXhXuXsXhXkXhXhXuXuXuX5X5XuX5X<XuX:X@X@X<XuXuX5XOX@X:X@X@X@XOXoX5XuX5X<X<XuX<X@XOX@XhXkXuX@XOX@X@X<XuXuX<X@X<XhXuXuX<X:X:X<X5XuX:X<X<X@X@X<XuXkX",
"uXuXuXuXuXuXuXuXuXuXhXhXkXhXhXhXsXuXuXsXhXhXkXvXuXsXhXsXuXsXhXhXuXsXhXuX5X5XuXhXvXsXuXuX<X@X:X5XhXsXuXuXsXhXhXsXuXuX5XuX<X<X<X<X5X@XOXOX@X<X<X<XOX@X:X@X@X@XOXoXOX@X@XOXOX@XOX~.~.@XhXhXuX:X@X:XuX<X<X<XOXoX@XhX5X<X@X@XOX@X:X<XOXOXOX@X@X<XuXhX",
"uXsXsXuXuXuXuXhXuXuXsXsXhXhXsXsXhXhXhXuXuXuXuXuXhXkXhXuXuXhXhXhXuXhXhXhXsXuXsXhXvXhXuXuX5X<X5XhXhXhXsXsXsXhXhXhXvXhXuXsXuX:X@X:XhX5X@X@X<X<X<X@XOX@X@XOXOXOXOXoXOX@XOXoXoXOXoX~.~.OXuXuX<X<X<X<XuX@XOX@XOX~.OXuX5X<X:X@X@X@X@X@XOXOXOX@X<XuXsXhX",
"5X5XuX5X<X<XuXsXuXuX5X5XuXuXuXuXhXsXuX<X<X<X<X:XkXvXhX5XsXvXkX<X:X<XuXsXuXuXuXsXsX5X<XuX5X<X5XhXhXhXhXhXsXhXhXhXvXsXuXhXsX:X@X<XhXuX<X<XuXsXuX<X@X:X@XOXOX@X@XOX<X5X<X@X@X:X@XoX~.@X5X<X<XuXuX<XuXOXoX@XOXoXOXuXuXuXuX5X<X<X<X<X@X@X<X5XuXsXuXuX",
"@X:X<X@XOXOX@X<XuX5X<X<X<X<XuXuX<X<X:X@X@X@X:X:XuXuX5X<XuXhX<XoXOX@X<X5X5X<X<X<X@X@X@X5XuX<X<X5XhXhXhXsXuXuXhXhXuX:X<XuXuX<X<XuXuX<X<X5XhXkXhXuX<XuX<X@X@X<XuX<XuXuX<X@X@X<X<XOXoX<XuX5XuXhXhXuXuXOXoX<X5X@X@XuXhXhXhXhXsXuXuX5X<X5XuXhXhXhXuX5X",
"~.OX@X@XOXoX@X5X:X:X<X<X<X<X:X:XOX@XOXOX@X<X<XOXuX<X@X@XOXOX@X@XOX:X<X<X@XOXOXOX:XOXoXoXOXOXOXOX5XuX<XOXOX<X<XOXoXoXoXXX~.oX<XhXoX@X5XsXhXsXsXsXhX<XsXvXuXuXhXuXkXkXsXsXsXsXzXzXhXsXuXuXhXhXhXhX<XuXhXhXhXuXsXhXhXsXuXuXsXhXhXuX<XuXhXvXvXhX5X<X",
"~.OX<X<X:X@X:X<X@X@X@X:X:X@X@X@X<X<X<X@X:XuX<X@XuX<X<X@X@X@X:X<X<X<X<X@XOXoXOXOX:XOXoXoXOXOX@XOX<X<X@XoXOX:X@XOXoXOXOXOXOX@X5XsX@X<XsXkXhXhXhXhXkX<XsXkX<X<XuXuXkXsXsXsXrXeXsXsXhXuXuXuXhXhXhXhX<XuXhXhXhXuXsXhXhXuXuXuXhXhXhXuXuXuXhXkXhXsX5X<X",
"oXOX@X<X5X<X:X@XOXOX@X@X@X@XOXOX<X5X<X@X@X<X<XOXsXsXuX<X<X<X<X5XuXuX<X@XOXoXoXOX@XOXOXOXOX:X@X@X@XOXoXoXOX@X@XoXoXoXOX@X<XuX<X@X<XuXhXhXhXuXsXsXvX5XuXsX@XOX<X<X5X5X6X6X6X5X5X5X5X<X<X<XuXuXuX<X:X<XuXuXuX5X5XuXuXuXuXsXhXhXsXuXuXsXsXhXuXuX<X<X",
"OXOXOX@X<X<X@XOXOXOXOX@X@XOXOXOX@X@X@XOXOX@X@XOXhXhXuXuXuXuXuXuXhXuX5X@XOXOX@X@X@XOXOXOXOXOX@X@X@XOX~.}.OX,X+X}.oXoXoXOX<X<X@XoX<XuXuXsX<X:X:X:XmXuXuXuXoXoX@X:X:X:X;X;X-X:X:X:X@X@XOX@X@X:X@XOXOX@X:X<X<X@X@X@X<X<XuXsXhXsXuX5XuXsXuXuXuX<X<X<X",
"<X@XOXOX<X5X<X:XOX@X@X@X@X@X@XOXoX@X@XOXOX@X@XOXhXhXhXsXhXsXhXsXhXsX5X<X<X<X5XuXOXOXOXOXOX@X:X:X,XOXoXOX,X6X-X+X+XoX~.oX:X<X@XOX<XuXuX5X:X@X@X@XmXuXuXuXoX~.@X<XOXOX-X-X-X-XOX+X@X@X+X+X@X@X@XOX@X@X@X:X<X:X@XOX@X:X5XuXuX5X<X<XsXuXuXuX5X<X<X<X",
"hXuX:X<XuXsXhXsX:X:X<X<X<X<X:X:XOX<X<X@X@X<X5X<XhXhXhXsXsXsXsXsXhXuXuXuXuXhXhXhX@X@X,X,X,X,X,X+X}.[.}.+X+X}.{.[.}.OXOXOX<XuX<X:XuXuXsXuX<X<X<X5XvXuXuXuXoX~.@X<X:X:X:X6X,X,X:X:X<X<X<X5XuXuX<X@X<X<X<X5XuXuX<X:X@X<X5XuX<X<X<X<XuXuXuXuXuXuXuXuX",
"hXsXuXuXsXhXhXhX5XuXuXuXuXuXuX5X:XuXsX5X<X5XuXuXuXuXuXsXsXuXuXuXhXuXuXuXhXhXhXsX:X,X,X-X+X+X+X+X$X$X#X*X$X$X%X$X#X+X0X0XuXsXuX5XhXhXhXuX5X5XrXzXkXuXhXhXOXoX<XuX5X0XsXsXsXsXsXsXuXuXuXsXhXsXuX<XuXuXuXuXhXhX5X<X5XuXuXuX<X:X<X<XuXuXuXsXhXsXuXuX",
"uXuXsXhXhXsXsXuXuXuXsXhXhXsXuXuX<XhXhXuX<X<XuX5XuXuXuXuXuXuXuXuXsXuXuXuXhXhXsXuX,X,X*X#X#X#X#X$X&X&X%X%X%XBXVXBX$X#X+X0XzXhXuX<XuXsXuXuX<X5XuXhXhX5XhXkXOXOXuXhXsXkXkXmXvXvXkXkXuXuXuXzXhXhX5X<XuXuX5XuXsXsX5X@XsXhXhXuX<X<X<XuX<XuXuXhXhXhXhXsX",
"<XkXmXhXuXuXhXhXuXuXuXuXsXhXhXhXhXhXhXhXhXhXhXhXuXsXsXsXsXsXsXsXuXmXzX,XhXhX:XOX+X#X$X%X%XI.I.&XBXU.BX&XT.T.T.U.&X$X{.{.0XzX5X+XsX5X5X,X@X@X<XvXuXhXhXhXuX5XuXkXsXsXhXhXhXhXhXsXsXuXrXsXuX<XuXhXsXhXkXhXuXuXuXuXhXhXhXsXuXuXuXuXuXuXsXhXhXhXhXhX",
"5XhXkXhXsXhXuX<X@X@X:X<X<XuXuXuX5XuXuXuXuXuXuXuXuXsXhXhXhXhXuXuXuXkX5X:XhXhX+XOX}.{.&XBXBXT.T.T.T.T.T.T.T.T.T.U.U.%X%X$X#X+X+X,X0X+X+X+X@X+X6XkXuXsXhXsXuXuXsXzXsXsXuXuXuXuXuXuXhXsXsXzXuX<X5XhXsXhXhXhXsXuXsXhXsXhXhXhXhXsXuXuXuXuXsXsXhXsXsXuX",
"<XuXsXhXhXkXuXOXOXOXOX@X<X<X5XuX<X<X<X<X5X<X<X<XuXsXhXhXhXuXuX<X<XuX@XOXzX0X}.!.].{.BXT.T.T.T.T.T.Y.R.R.U.T.U.U.U.BXBX%X$X{.|.+X+X#X|.#X}.OX-XqXzXuXuXuXhXhXsXuXhXzXuX5X5XuXuXsXkXhXhXkXhX<X<XuXuXhXhXhXhXsXhXhX5XuXhXhXhXhXsXuX<X<X<X5X<X<X<X<X",
"OX<XuXhXhXhXuX@X@X@X@X:X<X5XuXuX<X<X<X<X<X<X<X:XuXuX5X<X<X<X<X<X<X<XOXOX0X+X].S.D.P.U.T.R.R.R.U.T.U.I.I.I.I.I.I.I.I.I.I.&X$X{.{.{.{.{.{.{.].[.+X,XsX5XuXhXhXsXuXvXhXuX5X6X5XsXlXlXhXlXvXsX<X@X<X<XuXhXhXhXsXsXhX@X<XuXhXhXhXuXuX@X@X@X@X@XOXOXOX",
"~.@XhXhXsXsXsXuX<X<X<X<X<X<X<X<X<X<X<X<X<X:X@X@XuX<X@XOXoXOX@X:X@X<XOXOX+X{.$X$XI.I.U.I.I.I.I.I.I.I.Y.I.P.V.V.Z.A.P.P.P.I.P.P.$X$XP.P.P.P.P.J.D.}.OX,X5XhXhXuX<XkXhX5X:XOXOX-X,XqXzXzXzX0X@X@X<X:X<XuXsXuXuXuXuX@X:X5XsXhXsXuX<X@X@X@X@XOXOXOXOX",
"B.@XhXhXuXuXuXuX<X:X:X:X@X@X@X@X@X:X:X:X@X@XOXOX5X:XOXoXoXOX@X:X@X<XOX}.|.#X&X&XI.L.L.I.I.I.I.I.I.I.P.V.s.q.O.q.s.K.I.P.V.g.s.V.V.A.L.P.P.P.P.J.].[.6X0XsXuXuX<XuX0X+X}.}.{.|.|.+X+X+X+X+X+X+X<X@X<XuXuXuX5X<X<X@X@X<XuXuXuXuX5X@X@X@X:X@X@X@X@X",
"oX@XuXsXuXsXuX5X@X@X@X@X@X@X@X@X<X<X<X<X:X@X@XOX<X:X@X@X@X@X:X<X@X:XoX~.N.S.Z.j.k.k.Z.P.P.L.L.P.L.P.P.k.] ~ ( ~ O.j.J.Z.t.$.] 9.t.j.Z.G.G.G.G.$XS.!.-X6X5X5X5X<XuX0X X].{.&X%XP.$X{.{.].OX+X@XuX:X5XsXhXuX<X<X<X<X5XuXuXuXuXuXuXOX@X@X@X@X@X@X@X",
"@X<XuXuXsXhXuX@X@X@X@X:X<X<X<X<XuXuXuXuX<X<X:X@X:X6X5X0X0X0X5X<X+X:XoX!.w.$.$.' ~ O.k.Z.A.A.P.P.P.K.J.h.X.! ( ~ ' y.h.t.$.' ' ] 8.g.A.A.A.A.A.P.S.N.[.}.-X,X,X5XsX5X X].P.I.U.I.I.&X%X{.}.OX,XzX6XqXkXkXsX5X<X<XuXuXuXuXuXsXhXhXoXoXOXOX@XOXOXOX",
"OX<XsXhXhXhXhXhX5X5XuXhXhXhXuX<X<XuXzXzXsXuXsXkXlXOX}.+X0X0X-X6X-XOXOX~.n.c.t.' ~ ~ O.O.q.j.P.P.A.s.y.O.~ ( ! ! ~ _ _ _ ' t.h.s.s.j.A.A.A.A.A.A.S.S.S.m.!.}.6X5XkXlX-X].H.P.P.I.I.U.U.$X].[.-X-XOX+X5X5X0XkXhXuXhXsXuXuXhXhXuX5XOXOXOX-X:X5X5X5X",
"@X<XuXsXhXhXhXsXuXuXuXhXhXhXuX5XsXhXxXxXhXzXlXxX0X}.|.#X#X#X+X+X+X+X}.}.[.].B.8.~ ( ~ ~ $.s.F.F.j.q.8.$._ ~ o.o./ / / ' ' y.M.C.j.C.A.A.A.A.A.A.S.D.{.m.'.}.-X6X8X-X}.S.A.P.L.L.Y.I.I.%X{.].{.}.{.+X+X,XqXlXkXuXhXuXuXuXuXuXuX<X:X:X,X6X5XqXqXsX",
"5X5XuXsXhXhXuXuXhXhXuXsXhXhXhXuXhXhXmXxXzXqX0XwX-X[.$XVX$XP.F.F.D.D.].S.D.#XK.q._ F ! ( _ 0.h.s.s.y.s.y.0.O.y.y.O.8.t.t.9.8.s.C.Z.Z.Z.Z.Z.C.Z.Z.C.C.S.m.m.!././.Q.Q.m.N.A.G.G.L.P.I.I.%X$X{.F.{.$XF.{.+X-X6XzXsXhXuXuXuXuXuXuX5XqXsXqXsXsXsXlXsX",
"hXuXuXhXhXsXuXuXvXhXuXuXhXhXhXhXsXzXlX0X+X{.|.{.{.{.P.U.I.P.P.P.H.H.{.F.H.A.h.' ~ ! ! ! ( ~ _ $.q.M.C.C.M.h.M.C.j.j.C.C.j.j.M.C.C.C.Z.C.C.C.C.M.C.M.b.N.n.n.;.W { x.!.N.D.A.A.L.L.P.P.I.I.I.P.$XI.P.$X{.{.[.,XqXhXhXsXuXuXuXuXuXzXzXzXzXzXzXlXzX",
"kXuXuXhXkXuXuXsXvXhXuX5XuXhXhXhXsXsX0X+X{.$X$XP.P.P.P.I.P.L.P.P.P.P.P.P.P.A.s.' ! ! ! ! ( ! ~ $.t.C.A.A.Z.Z.Z.Z.Z.Z.Z.Z.C.C.C.C.C.C.M.M.M.M.M.b.b.b.b.v.w.-.N t N ;.x.l.M.C.A.A.G.L.P.P.P.I.U.I.I.I.I.$XP.F.}.-XsXuXuXuX<X5X0XsXkXkXkXzXzXzXsXsX",
"hXuXuXkXhX<X5XkXhXuX5X<XuXuXuXuXsX0X+X{.$XVX&X&XU.I.P.L.L.L.G.L.G.A.A.A.Z.j.y._ ! ! ! ! ! _ #.y.j.C.C.C.Z.Z.Z.C.C.C.C.M.M.M.M.M.b.b.b.b.b.b.b.b.b.v.b.l.2.z q 9 r B Y { w.d.M.A.A.G.P.P.P.P.P.P.P.I.I.I.&X$X}.}.5X<X<X:X@X@X,X5XzXzXlXsXsXsXsXsX",
"uX<XuXkXuXOX<XvXuX<X:X<X5XuX5X5X0X-X{.$X&XI.I.I.P.L.L.L.G.G.A.A.A.A.A.C.s.0.o.~ ! ! ! ! ~ o.h.M.M.j.f.C.Z.Z.Z.C.C.M.f.d.f.M.b.b.b.b.b.b.b.v.v.v.v.v.v.u.2.v q 8 w 0 0 l H +.t.j.A.A.G.P.P.P.L.V.Z.P.P.I.I.$X{.}.<X5X<X<X@X@X<X5XsXsXsXsXsXzXzXzX",
":X@XuXhX<XoX@XmX<X<X:X<X<X<X<X:X-X}.}.S.H.P.I.I.P.L.V.C.A.J.F.C.k.j.C.h.$.~ ~ ! ! ! ! ! ~ _ &.8.8.t.j.C.C.Z.C.M.f.d.d.f.f.f.b.b.b.v.v.v.v.v.v.c.c.i.:.>...T u 0 7 0 0 l H @.d.M.C.Z.A.P.P.L.V.q.q.k.P.I.I.%X{.+XsXsXsX5X<X<XuXhXsXsXsXsXzXzXkXkX",
"uXOX:X5XOXOX@XOX@X<XuX:XOXOX@XOX}.'.e.w.M.$XF.P.P.A.s.t.s.j.d.t.O.0.q.&.~ ( ! ! ! ! ! ! ! ^ ) ~ _ #.p.M.M.C.M.f.t.y.d.d.t.t.d.v.c.c.c.c.c.c.l.z.u.:.| R U P u 8 0 u b G [ #.y.p.f.M.C.Z.J.K.j.] ~ O.Z.P.%X#X}.-XmXkXsXuXsXhXhX5X0XhXkXhXsXhXuX<X",
"uXOXOX:XoXoX@XOX<XuXsX<X<X<X<X:XOXx.C C :.[.v.D.#XB.#./ ' X.X._ ! ! ^ ~ ! ! ! ! ! ! ! ! ! ! ! ! ^ o.O.0.y.f.d.t.0.t.y.r.$.#.i.p.p.i.r.i.i.l.l.i.3.| K b y q 0 0 0 z G ) _ X.$.$.t.d.h.s.j.Z.h.' ( ~ y.D.oXm.x.'.;XdXsXsXhXhXhXuX0XhXhXsXuXhXuX<X",
"uXOXOX:XoXoX@X@X5XuXuX5X5XuX<X@X:X(.;.C C ;.{ :.n.>.n z K ^ ) ^ ^ ^ ^ ^ ^ K K F ! ( ! ~ ^ _ ^ ! ~ ~ ^ _ o.O.X.' _ X.X._ ! _ #.r.#.X.| $.r.z.z.:.| ) R b 0 8 9 y v G F ^ ^ ~ ^ / o.#.$.' O.0.o._ ( ! ^  .{ C V V -.(.dXzXhXhXsXuX0XzXhXuXuXhXsX5X",
"hX@X<XuX@X@XuXuX<X5X<X<X5XuX<XOX:X=X(.1.;.-.-.-.*.v q q v G J G G z G G z z z ^ | ' ~ $.q.y.q.o./ ! ! ^ } ^ ^ ^ ! ! ! ! ! ^ _ X._ ^ ^ / #.u.3. .^ K U x 4 6 0 x J F ^ ! ! ! ! ! _ _ ^ ~ ~ _ ^ ! ! ^ H v l 9 9 t C x.}.5XsXsXuXsXsXhXhXsXuXhXhXuX",
"kX:X<XsX<X<XhXsX5XuX<X:X<XsX5X@X5XqXdX8X_.W.1.V 9 4 4 9 q x x u q q u x l l z | t.y.9.s.Z.J.Z.y.' ! ^ K G v G K ^ F F F F F ! ^ K H L K | +.+.H v v c e 8 8 0 b R ^ ^ ! ! ! ! ! ! ! ! ! ( ! ! F ! F K b 0 4 q v Y >.n.}.-X6X5XhXhXvXhXuXuXhXhXsX",
"uX@X<XsX<X<XhXuXuXsXuX<X<XuXsX<XhXhXlXjXnX9X-.d e 7 7 8 8 8 4 4 4 4 4 q U 2.:.i.C.F.C.A.G.P.P.j.0.( L z q 9 y v R ^ K K G J R R T z l G R [ [ b q 0 0 7 7 0 y v K ! ! ! ! ! ! ! ! ! F ! ! ! F ! F J G c i 0 x U { w.n.n.n.}.,XhXkXvXhX<X<XuXsXuX",
"<XOX<XhX<X<XuX5XuXuXuX@X@X<XuXhXsX5X<X6XqX_.C e e 7 7 7 7 6 4 4 - - k -.l.M.M.C.F.P.K.P.L.P.P.V.q.$.@. .U q 9 q D U P x q u x c u 0 4 r v U P y 0 4 7 e e 0 y z K ! ! ! _ ^ ^ ! ! ! ! F F ! ! ^ H D l 0 0 0 l G | r.B.n.n.!.-XsXhXhXuX@X@X<X<X<X",
"<XOX<XkXuXuXsX5X<XuX<XOXoX@XqX0X+XOXOXoX-XQ.C r e 7 7 7 7 6 6 6 6 9 E n.[.F.F.A.G.G.L.L.G.L.P.Z.g.s.b.i.-.q - 4 q x r 4 - 4 8 8 4 4 - 4 e u u 0 8 e e e e e l D K ^ / X.O.o.| ^ ^ ) K H H K K ^ K D 0 0 0 q b H } #.c.v.c.!.-XuXhXhX<XOXOX@X@X@X",
"uXsXhXhXhXsXuX<XuX<X<XuXzX5XOX!.}.}.}.[.[.'.;.N q 0 0 e e 7 7 6 6 r -.~.D.A.A.A.G.G.G.G.G.G.G.G.G.A.F.v.{ t - - 4 4 - - > > > 5 5 5 5 5 6 8 7 7 e 7 e e e i v R ^ / $.t.p.t. .H K J G z G G D T T v 0 i x v L H ^ o.i.l.c.!.6XsX<X5XuXsXuX5X<X<X",
"5XuXhXhXhXhXuX5X<X<X<X5X+X[.N.S.].].].].].].n.;.Y x N M g e 7 8 8 k %.N.Z.A.A.A.G.G.G.G.G.G.G.G.G.H.F.M.w.Y x x g e 6 > 5 5 5 5 5 6 5 6 7 6 7 7 e 7 7 e 0 0 b K @.r.p.v.v.r. .z b l y y b x q x u i 0 y v R F F ! / #.i.l.!.-XsX:X:X<X5XuX5X<X<X",
"@X<XuXhXhXhXuX<X<X5X5X+X!.S.S.A.S.S.S.D.F.F.D.v.u.>.;.{ x e 8 e x { u.B.Z.A.A.G.H.H.G.H.G.G.G.G.G.G.F.C.b.u. .U M e 6 6 5 5 5 6 6 5 6 7 7 7 e e e e 0 0 0 q G  .t.f.M.b.v.p.:.Y l 0 0 0 y y 0 0 0 8 8 0 b R ^ ^ ! ~ X.w.x.Q.-XqX:XOXOX@X5XuX<X:X",
"OX@X<XuXhXuX<X<X<XuX5XOXm.S.$XF.A.F.A.A.Z.C.C.D.S.N.!.>.c 0 4 q B 4.B.C.Z.A.A.A.H.H.H.H.G.G.G.G.G.F.A.A.D.D.u.R q 4 - 6 5 6 6 6 6 6 6 7 7 7 0 u c x y y b v  .r.v.M.M.b.f.b.z. .z q 0 q x x 0 0 8 8 8 4 y L ^ ! ! ~ | #.u.'./.-XoXoXoXOX<XuX<XOX",
"OXOX:X5XuX5X<X@XsXsXsX-XN.S.{.A.A.A.A.C.Z.C.C.C.B.B.B.>.B q 0 l R :.d.M.C.C.A.A.A.A.G.H.A.A.G.G.A.A.A.Z.C.B.u.Y 9 4 4 6 6 6 6 6 6 6 6 7 7 7 0 c J J J K [ +.t.v.M.M.M.M.h.p.r.+.H z b G K G l 0 4 0 4 9 q G F ! F ! ~ | :.u.u.e.x.Q.}.OX<X5X:XOX",
"+X@X<X<X<X<X:X@XkXlXsX-X!.N.F.Z.Z.Z.Z.Z.C.C.M.f.d.t.p.u.;.v z G ^ @.t.f.C.Z.Z.A.A.A.F.A.A.A.A.A.A.A.Z.Z.C.M.r.Y q 0 e e 7 6 6 6 7 7 7 8 6 8 0 v K ) F ) @.h.B.M.d.j.b.d.d.t.o._ ^ H H K ^ K G l l b y y l H F ! F ! ! ^ | >.>.%.2.x./.6X<X5X<X:X",
"uXuXuX5X<X<X:X@XkXsXdXOXN.S.D.Z.Z.C.C.C.C.C.M.d.8.$.r.a.3.[ K K ^ X.0.d.M.C.Z.A.A.A.A.A.A.A.A.A.Z.Z.C.C.M.b.&.^ n v v N e 8 6 6 e u u 0 0 i y G F ! ! _ O.h.h.y.#.y.y.r.r.O._ ( ! ) ) ) ^ ^ K L L J G D L F ! ! ! ! ! ! ^ | | [ { >./.5XuXuXsXsX",
"kXhXsXuX<X<X<X<XkXsX-X!.N.S.Z.Z.C.C.C.C.C.M.M.p.#./ X.o._ ^ ^ ! ~ _ O.t.f.M.C.Z.Z.C.Z.A.A.C.Z.Z.C.C.M.M.M.M.t.X.^ [ R U 0 8 4 4 u v U v v D L K ^ ` _ _ _ O.o.' / o.#.X./ / ~ ! ! ! ! ! ! ! ^ F ^ ^ ^ ^ ! ! ! ! ! ! ! F K [ [ R U ;.Q.dXsXsXkXvX",
"kXkXxXzXuX5XuXkX8X}.!.N.N.S.C.C.C.C.M.M.M.b.d.8._ ~ ! ^ ! ! ! ! ! _ #.p.b.M.M.M.C.C.M.j.j.j.M.M.C.M.b.b.b.M.t.X.^ ^ ^ H l q 0 y v K K K K F F ^ X.0.a.O.) ) ) ~ ~ ) ~ ~ ! ! ! ! ! F F ! ! ! ! ! ! ! ! ^ ^ ^ ^ ! ! ! F H z b b x r V -.nXjXhXkXzX",
"uXsXzXzXuXuXzXkX-X!.!.N.M.C.C.M.M.M.M.b.b.d.y.$._ ! ! ! ^ _ _ ^ ! / O.p.v.f.f.b.M.M.y.0.#.0.p.b.M.f.b.d.d.d.r.| ! ! ^ ^ H G v n H ^ | o._ ~ ^ o.a.h.h.O.~ F F ! ! ! ! ! ! ! ! ! ! ! ! ^ ^ ^ ! ! ! ! ! ! ! ! F F ^ ^ [ G y 0 8 8 w 9 k NXdXhXlXlX",
"uXsXhXhXsXsXlXqX!.m.].S.M.M.M.M.M.b.b.b.d.t.t.o.~ ! ^ | #.#.#.$./ / $.y.p.t.r.y.d.p.#./ ~ / #.t.y.t.d.p.r.r.O._ ! ! ~ ^ | +.| ^ ^ X.r.y.o.~ X.y.M.M.y.#._ ~ ! F F ! ! ! ! ! ! ! ! ! F ^ K K K F ! ! ! ! ! ^ H L J R T B 9 = * - 6 t k NXdXlXlXlX",
"sXzXhXhXsXsX-X}.n.m.S.M.b.M.b.b.M.b.b.v.t.$._ ^ ! ^ +.3.i.i.i.r.@./ / X.$.X._ X.$.o._ ~ ! ~ _ _ X.$.t.r.X._ _ ^ ! ^ _ X.O.t.t.X.$.t.v.d.0.$.t.j.B.j.f.d.y.o.~ F ! ! ! ! ! ! ! ! ^ F J U v b v K ) ! ! ! ! ^ L l q x u 0 4 - > > d *.1.nXlXlXzXlX",
"<X<X<X<X<X,X/.n.n.m.b.M.b.b.b.b.v.p.t.p.r.X.! ! ! ! @.r.p.l.l.l.r.#.$.X./ ^ ! ^ ^ _ ~ ! ! ~ ~ ! ~ ^ X.| ) ! ^ / $.#.r.t.t.v.d.t.y.d.b.b.p.p.f.M.C.C.C.M.h.O.' _ _ ~ ! ! F ! ^ ) Q G y q 9 9 9 b K ) ! ! ! ) D q - 6 4 - > > 6 - V E.=XlXlXlXzXkX",
"oXoXoXOX@X:X/.n.n.m.b.b.d.y.t.t.r.#.$.r.O._ ! ( ! ^ @.r.l.l.l.l.i.u.w.#.| _ / ^ ! ! ! ! ! ! ! ! ! ! ! ! ! ^ _ #.r.p.v.v.v.v.b.v.b.v.b.b.b.M.M.M.C.C.Z.C.j.q.8.0.0.o._ ! ! F K K U u 4 * * * = 9 v R F ^ K R c 9 * = = : 6 6 6 w -._.nXlXsXkXkXkX",
"oXoX~.oXOX,X-X!.n.l.z.u.:.$._ X._ ^ / | _ ~ ! ( ! _ #.w.i.l.l.l.l.l.i.r.u.t.O._ ! ! ! ! ! ! ! ! ! ! ! ! ^ | 3.p.c.c.v.v.v.v.v.v.v.v.v.v.b.b.b.b.M.C.C.C.M.j.B.S.B.p.o.! ^ H D x e 4 = : : ; = - u E T R T B e - > > : 6 V V V C E.;XdXzXzXlXhXhX",
"@XOXOXOX@X5XqX_.1.{ { { ^ ^ ^ ~ ~ ! ^ ^ ~ ! ! ^ | 3.u.l.l.i.l.l.l.l.l.i.r.:.X.^ ! ! ! ! ! ! ! ! ! ! ! ^ | #.r.r.i.l.c.v.v.v.c.v.v.v.v.v.v.b.b.b.M.M.C.C.C.C.Z.S.C.f.#./ ^ J x 4 - = ; ; : : : : 4 e u u r 8 - = : > > w ,.W.`.W.9XqXsXzXzXlXhXhX",
"OX:X5XuX,X=X/.1.C r k l L F ^ ( ! ! ! ! ! ! ! _ @.u.u.u.r.w.u.l.i.i.l.l.u.:.| ~ ! ! ! ! ! ! ! ! ! ! ^ ^ [  .@.:.i.l.c.l.c.c.c.v.c.v.v.v.v.v.b.b.b.b.M.M.M.C.C.M.M.f.t.$.[ H x =   ; ; : : : : . : = > > - = : : : : > m W.8X8XdXlXlXzXzXzXlXlXlX",
"@X<XuXsX5X/.1.V - = - q G [ ^ ^ ! ! ! ! ! ! ! _ o.:.:.#.+.$.:.i.r.r.u.i.u.:.| ^ ^ ^ ! ! ! ! ! ! F F K H H H / @.i.i.i.i.l.l.c.c.c.c.c.v.v.v.v.b.b.b.b.b.b.b.M.M.M.M.v.t.| H x - = = : : : : : : : ; ; . : : : : = - > V ^.8X:X0XzXzXzXzXzXlXlXlX",
"<XuXuXlXnX1.C < - = - u Y [ [ ^ ^ ! ! ! ! ^ ! ^ ^ [ [ [ ^ ^ X.@.X.| @.3.u.:.X.^ ^ ) ^ ^ ^ ! ! ) ) R v l z K [ | #.@.@.:.i.c.l.c.l.l.l.c.c.c.v.v.b.b.b.b.b.b.b.b.b.b.v.p.@.H l 9 9 e s a 6 : : : o : o : : : : - 4 0 x W E.=X=X5XsXsXsXsXsXsXsXsX",
"5XuXsXjXnXW r > - = - 9 x v v G H ^ ^ ) K H K } K z b v K K [ } [ [ R Y {  .{ R G z z L K ) ^ K G x 9 9 x T [ [ [ ^ | #.l.z.i.i.l.l.l.l.c.c.c.v.v.v.v.v.v.v.b.b.b.b.p.:.| K G v N M d 6 : : : : o : : : : = = 9 x v U { ;.x./.5XsXsXsXsXsXsXsXsX",
"tXtXuXsXnXC d > - - = * - 4 0 l G R [ K v b U W P 0 9 r N B B B B N u e u N B N u 0 q b J K U v r 4 * = e N B U G H ^ #.i.i.r.:.r.l.l.l.l.l.c.c.c.i.d.d.y.y.v.v.v.c.r.X.^ ^ ^ R E M w : ; . o o : : : : > 4 0 x R R } [ { >.Q.5XsXsXsXsXsXsXsXsX",
"uXtXuXsXnX1.V > - - = = * * = e U W Y v 9 - 0 u e =   * = 4 9 4 4 = * * = 4 4 = * 4 u G R J l 4 = = ; * = = 4 0 b H ) X.r.r.@.X.:.u.i.l.l.l.l.z.i.w.w.#.#.#.i.v.i.r.>.| ^ ! ^ K l 4 * * - : : o : = = * 4 N U K F ! ^ ^ [ 3.(.qXsXsXsXsXsXsXsXsX",
"uXuXuXsXkX=X1.m > - - = = = = 4 e u r 4 = * = > :   .   . = * = - = =             4 x T R G u 8 - ; ; o o . - e U R ^ _ | | ) ^ X.#.r.:.r.p.z.z.r.$.| _ _ / $.r.r.+.{ G K ! ^ F z y q u u s : . = 6 4 4 q U R ^ ! ! ! ! ^ :.Q.sXsXsXsXsXsXsXsXsX",
"hXuXuXuXkXMX_.-.w - - - = = : = = - - = o o o o o o o X X o   > s w - = > = * = 8 u G R R G M s > ; o o o o = e P R K K K H L H ^ | X.| @.3.r.3.@./ ~ ! ! ! _ | +.[ v l L F ^ F H G G U B e - . 4 r x b v R ^ ! ! ! ! ^ ^ +.z.8XsXsXsXsXsXsXsXsX",
"@XOX@XuXsX5X8XE.m 6 > - - : : = = =   : o o o o o o o X . : - e P c 0 4 r 0 9 q B T K K K G g a > . . o . . . > e N B U B x b L ^ ^ ^ ^ _ | X._ ^ ! ! ^ F ^ F K R W x 9 b K ) ! ^ ^ ) } v 0 = = 0 U R K F ^ ! ! ! ! ! ^ ^ [ u.8X6X6X6X6X5XsXsXzX",
"+XOX@XuXuX,X-X^.-.d - - - - - : = : : : : o o o o o o o . > g I R R G v U G G U K K ^ ) K v 4 = = : . . . . : : = - 4 9 4 4 q Y ^ ^ ^ ^ ) ^ ^ ^ ^ ) ^ ) K J G D v u 4 - l J ) ! ! ! F ) G b 0 y v K F ^ ! ! ! ! ! ! ! ^ ^ [ 3.:X6X5X5X5X0XqXsXsX",
"@XOX<XzXuX@XoX/.Q.1.-.*.*.m > > > > : : : : ; ; o o o o . = r U [ ^ F K ^ ^ ^ ^ ^ ! ! F F G 0 -   : o : . . : : * * * * * - q R ) ! ! ^ ^ ^ L G L R K R T b y 0 8 4 4 0 v K ^ ! ! ! ! ! K J D L H ^ ^ ! ! ! ! ! ! ! ! ^ } :.Q.5X:X5XqXsXsXqXqX5X",
"<X<X0XzXzX,XOXOX6X;X/.^.W.-.r 6 > - : : : > 1 : ; o o . . = q D K ^ ^ ^ ! ! ^ ! F F F F F R N 6   . : : o . : : : : . . ; - r T [ ^ ^ ^ K R b q l v G U v 0 =     * w c R ^ ^ ! ! ! ! ! ^ ) ) ) ^ ! ! ! ! ! ! ! ! ! ^ ^ +.Q.sXzX5X5XsXlXzXqX5X6X",
"hXuXuXhXhX5X<XuX0XsXeX6X8X^.;.V r w w w s h S a : o . o > d N U R ) [ [ K K F F F F ! F F G q - * = > > : : o : : : : : : = 8 N U R R R U c 7 = = 4 9 4 4 = = = : = r U ^ ! ! ! ! ! ! ! ^ ! ! ! ! ! ! ! ! ! ^ ^ ^ ! ^ ^  .Q.lXkXqXsXlXkXkXsX5X6X",
"kXsXuXhXhXuXuXhXhXhXhXuXkXnX=XW.E.6.1.1.6.5.A a : : . . > g N P P D v b z L F ^ ! ! ! ! F J z u u M M e * * * = > : : : . . = 8 q y l u q 8 : = = = = = = : : . * = y R ^ ! ! ! ! ! ! ! ! ! ^ ^ ^ ^ ^ ^ ^ ^ H H K [ [ ^ { W.jXhXsXzXkXkXzXsXqX5X",
"hXuXuXhXhXuX5XuXuXuXuXuXsXmXMXeXnX8X=X9X9X).Z : : : : . : p s d e 0 0 y v H ^ ) ) ) ! ! ^ F H G R T U x 4 4 8 w e - * : = > - * = = - = * = o : . : . . : : = - 4 9 b K ^ ! ! ! ! ! ! ! ^ ^ K H H K K K R G x x v U U v C W.jXsXzXzXzXlXzXsXsXsX",
"uXuXsXhXhX<X@X:X<X<X<X:X5XsXuX<XsXsX5X8X;XE.t , > : : ; ;     * *   - r E W R R R K K ^ K R R [ [ [ K G b x v P N 9 - = 9 e e * = = = = = = : . : . : : : = - e x v H ^ ^ ! ! ! ! ! ^ ^ ^ R U l l v U U v r - - 9 0 q q Y (.sXuXlXsXsXsXsXzXlXlX",
"sXuXuXuXuX<X@XOX@XOXoXOX@X<X@XOX5XsXhXkXdX_.1.,.*.*.S a ; o o o o o : p d M u r q c W U v x N v H K F F H K K K R D z z G U M =   * - s w * *   = = =   * * r B K K ^ ! ! ! ! ! ! ! ^ L z x r 4 - 4 9 7 4 - , , - - 9 C x.8XkXsXsXsXhXkXsX<XuXhX",
"uXuXuXuX<XOXOXOXOXOXOXOXOXOXOX@XsXzXhXsX0X8X;X_.).5.A p : o o o o o : : > > > = = 7 g e w 4 9 x G K ! ! ^ ) ^ ^ ^ F K K R R U q 4 4 r N N r 0 e e r e 6 = 6 N R ^ ) ~ ! ! ! ! ! ! ! F G q - > ;   ; * * ; ; f V V A -.E.;XjXkXhXhXuXsXhXsX5X5XhX",
"<XuXhXuX@XOXoXOX@X<X<X<XOXOX@X<XuXuXuX5X5X5XdXnX_.5.h : : o o o o o o o o o o o o o .   X   = l H ! ! ! F F ! ! ! ! ^ ^ ^ ^ K G l l v R R G G G G T E u 4 w B W K ! ! ! ! ! ! ! ! ^ ^ U e   o o o o o ; ; < ,.E.E.^.=X8X8X0XuXhXkXuXuXsXhXuXuXuX",
"<X<X5X<X:XOXOXoX<X<X<X@XOXOX@X<X<X5XuX<X:X:X5X=X1.w > : ; : o o o o o o $ $ $ $ $ $ o o $ . w B [ ! ! ! ! ! ! ! ! ! ! ! ! ! ^ K K K F ^ ^ ^ ^ ^ ^ ^ T c 4 > r v R ^ ^ ^ ^ ! ! ! ! ^ ^ W d : o $ o o ; ; < V E.bX-XOX:X:X:X:X<XuXhX<X<XuXsXuX<X<X",
"@XOXoXOX<X<XOXoX:XOXoXoXoXOXOXoX<XuXsX5X@XOXOXx.A , : : : : : o . o o o $ $ $ $ $ $ $ $ X : d E } F F ! ! ! ! ! ! ! ! ! ) ^ ^ ^ ^ ^ ! ! ! ^ ^ ^ ^ ^ [ B d 6 - e B U Y R R ^ ! ! ^ ^ U P s ; o $ $ 2 A *.<.x./.5XoXOXOXOXOXOX@X:X5X@XOX@X<X@XOXOX",
"OXoX~.oX<X5X@XoX5X@XoXoXOX@X@XOXsXkXvXsXOX~./.1.C > > : : : : . . . : : : ; $ $ $ $ $ $ X : d N U G K K ^ ! ! ! ! ! ! ^ K K F ! ! ~ ! ! ^ ^ ! ! ! ^ [ U d 1 o : s g M x v G ^ ^ ) K N e > o $ $ o p 5.`._.-XOX:X@XOXOXOX@X@X@X@X@XoXoXOXOXoXoXOX",
":XOXOX@XuXuX<XOXhXuX<X<X<XuXuXhXhXkXvXuXOXoXOXQ.1.V V d p : : . o : 2 f f 2 ; $ $ $ o o $ o > 6 w r P T K F ! ! ! ^ K K G G H K ^ ! ^ ^ ^ ^ ^ ! ! ^ R c > O X # X o X ; > N R [ W P e * O $ $ $ ; 2 6.9X8X:X;X:XhX<X@X@X5XsX<X@X@X@X@X:X@XOXOX@X",
"uXuXuXhXhXhXsXuXuXuXuX5X<X<XhXvX5XsXhX<X+X:XsXMX=X^.`.1.Z > : : : : f ,.5.A > ; ; 2 f 1 $ $ o o o : 8 x G K ^ ^ K K G v 9 q v [ [ } R n v U [ ^ ) [ W r o # # # # # # # X s N B N e > o $ $ $ 1 : a E.8XsX5X<X<XmXhX<X<XkXmXsX:XuXuXsXhXuX:X<XhX",
"5XuXsXsXuXuXuXuXsXkXhX<X<XhXkXsXkXhXuXuXzXhXhXzXMXnXbX`.*.> > : : > *.`.9XE.-.A Z A =.a $ # $ $ O X - u U K ^ ^ R z r 7   > g E U U E q w r B T R W M 6 O # + + + + + + # 1 p p p : $ $ $ 1 2 f m -./.6X5XuXhXhXCXuX@XuXvXkXuX<XvXhXsXuXhXhXhXhX",
"uXuXhXsXuXuXuXsXuXhXhX<X<XhXhXuXuXuXuXuXzXhXhXuXzXsXsX=X1.r > > > A E.bXdX8X9X`.E.5.,.f $ $ $ $ $ o p h I U R R U 9   O O 1 p s g g s *   * w N V M > X @ % 3 3 + + + + + # @ X # # $ # $ p Z *.1.^.8X5X<XsXhXhXvX0X@XuXkXhXuXuXvXhXsXsXhXhXhXhX",
"uXuXhXsXuXuXuXhXuXsXhXuXuXhXsXuX:X:X<XuXhXhXuX<X0X0XqXdX;X4.*.A <.W.8XsXsXsXdXnX_.<.< ; ; $ $ $ $ $ o > 6 9 B W V > O # # # $ o o o $ O # # X $ 1 $ # @ & j =.S @ % + + + + # # # # # $ ; m 6.^.(.=X,X<X5XhXkXhXuX<X@XtXsXuXuXhXsXuX5XuXsXhXhXhX",
"uXsXhXuXuXuXuXhX<XuXsXhXhXsXuX<X@X@X:X5XuXuX<X@X5XuXhXkXjX;X^.W./.8XqXsXuXuXsXkX=X1.m a a p p 1 $ $ o o o = w d p : X # # $ # # # # @ # + + @ @ @ @ 3 j =.7.`.5.S 2 $ # $ # $ $ $ $ : p V <._.=X}.@X<X0XuXhXhXzXuXtX<XtX5X5XuXhX<X:X@X<XuXuXuXuX",
"uXuXuXuX5X5XuXhX<X5XuXhXhXuX5X<X:X@X@X<X<X<X+XOX<XuXhXhXlX5X,X-X:X5X0XuX5XuXsXkX=XQ.1.-.-.*.A a ; $ $ $ $ O o o o $ # # $ 3 3 $ # # # + % 3 3 3 @ ; A 5.`.bXNX.XE.,.Z h f f a a f h V *.1.^.,X,XOX<XsXuXuXuXsXuXuXsXsX5X<X<XuXuX<X:X:X<XuXhXsXuX",
"uXuXuX<X<X<XuXsX5X<XuXhXhXuX<X5X5X<X@XOXOX@XOXOX@X<XuXsXuX,X+X+XOX:X5XuX<X5XhXkX5X8X8XbXnX9X6.m ; X 1 1 ; $ $ $ $ $ $ $ 2 Z =.f ; $ $ $ 2 S =.S f A ).bXnXkXsX:X8X8X.X).6.5.<.5.6.E.^..X8XeXsXuX<XuXhXuX5XuX5X,XuXhXuX:X@X<X5X<X5X<X5XuXhXkXhXhX",
"5X5X<X<X@X:X<XuXuX<X5XhXhX5X<XuXuX<XOXoXoXOX@X@XoX@X<X5X<X:X@X@XOX:X<X5X<X<XsXvXsXqXjXMXjX8X^.-.V Z ,.A a ; $ $ $ $ o ; Z 6.`.6.Z 2 3 f ,.).`.E.E.^.8X8XsXkXhX5X5X8XdX8X9X=X.X.X9X9X,X6XsXsXzXuX5XhXhX<X:X<X<X@X<X5X:XOXOX@X<X:X<X5X5XuXhXhXhXuX",
"<X<X<X:X@X@X<XuXuX<X<XhXhX<X<XuXuX@XoX~.oXOX<X5X~.OX@X<X:X:X<X<XoX:X<X5X<X<XsXvXhXsXzXkXsX5X=XQ.4.E.`.E.*.p : ; : a S A 1._.8XbXE.,.,.<.^.nXnX8X8XdXsX0XuXkXkXuX@X5XzXsXqX0XsXsXkXsX5X5XuXuXsXuX5XsXuX<X@X@X:XOX@X:XOX~.oX@X<X@X:X:X<X<XuXuX5X<X",
"<XOXOX@XuXhX<XOX5XsXkXhXuX<X<X<X@X<X5X:X@X<X:X@XOXOXOX@X@X<X5XuX<X~.<XhXOX@XhXuXuX@X5XvXhXOX:XmX8X8X8X/.1.k - , - C 1.W._.;X5XkX9X9X9X8X8XsXlXzX5X5X,X@X:X<XuXuX@X@X<XuXhXhXhXuXhXhXuXuXsXhXhXkXhX<X@X<XuX<X@X@XoXoXOX@XOXoXOX:X@X<XsXuXsXhXsX<X",
"@XOXOX@X<X<X@XOX:X5XsXhXuXuXuXuX5XsXsX5X<XuXuX5X<X<X<X<X5XuXuXsXuXoX<XhX@X@XsX<X<X@X:XuX<XOXOXuX:X:XOXOX;XbXNXNXbX9X9X8X5X<XrXzXuXhXhX5X:X<X5X<X@X@XOXOXOXOXOX@XOXOX@X<XuXhXsXuXuXuXuXuXuXsXsXsXsX<X@X<XuXuX<X<XOXOX@X<X@XOXOX<X:XuXsXuXsXhXhX5X",
"OX<X5X5X:X@X@X@X@X<X5XuXuXuXsXhXhXhXhX5X<XhXhXhXhXhXsXuXuXuXuXsXuX@XuXvX<X@X5X<X@X:X:X<X:X:X@X@X:X+XOXOX;X,X8XnX8X-XOX:X0XuXuXsXuXhXhX5X@X@X@XOX@X@XOXoXoXoXoXoXoXOXOX<XuXsXuXuX5XuXuXuXuXuXuXuXuX:X@X5XhXsXuXuX@X:XuXsX5X@X@XuX5XsXhXsXhXhXhXuX",
"OX<XsXuX@XOXOX<X:X<XuXuXsXhXhXhXsXsX5X@X<XsXkXhXhXhXsXuXuXuXuXsXuX<XsXvXhX5X<X<X<XsXuX<X5XhXuX@X5X:X@X@X<X<XuXsXhX,XOX<XsXsXuXuXuXhXzX5X:X:X@XOX<X:X@XOXOXOXOXOX@X@X:X5XsXsXuX<X<XuXsXhXsXuXuXuXsX<X@XuXhXhXsXsX<X5XsXhXuX:X<XuXuXhXkXsXhXhXhXuX",
"OX<XuX<XOXoXOX@XuXuXuXuXsXhXsXsXuXuX:XOX@XsXhXhXuXuXuXuXuXhXhXhXuXuXuXhXvXuX<XuXuXvXhXuXsXmXhX@XuXuXuX5X5XuXuXsXvX5X:XuXhXhX0X5XuXsXuX<X<X<X<X@X<X<X<X<X<X<X<X<X<X<X<XuXuXuX<X@X@X<XuXuXuX<X5XuXhX<X<XuXhXhXuXuXuXuXsXhXuX@X<XsXuXhXhXuXuXhXhXuX",
"5XuXuXuX<X@X:X<XsXuXuXuXuXsXuXuXuX5X@XOX:XhXkXhXuXuXuXuXhXhXkXvX5XsX<X5XvXuX@XuXuXhXhXuXsXvXuXOXhXsXsXuXuXsXhXhXvXrX<XuXhXsX0X0XuXuX<X@X@X5X5X:X@X@X@X:X<X<X<X<X<X<X<X<X5X<X@XOXOX:X<X<X:X@X<X5XhX<X:XuXhXhXsXuXhXsXsXuX<X@X<XhXuXhXsX<X<XsXhXsX",
"hXuX5X5XuXuX5X<XuX<X<X<XuXuXuX<X<X<XOXOX<XhXkXuX<X<X5X5XuXsXhXhX5XsX@XOXhX:XoX<X<XuXuXuXuXuX<XOXuXuXuXsXsXhXhXhX5X:X<XuXsXuXuXsXsXuX:XOXOX<X<X@XOXOX@X@X@X:X@X@X<X<X<X5XuX<X@XOX@X<XuX<X@X@X5XsXuX@X@XuXhXhXhXhXvXhXsXuX:X@X<XhX5XuX5X@X:XuXsXsX",
"uX@XoXOX:X<X@XoX<X:X@X@X<XuX5X<X@X@XOXoX@XsXhX<X:X:X@X:X<X<X<X5X<XhXOXoX5XOXB.OX<X<XuXhXuX<X@X@X5X5XuXuXsXhXkXkXOXOX@XuXuX<XuXhXhXuX@XoXoX@X<X@XOXOXOXOX@X@X@XOXuX5XuXhXhXsX5X:X5XuXhXuX<X<XsXvX<XOXOX<XhXhXhXkXmXkXsX5X@XOX<XvX<X<X<X@X@XuXhXsX",
"<X@XOXOXOX@X:X<XOX@XuXsXuXuX<X<X@X@X<X5XsXhXhXhX@XuX<X@XuXuX@X@X:X<X<X@XoXoXOXOX@X:X<X<X:X:X<XuX+X5X@XOX@XhXuXOX:X<X<X:X:X<XuXhXuX<X@XOX@X@X@XOXsXuX<XOXOXOX@X<X:X:X<XhXhXuXuXkXuXuXuXsXsXhXhXhX@X@X@X5XhXkXsX<XvXhX<X@XOX@X<X5XOX<X<X@X@XuXuX<X",
"5X:XOXOX@X<X5X5X@X<XuXhXsXuXuXuX<X<X5XuXuXsXsXhX<XkXuX:XsXhX<X<XuXuX5X<X@X@X@X:X<X<XuXuXuXuXuXhXOX5X<X@X<XsX<X~.<X@X@X@X:X<XuXsXhXuX5X<X<X<X<X@XhXhX<X@X@X@X<X5X:X:X5XhXhXuXhXvXsXhXhXhXhXhXsXuX@X@X<XuXkXhX<XOXuX<X@XOXoX@X<XuX@X5XuX<X<XuXuX<X",
"uX<X@X@X:XuXuXsX<XuXhXhXsXsXhXhXuXuXuXuXuXuXsXsXuXvXuX:XsXhXuXuXhXsXuXuXuX5X<X<X@X<X5XuXuXuXsXhX@X<X5X<X<XuX@XB.<X@XOX@X<XuXuXuXhXsXuXuXsXuX<X<XhXuX5X<X@X:X<X<X@X@X<XsXhXuXuXvXsXhXhXhXuXuXuX5X@X@X<XuXhXuX@XoX:X@XoXoXoX@XuXhX<XuXuXuXuXuXuX5X",
"5X<X@X@X<XuXhXhXuXuXsXsXuXsXhXkXsXsXuXuXuXsXsXhXuXvX<XOX5XsXuXsXhXuX5XuXsXuX5X@XOXOX@X:X<X<X5XuX:X5XuX<X5XuX@XoXuX<X@X@XuXhXsX5XsXuXuXsXhXuX<X:XsXuX<X<X<X<X:X@XOXOX@XuXuX<X5XhXsXuXuX<X<X<X5XuX@X@X:X<X5X<XOXoX@XOXOXOX@X<XuXhXuXsXsXhXhXhXuX5X",
"<X:XOX@X:XuXsXhXuXuXuXuXuXuXhXvXuXuXuXuXsXsXhXhXuXkX<XOX<XsXuXhXsXuXuXuXhXhX<X@XoXOX@X@X@X@X<X<X<XuXuX5XuXuXuX<XhX5X:X<XhXkXhXuXsXsXuXsXhXsXuX<XhXuXuXuXuXuX<X@XOXOX@XuXuX<X5XhXhXuX<X@X:X5XhXvX5X<X<X:X<X<X<X:X<X<X5XuXsXsXuXuXuXuXhXhXhXsXuXuX",
"5X:XOXOX@X<XuXuX<XuXuXuXuXuXsXhXuXuXuXuXuXuXhXhXuXkX<XOXuXhXuXhXuXuXsXhXhXhX5X:XoXOX@X:X:X:X<X<X5X5XuXuXuXsXhXsXhXuXuXuXhXvXhXsXhXhXhXhXhXhXsXuXkXhXhXkXvXhXuX@X@X@X<XuXuX<X5XhXhXuX<X@X@X5XhXvXuXuX<X<X<X5XuXsXuXuXhXkXkXhXsXuXuX5XuXhXkXuXuXuX",
"uX<X@XOX@X<XuXuX<XuXuXsXuXuXsXhXhXsXuX5X<X5XuXuX<XhX<XOX5XuX<XuX@X<XuXhXsX5X@X@XoXOX@X<X:X@X@X:X<X<XuXhXhXuXuXuXuXuXsXhXhXhXhXhXhXsXuXuXuXhXuXuXhXsXuXhXvXhX<XOX@X@X<XuXuX:X<XuX<X<X@XOX@X@X<X<X5X<X<X<X:X<X<X5XhXhXhXhXhXhXhXhX<X:X<XhXhXuX<XuX",
"uX<X@X@X:X<XuXuX<XuXsXhXsXsXhXhXkXhXuX<X<X<X<X5XOX5XOXoX:X<X@X<XoX@XuXuX<X@XOXOXoXOX@X:X@X@XOX@X@X<XuXkXhXuX<X<XuXuXhXhXsXuXsXhXsXuX<X<X<X5X5X5X5X<X<XuXhXuX@XoXOXOX@X:X:XOXOX@XOXOXOXOXoXoXoXoX@X@X@X@XOXOXOXOXkXhXuX5X<XuXhXhX:X@X<XhXhX5X<XuX",
"@X<XhXvXhX<XuXvXvXhXuXuXsXhXhXuXhXhXhX5X@XoXoXoXOXoXoXoX@X<X@XOXoXOX:X6X6X+XoX~.~.~.oXOXOXoXoXOX5X<X5XuXhXsX5X<XoXOX<X<X<X@X:X<X@X@X@X@X@X@X@X@X~.OXuXhXhXuX5X<X<XOXoXoXoXoXoXoX@XoXB.~.oXoXoXoXOXOX~.~.OXoXoX<XsXhXhXsXuXuX5X<X<X@XOX@X<XuXuX<X",
"OXOX<XuX<X@X:XuXvXhXuXuXhXhXhXhXsXsXsX5X@XOXoXOX:XOXOX@X<XuX<X@XOX:X5XsX0X,XOXoXOXoXoXOX<X@XOXOXuXuXuXhXhXhXuX<XoXOX@X@X@X@X@X@XOXOXOXOXOXOX@X@XOX@XuXhXhXuX5X<X:X@XOXOXOX@X@X@X<XOXoXOXOXoXoXOXoXOX~.~.@XOXoX<XhXhXsXuXuXuXuX5XuX<X<X<XuXuXuX5X",
"@X@X@X<X5X<X<XuXkXhXuXsXhXhXhXhXuXuXuXuX<X@X@X@XuX<X:X<XuXhXuX5X:X5XsXzXzXsX,X-XuXOXOX:XuXuX<X@XuXuXuXhXhXhXuX5X@X@X@X@X@X:X@X@X@X@X@X@X@X@X:X:X:X<XsXhXsXuXuXuX<X@X@X@X<XuXuX5XhXuX<X<X:XOX@X<XoXOXoXOX<X@XOX5XhXhXsXuXuX5XuXuXuXuXuXuXuXuX5X<X",
"uX<X@X5XsXsXsXhXsXsXuXsXhXhXhXhXuXuXsXuXuX5XuXuXsXuX5XuXhXhXhXuX5XsXzXkXkXzXsX5XhX<X@XuXhXhXuX5XuXuXuXuXhXsXuX<XhXuX<X<XuXuXuX<X<X<XuXuXuXuXuXuX5XuXuXuXuXuXsXsX5X<X<XuXsXhXhXuXhXsXzXlX5X@X5XzXOX@X@X<XsX<X@XsXkXhXuXuX5XuXuXhXuXuXuXuXuXuX<X:X",
"hX<X@X<XsXsXuXuXuXsXhXhXhXhXhXhXuXsXhXhXhXsXhXkXuXuXuXuXhXhXhXsXqXsXzXsXkXlXsXsXhXuXuXhXhX0X0XhXsXuXuXuXsXhXuXuXkXhXuXuXhXhXhXuXuXsXhXhXhXhXsXuX5X5X5X5XuXsXhXhXuXuXuXsXhXhXuXuXsXsXlXkXsX5XsXxX@XuX5XuXkX5X:XhXkXhXuXuX0XuXhXhX5XuXsXhXsXuXuX5X",
"hX5X<XuXhXuXuXuXuXsXhXhXhXhXhXvXsXhXhXkXhXsXhXkXuXuXsXsXhXhXsXsXsXsXsXzXlXlXzXlXhXuXuXhX0X,X<XzXhXuXuXuXhXhXsXuXhXuXuXuXhXhXhXuXuXsXhXhXsXuX5X<X<X<X:X<XuXsXsXsXuXuXuXsXhXsX<X:XqX5XqXlXlXqXsXkX5XhXsXhXkX<X:XkXhXhXsXuXuXsXhXhXuXsXhXhXsXuXuXuX",
"uX<X<XuXuX<X@X:X@X:X5XuX<X<X5XuXuXsXhXhXuXuXuXsXsXhXhXsXhXsXhXhXsXsXsXzXzXlXkXkXhXuX<XuX5X:X:X5XuX5X<X<X5XuX5X<X<XuXsXhXhXsXsXsXuXsXsXsXuX5X:X@X<X:X@X:X<XuX5X<X<X<X5XuXsX0X:XOXlX8X8XdXkXdXsXsX5XhXhXuXhX:X@XhXhXhXsXsXhXhXhXhXuXuXsXuX<X:X<X5X",
"OXOXOX@XOXoX~.~.~.oXOX@XOXOXOX@XuXuXsXuX5X<X<XuXhXhXhXhXsXhXhXhXlXlXsXsXlXkXkXkXvX<XOX@X<X<X@X@X:X@XOXOX@X@X@X@X:XuXkXvXhXhXhXhXhXhXhXsXuX<X@XOX<X<X@X@X<X<X:XOX@X@X:X<XsX5X@XOXkXqX8XdXMXdXqX5X5XhXsXuXuXOXOXsXuXsXzXsXhXhXhXsXuXuX5X:XOXoXOX@X"
};
