/* XPM */
static char *_2546a8dde534180d6ee4a70a4c8294eS2AiEycjzmB1xRCF[] = {
/* columns rows colors chars-per-pixel */
"120 120 256 2 ",
"   c #3F2A2E",
".  c #433324",
"X  c #4A382B",
"o  c #483532",
"O  c #46341A",
"+  c #4D5A02",
"@  c #555B07",
"#  c #595815",
"$  c #655B19",
"%  c #576207",
"&  c #5E6215",
"*  c #66680C",
"=  c #686617",
"-  c #716E19",
";  c #5D4C38",
":  c #5A502B",
">  c #685829",
",  c #675539",
"<  c #685237",
"1  c #6B6224",
"2  c #7A6B3B",
"3  c #776E32",
"4  c #763954",
"5  c #743B70",
"6  c #50344F",
"7  c #694D47",
"8  c #6B5348",
"9  c #7D5D4C",
"0  c #745A49",
"q  c #6C4C58",
"w  c #6C5457",
"e  c #7C5B52",
"r  c #775558",
"t  c #754D59",
"y  c #7A6845",
"u  c #7A6F4D",
"i  c #6A4766",
"p  c #764866",
"a  c #795468",
"s  c #6B4A78",
"d  c #794977",
"f  c #6E5570",
"g  c #776E70",
"h  c #594252",
"j  c #975732",
"k  c #A85739",
"l  c #BB523C",
"z  c #B5533B",
"x  c #B45237",
"c  c #8B7436",
"v  c #A67339",
"b  c #916C17",
"n  c #833A4A",
"m  c #825E4D",
"M  c #84575A",
"N  c #994E50",
"B  c #B75348",
"V  c #B3525C",
"C  c #A95050",
"Z  c #836446",
"A  c #836449",
"S  c #876645",
"D  c #866253",
"F  c #977052",
"G  c #A47749",
"H  c #AA7555",
"J  c #875765",
"K  c #854976",
"L  c #985A77",
"P  c #8B546E",
"I  c #A25B72",
"U  c #B45969",
"Y  c #8A666A",
"T  c #986674",
"R  c #93706C",
"E  c #A67A68",
"W  c #B9637A",
"Q  c #A87475",
"!  c #778D00",
"~  c #799502",
"^  c #778E12",
"/  c #7C8539",
"(  c #91930C",
")  c #AE9219",
"_  c #91A40F",
"`  c #ADAB18",
"'  c #9A9827",
"]  c #8E8832",
"[  c #A69925",
"{  c #B69928",
"}  c #AF8F34",
"|  c #9AAC36",
" . c #B6A729",
".. c #A5A838",
"X. c #AFAA31",
"o. c #C69B2E",
"O. c #C8A82A",
"+. c #D7AB27",
"@. c #D9B427",
"#. c #C7A635",
"$. c #D7B639",
"%. c #D1AE34",
"&. c #E5B926",
"*. c #E1BD34",
"=. c #D4AE16",
"-. c #FDD51E",
";. c #EFC91A",
":. c #EAC428",
">. c #F5CA29",
",. c #FDD422",
"<. c #FBD42B",
"1. c #F6D22C",
"2. c #EBC937",
"3. c #F7D536",
"4. c #F1CD33",
"5. c #DBC639",
"6. c #878A43",
"7. c #8D9346",
"8. c #938B51",
"9. c #B69A59",
"0. c #AF8E50",
"q. c #9EBE43",
"w. c #9EB249",
"e. c #9AA34E",
"r. c #A9B647",
"t. c #A9A857",
"y. c #B1B052",
"u. c #948A73",
"i. c #AB8266",
"p. c #B58967",
"a. c #BB9967",
"s. c #B88A78",
"d. c #BB9376",
"f. c #AB8B73",
"g. c #B8B965",
"h. c #B6BA77",
"j. c #ADB170",
"k. c #9DA377",
"l. c #D1B54B",
"z. c #C5966D",
"x. c #C7996D",
"c. c #C69974",
"v. c #CB9B72",
"b. c #C79878",
"n. c #CF9C78",
"m. c #C9A676",
"M. c #D4A37B",
"N. c #D9A67C",
"B. c #C7B26E",
"V. c #C1925A",
"C. c #A1C146",
"Z. c #A5C54B",
"A. c #A9C64E",
"S. c #A9C94E",
"D. c #A7C94E",
"F. c #AAC554",
"G. c #ADCD52",
"H. c #ADC75A",
"J. c #B1CD56",
"K. c #B3CD5B",
"L. c #B5C859",
"P. c #AFD156",
"I. c #B1D156",
"U. c #B4D45A",
"Y. c #B9D95D",
"T. c #B9D45D",
"R. c #B3C44E",
"E. c #AEC464",
"W. c #B5CC63",
"Q. c #BACC65",
"!. c #B7C768",
"~. c #B8D463",
"^. c #B9C676",
"/. c #B8CC72",
"(. c #9EC045",
"). c #DAC64E",
"_. c #F8D547",
"`. c #EFCF4B",
"'. c #C6C86C",
"]. c #E9CF6C",
"[. c #743885",
"{. c #6E4984",
"}. c #73478A",
"|. c #7F7A80",
" X c #945989",
".X c #8C4F8E",
"XX c #9A6E96",
"oX c #AB728F",
"OX c #9751AF",
"+X c #A45DAE",
"@X c #B874AB",
"#X c #BA78B6",
"$X c #AC6AB2",
"%X c #A35E9F",
"&X c #C57DB9",
"*X c #C47FAB",
"=X c #C27F89",
"-X c #BB78C6",
";X c #B56DCD",
":X c #B96DE4",
">X c #A157C4",
",X c #C37BC7",
"<X c #C37BD9",
"1X c #C477E6",
"2X c #803697",
"3X c #938E8F",
"4X c #BB8589",
"5X c #B4999A",
"6X c #B58D91",
"7X c #BBB986",
"8X c #B5AB90",
"9X c #B78CAA",
"0X c #B790AD",
"qX c #ABA9AD",
"wX c #9E9DA1",
"eX c #C1878A",
"rX c #CA9887",
"tX c #D29D8A",
"yX c #C48992",
"uX c #CB9795",
"iX c #D39C98",
"pX c #DAA586",
"aX c #DAA496",
"sX c #CEB08D",
"dX c #E4AC89",
"fX c #E8B28A",
"gX c #E6AB97",
"hX c #E8B396",
"jX c #C888AA",
"kX c #D698A9",
"lX c #C785B7",
"zX c #D38DB8",
"xX c #D896B8",
"cX c #CD94A6",
"vX c #D5AAAD",
"bX c #E7A9A8",
"nX c #E8A7B7",
"mX c #EAAEAA",
"MX c #E59EBE",
"NX c #BDC385",
"BX c #C4C38C",
"VX c #DFD1B2",
"CX c #BD85C7",
"ZX c #BFBCC1",
"AX c #C487C7",
"SX c #C784D6",
"DX c #D691CA",
"FX c #E39ACE",
"GX c #CFB7CB",
"HX c #EAA4C8",
"JX c #D897E7",
"KX c #D3CED2",
"LX c #EEDAEA",
"PX c #FDF6FB",
"IX c #F4EBEC",
"UX c #EAD8D3",
/* pixels */
"Z.q.| C.C.C.C.Z.C.C.C.C.C.Z.Z.Z.G.D.D.G.A.C.D.U.I.I.G.G.G.G.I.U.G.G.G.I.I.G.G.U.U.I.G.G.G.G.G.D.D.Z.D.G.G.G.D.Z.U.U.U.U.I.G.I.U.U.Y.Y.I.G.G.Z.C.| C.Z.D.Z.C.Z.D.G.q.q.Z.Z.q.q.G.I.G.I.U.Y.Y.U.G.I.Y.U.G.Z.D.D.Z.G.G.I.U.Y.U.U.U.~.U.G.D.D.D.Z.C.",
"G.Z.C.D.G.D.D.G.Z.Z.Z.Z.D.D.G.G.D.Z.D.D.A.Z.G.Y.G.G.D.D.D.D.G.G.G.D.D.G.I.I.I.U.U.I.G.G.I.I.G.G.G.G.G.G.G.G.D.Z.I.U.U.U.I.I.U.U.I.U.U.G.G.D.Z.q.q.C.D.G.D.Z.D.G.G.Z.C.D.G.Z.D.U.U.I.U.U.Y.U.U.I.I.I.G.D.D.G.G.Z.G.I.I.U.U.U.U.I.U.I.G.D.G.G.G.G.",
"I.G.G.I.U.I.I.I.G.G.G.G.I.I.I.U.D.D.D.D.Z.Z.G.U.D.D.D.D.D.D.D.D.G.Z.Z.G.U.U.U.U.I.I.I.I.U.U.I.I.I.U.U.U.I.G.G.G.G.G.I.I.I.I.I.U.I.U.U.I.G.G.D.C.Z.D.G.G.G.D.G.G.D.G.G.G.G.I.I.U.I.U.U.U.U.I.I.G.I.I.G.D.G.U.I.G.U.U.I.I.I.I.I.G.I.G.G.G.G.I.U.U.",
"U.U.U.U.Y.Y.U.I.I.U.U.U.U.U.U.U.G.G.D.Z.C.C.Z.G.G.G.D.G.G.G.G.D.G.Z.Z.G.U.U.U.I.I.I.U.U.U.U.U.I.I.U.Y.U.I.G.I.U.G.I.U.U.I.I.I.U.U.Y.Y.U.I.U.I.G.D.G.I.I.I.G.I.I.D.I.I.G.G.U.U.G.G.I.U.U.G.D.D.G.U.U.I.I.I.U.U.I.U.U.I.G.G.G.I.I.U.U.I.I.I.I.I.I.",
"U.U.U.U.U.Y.U.G.Y.Y.U.U.U.U.U.I.G.G.D.Z.C.C.Z.D.G.G.D.G.G.G.G.D.G.Z.Z.G.U.U.I.G.I.I.U.U.U.U.U.U.I.U.U.I.G.G.U.Y.U.Y.Y.Y.U.I.I.I.U.Y.Y.U.U.U.U.I.G.I.I.U.I.I.U.U.G.U.U.G.G.U.U.G.D.G.G.G.D.Z.Z.D.I.U.Y.U.G.D.G.U.U.I.G.G.G.G.I.U.U.U.U.U.I.I.I.I.",
"I.I.U.I.I.U.U.G.U.U.U.U.U.I.I.I.D.D.Z.C.C.D.G.G.G.D.Z.Z.D.G.D.Z.G.Z.Z.G.U.I.G.G.I.I.U.I.G.G.I.U.I.I.G.G.G.G.G.U.G.G.I.I.G.D.Z.Z.D.G.I.G.G.U.U.I.I.I.I.U.U.U.U.U.U.Y.Y.G.I.U.U.I.D.D.G.G.D.Z.D.D.G.I.U.I.D.C.Z.I.I.I.G.G.G.I.U.Y.I.U.U.U.U.U.U.Y.",
"U.U.I.G.G.U.U.G.I.I.I.I.I.U.I.I.D.G.D.Z.Z.G.U.I.G.Z.C.C.Z.D.D.Z.Z.Z.D.G.U.I.I.U.U.U.I.G.D.D.G.U.U.G.D.Z.Z.D.D.D.C.Z.Z.Z.C.C.q.q.C.Z.D.Z.G.I.U.I.U.I.I.I.U.U.U.U.U.U.I.G.G.I.U.U.G.D.D.G.G.G.G.I.I.I.U.U.G.Z.Z.I.I.I.I.I.I.U.U.U.G.I.U.U.U.U.U.Y.",
"U.Y.U.G.G.U.U.G.G.G.G.I.I.U.U.U.I.U.G.D.D.I.U.I.G.D.C.C.A.G.D.Z.C.C.D.I.I.I.I.Y.U.U.I.G.Z.Z.G.I.Y.G.Z.C.C.Z.C.C.C.Z.Z.D.Z.C.C.C.q.C.Z.Z.D.I.U.U.U.I.I.I.I.U.U.U.I.G.D.D.G.G.G.U.J.G.D.G.I.U.U.U.Y.I.I.U.I.G.G.U.I.I.I.I.I.U.U.U.I.U.Y.U.U.I.U.U.",
"I.I.G.I.U.U.I.G.G.G.G.G.G.I.U.U.U.U.U.I.I.I.I.U.U.Z.| q.C.C.Z.G.| q.Z.D.G.G.G.I.I.G.D.G.G.G.I.U.G.D.Z.Z.G.G.G.Z.Z.D.G.Z.D.G.I.D.Z.Z.D.G.U.U.I.G.G.G.G.D.D.I.I.I.I.I.G.Z.Z.G.G.G.D.C.Z.I.Y.Y.U.U.U.U.G.G.G.G.I.G.G.I.I.I.I.I.I.I.G.I.U.U.G.G.U.Y.",
"U.I.I.U.U.Y.U.G.G.G.G.G.I.I.U.U.Y.U.U.U.I.G.G.G.G.Z.q.C.Z.Z.Z.G.C.Z.G.G.G.I.I.U.U.I.I.U.U.I.I.U.U.I.G.G.U.U.U.G.G.U.U.G.G.I.G.D.I.J.G.I.Y.Y.U.G.Z.D.D.Z.Z.G.G.D.G.G.Z.C.Z.D.D.Z.Z.C.Z.I.U.G.G.G.D.G.G.G.G.G.G.G.I.I.I.I.I.I.I.I.G.U.U.I.G.G.I.Y.",
"I.I.I.I.U.U.I.G.G.G.I.U.U.U.U.U.U.U.U.I.I.I.I.I.G.G.G.G.I.G.G.I.G.G.I.I.I.I.U.U.U.U.U.Y.U.I.G.I.~.U.U.U.Y.Y.Y.U.U.Y.U.I.G.I.G.G.T.U.I.I.U.U.U.G.C.Z.D.Z.Z.D.D.Z.G.G.G.Z.D.G.G.D.Z.A.G.U.I.D.Z.Z.Z.D.G.G.G.D.G.G.U.I.I.I.G.I.I.U.J.I.I.G.G.G.I.Y.",
"I.I.I.I.I.I.I.G.G.I.U.U.Y.Y.U.U.I.U.I.I.U.U.Y.Y.I.I.U.Y.U.U.U.Y.I.I.U.I.G.G.I.U.U.U.I.U.I.G.D.G.Y.U.I.U.U.Y.U.U.I.I.I.G.G.I.G.G.I.G.D.D.G.I.I.G.Z.D.G.D.D.D.Z.C.G.I.G.G.G.I.G.D.Z.D.U.T.I.D.Z.D.D.G.I.I.G.D.G.U.I.I.G.G.G.G.G.I.G.G.G.D.D.G.I.Y.",
"I.I.I.I.I.I.I.I.I.I.U.U.Y.U.U.U.U.I.I.U.U.U.Y.Y.I.U.U.U.I.U.U.U.I.U.U.I.G.G.I.U.Y.U.I.I.G.D.G.G.U.U.I.I.U.U.U.U.I.I.G.I.G.G.G.G.G.D.Z.Z.D.G.G.G.Z.D.G.D.D.D.Z.C.Z.D.D.Z.Z.D.Z.q.q.D.U.U.I.G.D.G.I.G.G.G.Z.C.D.U.G.G.D.D.Z.D.G.G.Z.Z.Z.D.D.G.I.U.",
"I.U.U.I.I.I.I.U.I.I.U.U.U.U.U.U.U.U.U.I.I.I.I.I.U.Y.U.I.I.U.U.U.I.U.U.U.U.I.U.U.Y.U.I.I.G.G.G.U.U.U.U.U.U.U.U.U.Y.U.I.U.I.G.D.G.U.G.D.D.G.G.G.D.Z.D.D.Z.Z.Z.Z.C.Z.D.Z.C.C.Z.C.q.q.Z.I.I.G.G.G.G.I.D.Z.D.Z.q.Z.I.G.G.G.D.D.D.D.D.Z.Z.Z.D.G.I.I.U.",
"G.I.I.G.G.G.I.U.I.I.G.G.I.I.I.I.U.U.I.G.G.G.G.G.Y.Y.U.G.U.Y.Y.G.G.G.I.U.I.I.I.U.U.G.G.I.G.G.G.U.U.U.U.U.U.U.U.U.Y.U.I.U.U.G.D.G.U.I.G.G.I.U.I.G.D.G.D.Z.Z.D.D.Z.G.G.G.D.D.G.D.C.q.D.G.G.G.I.I.G.I.Z.C.D.Z.C.Z.I.I.I.I.G.G.G.G.G.D.D.G.G.I.U.I.I.",
"D.G.G.D.Z.Z.D.G.I.G.G.G.G.G.I.I.G.G.G.D.D.D.G.G.I.I.G.G.I.U.G.C.Z.D.G.G.G.G.G.G.D.D.D.G.I.G.G.G.U.U.U.U.I.I.U.U.I.G.G.I.I.G.G.I.I.G.G.G.U.Y.U.I.G.I.G.D.D.G.I.G.I.I.G.D.D.G.G.Z.C.G.I.G.I.U.U.I.I.Z.C.G.G.D.D.I.U.U.U.U.U.I.I.G.G.G.I.U.U.U.I.G.",
"q.Z.D.D.Z.C.D.G.G.G.G.G.G.G.G.G.Z.D.Z.Z.D.G.G.A.I.G.D.D.Z.Z.A.G.Z.G.G.G.D.Z.Z.D.D.Z.C.C.Z.Z.Z.Z.G.I.G.Z.Z.G.S.Z.C.C.C.C.q.C.G.U.C.A.G.U.U.U.U.I.U.G.U.Y.I.P.U.I.Y.Y.U.U.U.U.U.U.U.U.I.I.U.U.U.U.G.I.U.U.U.I.U.U.U.I.I.I.U.U.U.I.G.I.U.Y.Y.U.G.G.",
"q.Z.G.G.G.D.G.G.D.D.D.G.G.D.D.D.G.G.G.D.D.I.G.D.I.G.G.D.D.D.G.G.G.G.G.D.Z.C.Z.Z.G.Z.C.C.Z.Z.Z.Z.G.G.A.C.Z.D.D.C.C.Z.Z.A.Z.D.I.U.D.G.U.Y.U.U.U.U.U.G.U.Y.G.G.I.I.Y.U.U.U.J.U.J.U.U.I.I.I.U.U.U.U.G.I.U.U.U.I.U.U.U.I.I.I.U.U.U.I.I.I.U.Y.U.U.G.G.",
"C.Z.D.G.G.G.G.D.Z.Z.D.D.D.D.Z.Z.G.G.G.D.D.G.G.Z.U.U.I.G.G.G.G.G.I.I.G.D.Z.C.C.Z.D.A.Z.Z.Z.D.D.D.D.Z.C.C.Z.D.Z.C.C.C.Z.D.G.G.G.D.G.I.U.U.U.I.I.I.Y.G.I.U.D.Z.G.G.P.G.G.G.G.G.G.G.I.G.G.G.I.I.I.G.G.G.I.I.I.G.G.I.I.J.U.U.U.U.U.I.I.U.U.U.I.I.G.G.",
"Z.Z.Z.D.G.G.D.Z.Z.Z.Z.D.D.Z.Z.Z.D.D.D.Z.Z.D.D.Z.U.U.I.I.I.I.I.I.U.U.G.D.Z.Z.D.D.A.A.Z.Z.Z.Z.A.D.D.Z.q.C.Z.G.Z.C.C.C.(.Z.G.G.D.C.G.I.I.U.G.G.G.G.Y.I.I.I.C.C.D.G.D.D.F.F.F.F.G.G.D.D.Z.D.D.G.D.Z.Z.D.G.G.G.D.D.D.G.G.J.U.U.U.I.G.I.U.I.I.I.G.G.G.",
"G.D.Z.Z.G.G.G.G.Z.D.D.D.D.D.D.Z.C.D.D.Z.Z.D.D.Z.U.U.U.U.U.U.U.U.U.U.G.G.G.G.G.I.Z.Z.A.A.Z.D.D.G.G.Z.C.Z.G.G.A.Z.Z.C.q.C.G.G.D.Z.G.I.I.G.G.G.D.D.~.I.I.I.C.q.D.G.Z.Z.Z.Z.D.D.Z.A.D.D.Z.D.D.D.D.Z.D.D.D.G.G.G.D.Z.D.G.G.I.I.G.G.G.U.I.I.I.I.G.G.G.",
"U.I.G.G.I.U.U.U.G.G.G.G.G.G.G.G.Z.G.G.D.D.G.G.G.U.U.U.U.U.U.U.U.U.I.I.I.U.U.U.U.Z.D.G.G.G.G.G.G.G.D.D.G.J.G.D.G.G.D.Z.D.G.I.G.G.U.U.U.I.G.G.G.G.Y.I.U.I.C.q.D.G.G.G.G.G.G.G.G.G.G.G.G.G.I.I.G.D.G.G.G.G.I.I.G.G.D.G.G.I.G.G.G.G.U.I.I.I.I.I.I.I.",
"U.I.I.I.U.U.U.U.G.I.I.I.I.J.I.G.G.P.U.J.G.G.I.I.P.I.I.U.I.I.I.I.U.I.I.I.U.U.Y.U.G.G.I.I.P.P.P.U.I.G.I.U.I.D.D.G.I.G.G.G.I.U.I.J.U.U.U.I.G.G.I.U.Y.I.Y.Y.Z.C.G.I.G.J.P.U.U.U.U.U.I.I.I.U.U.U.I.G.I.I.I.I.U.U.G.G.G.I.I.I.G.G.G.G.I.I.I.U.U.U.I.I.",
"I.I.U.U.U.U.U.I.I.I.U.U.U.I.I.I.G.U.U.I.S.G.I.G.P.P.I.I.I.I.I.I.U.I.I.I.U.U.U.J.G.I.Y.Y.U.U.U.~.J.J.T.~.U.F.F.U.J.J.J.U.U.U.I.J.I.U.I.I.G.G.I.U.U.G.Y.Y.Z.Z.I.U.U.Y.Y.Y.~.T.Y.Y.I.I.I.U.U.U.G.G.I.I.G.I.U.U.G.D.U.U.U.I.G.G.G.I.G.I.I.U.U.U.U.U.",
"G.Y.~.U.I.I.U.U.I.I.I.I.U.U.U.Y.U.Y.Y.U.U.U.U.U.U.U.U.U.U.I.I.U.I.~.U.G.U.U.G.Z.P.U.T.U.W.~.~.~.W.Q././.Q.W.W.~.W.K.K.K.~.T.J.F.J.G.G.G.D.A.G.Y.I.U.U.U.I.J.U.Y.U.U.U.U.Y.U.U.U.U.P.I.I.I.G.J.U.U.U.U.U.I.I.I.I.U.U.U.U.I.I.I.I.U.U.U.U.U.U.U.U.",
"G.U.Y.U.U.U.I.G.D.D.G.G.G.P.U.U.G.J.I.I.I.P.P.P.U.U.U.U.Y.U.U.P.J.Y.G.G.U.~.F.r.E.E.!././.^.NXNX7X7XBXBXNXNXNXNX^.^.^.^././.!.E.W.W.L.H.F.F.G.~.K.U.T.U.U.U.U.Y.U.U.U.U.J.J.U.I.U.U.I.U.U.G.J.U.U.U.U.U.I.I.U.U.U.U.U.U.U.U.I.I.U.U.U.U.U.U.U.I.",
"G.I.U.U.U.Y.I.Z.Z.Z.Z.D.G.G.G.P.G.G.G.G.G.G.G.G.I.U.Y.Y.U.U.H.H.H.W.H.F.Q.!.g.j.j.h.7X8X8X3XR g f XX9X9X9X9X5X5X5X8X8X7X7X7XBXNX^.^.^./.!.E.W./.Q.W.W.W.~.~.T.U.~.T.J.G.J.J.U.U.U.U.U.Y.U.G.G.I.I.U.U.U.U.I.U.U.G.I.U.U.U.U.U.I.G.G.G.G.G.G.G.G.",
"Z.G.I.U.U.U.I.D.D.D.D.G.G.G.P.P.G.G.G.G.G.G.H.G.U.K.K.H.E.E.E.E.^.^.h.h.NX7Xk.u.u.g g g f f s {.}.$XCXCXCXCXCX0X0X9X9X9X5X5X5X5X8X8X8X8X7X7X7XBXBXNX^.^.^.^.^./././.!.W.W.W.W.~.~.T.Y.~.U.G.G.G.G.J.U.Y.U.U.U.U.G.G.U.U.U.U.I.I.D.D.D.D.D.Z.Z.Z.",
"q.D.U.U.I.U.U.I.G.G.G.G.G.G.G.G.G.G.G.H.H.H.H.H.W.E.E.g.j.h.h.8X8X3Xu.R g f f s s s {.{.{.{.}.}.}.;X:X1X<X<XSXSXSXSXAXAXAXAXAXAXCXCX0X0X9X0X0X0X0X5X5X5X8X8X8X7XBXBX7Xh.h.^./././.!.Q.~.W.H.F.K.H.K.W.T.U.J.J.J.F.G.J.U.U.U.I.G.Z.A.D.D.Z.Z.Z.Z.",
"| D.U.U.I.I.I.U.G.G.G.G.H.H.H.H.H.E.E.E.E.j.h.h.h.j.k.u.u.R g g f f f s s {.{.}.}.}.}.}.{.{.{.{.[..XOX>XOX+X$X$X-X-X-X<X<X<X<X<X1X<XSXSXSXAXAXAXAXCXCX0X0X0X9X9X5X5X5X5X8X8X8X7X7X7X7X7Xh.h.h.h.h.^.^././.!.!.W.H.H.K.K.K.K.J.J.G.G.G.G.D.D.D.D.",
"C.D.I.U.I.U.I.J.F.F.H.H.H.E.E.E.^.^.7X7X8Xk.u.R g g f f s s s {.{.{.{.{.{.{.s s s s i i i i i i p d [.>XOX[.d d d d K K .X.X.XOX;X;X$X#X#X-X-XAXAXSXSXSXSXSXSXAXAXAXAXAXAXAXlXlX0X0X0X0X5X5X5X5X8X8XsXsXsX7X7Xh.^.^.^././.!.!.W.F.F.G.D.D.D.D.D.",
"D.G.I.I.I.Y.J.F.E.E.^.h.h.7Xj.k.u.u.g g w f f f s s {.{.{.{.{.s s s s s i i i i i i p t r r r r r a {.$X-X%XP P J M M r t p 5 5 ;X+X5 d K K K .X.X.XOXOX;X;X;X-X-X,X,XSXSXSXSXSXSXAXAXAXAXlX0X0X0X0X0X5X5X5X5X5X8X8X8X7X7X7XBXNXg.y.F.Z.D.D.Z.Z.",
"D.G.U.U.U.Y.~./.j.k.u.u.R g f f f s s s s s s s s s s i i i i i q q q q t r r r r r r e e 9 9 e e a d .X-X-X@X4Xs.i.E E E T P 5 #X$XL J M M M J p 5 [.OX:XOX[.d K K K .X.X.X;X;X$X@X#X#X-XAXSXSXSXAXAXAXAXAXAXAXlX0X0X0X0X0X0X5Xk.j.H.F.G.G.G.G.",
"G.G.I.I.U.U.~./.u 8 w f f s s s s s s s s i i i i i p p p t r r r e e e 9 9 9 9 9 9 9 9 9 9 m A A M a 5 %X,XlXkXiXtXrXrXrXrXoXK #XlXyXs.s.s.s.Q oX X+X<X;X-X%XL P J J J p 5 $X+XK K K K .X[.2X>X$X+X+X$X$X#X-X-X,X,XAXAXAXAXAX0X5X7X!.H.H.H.G.P.",
"G.G.P.U.U.U.K.!.2 8 w i i i 6 6 i i i t t q r r r r r r r e e 9 9 9 9 9 9 9 9 9 A A A A A A A A A D Y p 5 +X,XzXbXaXpXpXpXaX4XK @XzXkXpXpXpXtXkXjX$X,X;X.X-XAXjXyX4Xs.4XoXK #X#XoXT T L  X[.OX<X;X.XK J p p 5 .X$X.X X X X%X%XXX3XNX/.K.U.U.U.U.",
"U.I.P.U.U.U.U.!.j.8X3Xw q 6   o q r r r e e e 9 9 9 9 9 9 9 9 A y 9 A y A A A A A A A A A A A Z Z A E Y p d $XlXxXbXgXdXdXgX4XK @XDXbXgXdXgXbXxX@X,X,X%X5 .XlXxXbXaXaXaXuXL @XzXiXtXuXuX9X$X<X$X-X#XoXoXQ T K  X#X XP P P d 5 K 6XBX/.~.T.U.U.U.",
"Y.I.I.U.Y.I.U.~./.^.7Xu 0 ;   o 0 9 9 9 9 9 9 9 9 9 y m A A A A Z A A A A A A A Z A A A A A Z Z Z S s.s.J p .X#XlXnXbXgXdXgX4XK @XDXbXgXgXbXnXlX#X,XjX@XP 5 %XlXnXbXgXbXkXL @XDXbXgXbXnXlX,X,X.X.XAXxXkXaXiX@X%XlXjXyXeX4XoXXX9X8X^.~.T.T.U.U.U.",
"U.I.I.Y.U.G.G.Y.~.W.^.u y ; . X 0 y m A A A A A A A A A A A A A Z Z A A A A A A Z Z A A A A Z Z Z S d.rXE J 5  X#XzXnXbXgXgX4XK @XDXbXgXgXbXzX#X&X&XcXiXoXJ d #XxXnXmXmXkXL @XFXmXmXnXxX&XAXlX X5 $XxXnXmXbXjX%XzXnXbXbXnXjX9X5X7X/.~.U.U.U.U.U.",
"I.G.I.Y.I.Z.G.~.J.K.g./ y ; . X 0 y A Z Z Z A A A Z Z Z A A A Z A Z A A A Z Z A Z Z A Z Z Z Z A Z S z.pXb.E a 5 %X&XzXnXbXbX6XK @XDXnXbXbXxX#X,XlXcXgXgXtXQ p .XlXFXnXmXkXL @XFXnXnXHX&XlXlXkXyXK K lXHXnXnXjX%XzXnXmXmXMXjX9X5XNXW.T.U.U.Y.U.U.",
"G.D.I.U.G.C.D.~.G.H.g./ y ; . X 0 y Z A Z A A A A Z Z Z A A A Z Z Z A A A A A A Z Z Z Z Z Z A A A S z.pXpXd.R p d $XlXxXnXbX9XK @XDXnXnXxX@X,X&XjXaXhXfXdXrXP p %XlXnXnXxX X@XFXHXnXlX&XlXkXbXaXoXp %XzXnXnXjX%XzXnXnXnXzXjX6X8X^.K.U.U.U.Y.Y.Y.",
"I.Z.G.G.Z.Z.D.Z.F.K.!./ y ; . X 0 y Z A A A A A Z Z Z A A A Z Z A A A A Z Z Z Z Z Z Z A A Z Z A Z S z.pXpXpXs.Y p .X#XlXxXnX@XK $XDXHXxX&X&X&XjXiXgXfXfXfXpXs.J d @XzXHXDX X@XFXHXzX&X&XcXbXhXhXuXP p @XxXHXlX%XzXHXHXxXlXjXuXh.!.T.T.U.U.U.J.G.",
"I.Z.Z.G.C.C.D.Z.G.W.!.6.y ; . X 0 y Z A A A Z A Z Z Z A Z Z Z Z A A A A Z Z Z Z A A A A A A A A A S z.dXpXpXrXi.J 5 .X-XlXFX#X.X#XSXFX&X#X,X*XkXgXdXfXfXfXdXtXQ p .X&XDXDX%X#XJXFX&X&XjXkXhXhXfXaX4Xp L lXFX,X%XzXHXFXlXlXjXsXB.!.T.Y.I.I.U.I.G.",
"I.Z.Z.G.C.C.D.D.J.W.!.6.y ; . X 0 y Z A Z Z Z Z A A A A A A A A A A A Z A A A A A A A A A A A A A S z.dXdXdXpXb.Q J 5 %X-XSX-X.X;XSXSX#X,X*XcXgXdXfXfXfXfXfXdXrXT p %XSXSXOX;XJX<X,XlXkXgXhXfXfXfXaXQ 4 %XSX<X+XDXFXDX&XjXiXsXg.Q.T.Y.I.I.U.I.G.",
"U.D.G.I.D.D.I.I.G.W.E.6.y ; . X 0 y A Z Z Z A A A A A A A A A A A A A Z A A A A A A A A A A A A A S z.dXdXdXpXpXb.T p 5 $X<X;XOX;X1X;X,X&XjXkXgXdXfXdXfXfXfXfXaX4XP .X;X<XOX;X<X-X,XjXbXhXfXfXfXfXdXrXP K -X#X%XDXDX&XlXcXaXsXB.!.T.Y.I.I.U.U.I.",
"Y.G.G.U.G.G.U.U.G.K.E.6.y ; . X 0 y A Z Z Z A A A A A A A A A A A A A A A A A A A A A A A A A A A S c.pXdXdXdXpXtX4XT p .X;X:XOX:X:X;X,XjXkXgXdXfXfXdXdXfXfXhXhXiXoXd .X-X>X;X-X,XlXvXbXhXhXfXfXfXhXaXoXp L oXT T T  X@XiXgXN.B.'.~.T.I.I.U.U.I.",
"I.D.G.U.G.G.U.I.U.W.!.6.y ; . X 0 y A Z Z Z A A A A A A A A A A A A A A A A A A A A A A A A A A A S b.aXaXgXaXaXaXuXoXK [.OX:X:X:X1X<X,XzXbXgXgXgXgXgXgXgXhXaXVXUXvX0X9XDXJXJXJXJXGXUXVXVXVXmXhXhXgXgXb.F p.M.v.p.F 0 Q rXgXsXB.'.~.T.G.G.I.I.I.",
"G.Z.G.U.G.G.I.G.J.W.!.6.y ; . X 0 y A Z Z Z A A A A A A A A A A A A A A A A A A A A A A A A A A D D eXbXkXbXkXbXkXkXjXoX}.[.>X:X1X1X;XAXFXnXbXbXbXbXbXbXbXnXvXLXPXPXPXPXPXPXPXPXPXPXPXPXIXIXIXVXbXbXaXa.l._._._._.%.c H s.aXsXB.'.~.J.D.D.G.G.G.",
"G.Z.G.Y.U.J.U.G.G.K.!./ y ; . X 0 A A Z Z Z Z A A A A A A A A A A A A A A A A A A A A A A A A A D D T 6XjXjXlXlXlXlXlX#X+XOXOX:X:X<X,XAXzXzXzXzXzXkXkXzXxXcX0XLXIXLXPXLXIXPXKXPXIXUXUXKXUXIXPXGXkXiXp.B._.<.,.,.,.4.l.v E aXsXj.!.~.G.Z.Z.D.D.D.",
"I.U.Y.Y.U.U.I.G.J.K.!.6.y ; . X 0 A A A Z Z Z Z A A A A A A A A A A A A A A A Z A A A Z A A A A D D p XX#X#X#X#X#X#X#X#X-X-X-X;X;X-X-X-X#X#X&X&X&X#X#X#X#X@X9XLXGXg PX3XqXqXf qXqXg qXqXg qXPXvX6XQ a.].3.,.,.,.,.1.2.} H 4X6Xf.t.W.K.I.I.G.G.G.",
"G.I.U.Y.U.U.I.G.G.K.E.6.y ; . X 9 A A Z Z Z Z Z A A A A Z A A A A A A A A A A Z A A A Z A A A A D D a P  X X X X X X X X X X X X X X X X X X X X X X X X X XXXLXGXg UX3XqX3XKX3XqXKXKXqXqXPXPX5Xa R B.).3.,.,.,.,.<.4.#.G M D f.j.H.G.G.J.J.G.G.",
"D.G.I.U.U.U.I.G.G.K.!.6.y ; . X 0 A A A Z Z Z Z Z Z Z Z Z A A Z A A A A Z Z A Z A A A A A A A A A D M r M M M M M M M M M M M J M M M M M M M M M M M M J J XXLXKX3XZX3XwXqXPXwX3XqXLXKX3XIXPX5Xe u.VX'.$.1.,.,.,.<.&.%.G S F a.E.F.Z.D.J.J.G.G.",
"Z.D.G.I.U.I.G.G.G.K.!.6.y ; . X 0 y A A Z Z Z Z Z Z Z Z Z A A A A A A A Z Z A A A A A A A A A A A S F E E E E E E E E E E E E E i.i.i.i.E F F F F i.p.i.E Y 3XLXKX3XwXwXwXqXPXwX3X3XIXPX3XwXPXvXu.vXPXUXl.4.1.,.<.>.@.#.0.a.a.g.E.Z.C.Z.G.J.G.Z.",
"C.Z.G.G.I.G.G.D.U.K.!.6.y ; . X 9 A A A Z Z A A A A Z Z A A A A A A A A A A A A A A A A A A A A A S i.c.c.c.c.c.c.b.b.b.b.b.b.b.v.n.n.v.z.H H H H v.n.b.s.R 3XLXGXwXg wXqXwXIXwXwXLXPXPXLXwXUX8Xu.8XPXIXl.2.3.>.<.&.+.o.0.m.B.g.W.G.Z.Z.G.G.D.Z.",
"A.D.G.G.G.G.G.D.Y.~./.6.y < . X 0 y A A A A A A A A A A A A A A A A A A A A A A A A A A A A A A S S p.M.M.M.M.M.M.M.M.M.M.N.M.N.N.N.N.p.0.H G p.v.N.N.M.d.E 3XLXGXqXg qXqX3X3XwXwXwXIXUX3XwXsXsXj.BXIXVXl.2.@.=.*.+.#.} v.N.B.g.Q.G.G.G.G.G.G.D.",
"J.I.I.G.G.G.G.D.Y.T.!.6.y ; . X 0 y y 9 y A A A A A A A A A A A A A A A A A A A A A Z A A A A A S S p.N.N.N.N.N.N.N.N.N.N.N.N.N.N.N.N.p.0.0.H x.dXN.pXM.d.E u.LXKXKXqXKXKXqX|.UXZX3XLXIXwXKX7XB.].B.].'.5.:.O.O.) { 0.V.N.N.B.g.Q.J.J.G.P.I.U.U.",
"Y.U.U.I.G.G.G.G.Y.K.!.6.y ; . X e e e e e e e 9 e e e e 9 9 9 9 m 9 m m A A A A A A A A A A A A A S p.N.N.N.N.N.N.N.N.N.pXpXpXpXN.N.N.n.x.z.x.N.pXpXpXM.c.E u.LXPXPXPXPXPXPXPXPXPXPXPXPXPXIXsX] 0.y.y.)._.2.O.) ) ] c v.pXN.B.B.Q.U.U.I.I.U.Y.Y.",
"Y.Y.Y.U.I.G.I.U.U.K.!.7.y ; . o w r q w w w w r r r r r r r r e e e e e e 9 9 9 9 9 9 9 A A A A A S p.N.M.M.N.N.N.pXpXpXpXpXpXpXpXpXpXpXpXpXpXpXpXpXpXM.c.E Q UXIXLXLXLXLXUXKXKXGXGXGXGXvXvXd.a.B.9.9.9.l.$.) ) } - S rXtXpXB.g.!.U.U.U.U.Y.T.T.",
"I.U.U.U.I.I.U.Y.U.K./.7.y < . o w q 7 7 7 7 7 7 8 8 8 7 8 8 8 8 8 8 8 8 8 8 r r r e r r r e M D A S p.N.M.M.M.M.pXpXaXaXaXaXaXaXaXaXaXaXaXaXaXaXaXaXpXpXd.E Y Y  XY P a a a a a p p p p a f.sXsXsXN.N.B.0.{ ) { } b S F s.sXm.g.!.J.U.U.U.Y.T.U.",
"P.U.U.U.U.U.U.U.J.K.!.7.y < . o w 7 < > > > > < < , < < < , 7 8 7 7 q q q q q q q w t p p a r M A S p.N.M.M.M.tXtXuXcXcXcXcXuXuXuXuXuXuXyXyXeX4X6X4XuXtXs.R r q p p 5 4 4 4 4 4 4 4 4 4 Y 4XsXsXsXsXsXm.B.} { %.{ b 0.0.d.sXm.g.!.U.U.U.U.Y.Y.T.",
"U.U.U.U.U.I.G.G.G.K.!.7.y < . o w 7 , 1 1 = 1 1 > > > > : > > ; < 8 7 7 ; 7 7 7 7 q q i f d t M A S p.N.M.M.M.tXQ T oXoXQ E E E E E F F F F F F D R eXiXs.R r p K 4 4 4 4 n n n n n n M Q f.i.d.m.d.d.d.d.9.{ $.{ [ y.0.a.sXm.g.!.T.T.U.U.Y.U.T.",
"G.G.G.G.G.G.D.Z.D.G.!.7.2 , . o w ; > & = * = = 1 > 1 1 - 1 1 1 1 1 > > > > : > : > : 7 i d p r D S p.M.M.M.M.tXT T R F G b } } b } ] ] 0.[ } 9.0.i.4XtX4XE T P I N N N N N C C C N N N oXyXs.i.R u.R 0 : c } %.[ ( ' ] p.sXm.g.Q.T.T.T.U.U.Y.Y.",
"C.C.C.Z.D.G.D.D.D.F.E.7.2 < . o w ; # @ + + @ @ $ $ & * * * * = = - $ = = - = - = 1 > 0 f d p r D S p.M.M.M.tXrXT Y i.9.y.[  . .[ X. .`  .`  .X.0.0.s.uXrX4XoXL W C C B B k k C k B C N eXuXiX5XY Y 8 O O c { %.{ b ( b ] 0.} ' ....R.T.T.U.U.Y.",
"C.C.q.C.Z.G.G.G.G.F.E.7.y < . o w ; > # @ @ @ @ & & + + + + + @ @ & & & @ * % = % = = y a d p r D S p.M.M.M.n.rXT Y i.t.r.[  .` ( X._ _ ` ( _ ` ] 8.s.uXrXrX4XL W V B B k V.z.H k k N N eXiXaXuXR R A 2 G } o.@.O.( ) ) o.O.O.O.O. .' r.L.T.Y.Y.",
"D.Z.Z.Z.D.G.G.G.G.F.E.6.y < . o w , 1 - * * * * = = % % + % + + @ & & @ + + + @ + % # , i d p J D S p.M.n.M.M.rXT Y 8.7.| ( _ ( ! _ ~ ~ _ ! ( ( ^ c d.uXrXtX4XL W V B B z.hXsXa.0.} 0.v E iXpXrXR R G 9.0.#.2.:.+.@.*.2.4.4.4.4.:.@.O.[ ..K.Y.Y.",
"Z.G.G.I.G.D.Z.Z.J.T.Q.7.y , . o w ; > = * * * = - - = * * * * * * = & @ @ % + + + + + : i d p r D Z p.M.M.M.n.rXT Y 8./ ^ ! ~ ( ! ~ ~ ~ _ ( ( _ ] 6.d.uXtXtXyXI W V B H sXVXNXj.l.$.l.} G b.pXrXR F } $.@.4.<.<.<.<.<.<.<.<.<.<.<.1.:.O.[ r.T.T.",
"D.G.I.I.G.G.D.D.J.K.!.7.y , . o w ; # @ @ @ @ @ = = = * * * * * = - = = * * % * % & @ > i d p r D A p.M.M.n.n.rXT Y 8./ ' ! _ _ ~ _ _ _ ` _ ` X.' 8.d.uXtXtXyXI W V B H VXVX7X'.).O. .{ 0.p.tXb.S 0.$.3.1.<.,.,.,.-.,.,.-.-.,.,.,.,.<.:. .' R.T.",
"G.J.U.U.I.G.G.G.U.K.Q.7.y , . o w ; > # @ @ @ + & & @ @ + % % % * = = = * - * - * - = 2 a d p a D Z p.M.v.v.n.rXT Y 8.e.X.( ` ` _ ` ` ` ` ` `  .' 8.d.iXtXtXyXI W V B F ZXVXj.e.X.{ ( l.V.0.v.0.9.`.3.,.,.,.,.,.-.-.,.,.-.,.,.,.,.,.,.<.@.{ ..L.",
"J.J.U.U.U.I.I.G.J.K.!.7.y < . o w 7 , 1 1 1 = $ 1 1 # @ + + + + @ = = & @ * % * * - = 2 a d p J D A p.M.v.v.n.rXT Y i.t.X._ ` ` ( ` _ ( ` ( _ ' ] 6.d.uXtXtXyXI W V B S 8XVXj.y.[ ) ) { } } 0.l.`.3.<.-.-.-.,.,.-.-.,.,.<.1.4.:.3.3.,.<.1.@.' y.",
"I.I.I.I.U.U.I.G.U.U.!.7.y , X o w q 7 8 , , , > > > 1 = = * @ # @ = = @ + + + % + % @ , i d p a D A p.n.v.v.n.rXT Y 8.7.| ! _ _ ! _ ~ ! ~ ! ~ ( - c s.uXtXtXyXI W V B j i.VXg.).#.) o.o.b } l._.2.4.,.-.,.,.-.-.,.,.,.<.2.+.{ ) #.`.3.,.<.4. .[ ",
"I.G.I.I.U.U.I.I.U.U.!.7.y , . o w r r 8 8 8 < < < < > > > 1 1 1 1 1 > $ # % + % + + @ : i d p a D A p.M.v.v.n.rXT Y 8./ ^ ! ( ( ! ~ ~ ! _ ! ( ' ] 8.s.uXtXtXyXI W V B k j G 0.l.*.+.+.%.o.#.`.3.@.:.<.-.,.,.,.-.,.,.,.:.O.b ] e...X.3.<.,.1.2.) ",
"U.I.I.I.U.U.U.I.U.T.!.7.y , . X 0 e e e e 0 0 0 w 8 8 7 7 , < < , , , > > - $ = # = # , i d p a D S p.n.v.v.n.rXT Y 8.] ' ( ( ` ( ` ' (  .)  .y.0.i.s.uXtXtXyXI W V B B k j b l._.>.@.+.%.+.*.2.+.2.<.-.,.,.-.-.,.,.,.>.+.) } g.g...5.3.,.<.2.) ",
"U.I.I.I.U.Y.U.U.Y.T.!.7.y , . X 0 y D m 9 e e r r r r r r w 8 7 7 8 , < > > > 1 > 1 > 0 f d p r D A p.n.v.n.n.rXT Y R 8.y.' { X.[ y.0.} l.} 0.9.i.E s.tXtXtXyXI W V B B l x j o._.<.&.+.+.+.&.+.O._.1.,.,.,.,.,.,.,.,.<.&.O.[ t.!.r.).3.1.3.2.) ",
"D.Z.D.I.U.G.G.I.U.T.!.7.y , . X 0 y A A A m m m m M e e e e r r r r w w 8 8 7 7 < 8 < r d d p r D A p.n.v.v.n.rXT Y Q f.a.0.9.z.0.d.f.i.d.i.i.f.Q Q eXtXtXtXyXI W V B B l l k v _.3.>.=.+.+.+.+.O._.1.<.:.:.<.,.-.,.-.<.:.+.o.} ....l.).2.2.$.O.",
"D.Z.G.I.I.G.D.D.U.T.!.7.y , X X 0 y Z A A A A A A A m m y m e e e r r r r r r r w 8 8 q p d p r D A p.v.v.v.b.rXT P oXf.s.E i.i.E E R R R Y J M M Q rXrXrXtXyXI W V B l l l z k o._.3.&.+.+.+.+.O.`.3.;.=.=.=.;.,.-.,.,.<.>.@.O.[ [ ..' [ ) ) [ ",
"D.D.G.U.I.D.C.C.G.K.!.7.y , X . 0 y A A Z Z A A A A A A A A A A m e M e e e e r e r r r a a r M A Z p.v.v.v.v.b.R J T T Y D m m m m m m D D F F E s.rXn.n.tXyXI W V B B l l l x b #.`.`.+.%.%.#.) $.3.;.=.=.=.,.,.,.,.,.,.<.>.@.O.[ ..r...| ..r.",
"G.G.G.U.U.G.Z.Z.G.J.W.7.y , . . 0 y A A Z Z Z Z A A A A A A A A A A A A m m y 9 e e r r r r e D A Z p.v.v.v.v.b.E M M M M D F R E E E E p.p.d.d.d.b.n.n.n.rXyXI W V B B l l l l k j v } o.} } v ) `.3.,.<.<.,.,.,.,.,.,.-.,.<.>.@.O.' L.Q.K.K.G.",
"U.I.I.U.U.G.G.I.G.K.!.7.y , . . 0 y A A A A A A A A A Z A A A A A A A A A A A A m D m e e e A A A Z i.v.v.v.v.z.i.E E E p.p.s.d.d.d.z.z.z.c.b.b.v.v.v.v.v.rXyXI W V B B l l l l z k j j H p.z.0.$._.<.-.,.,.,.,.-.,.,.-.-.,.,.<.&.%.{ r.T.U.J.G.",
"Y.U.U.U.U.I.I.U.U.~.Q.7.2 , . X 0 y A A A A A A A A A A A Z A Z Z Z A A A A A A A A A A A A Z Z Z S i.v.v.v.c.c.d.d.d.z.z.z.b.b.b.b.c.c.v.v.v.v.v.v.v.v.n.rX4XI W V B B l l l l B B N N eXuXrX9.`.3.,.-.-.-.-.-.-.,.,.,.-.-.-.,.>.@.#.[ L.U.U.G.",
"U.I.I.U.U.I.G.I.U.~.!.7.2 , . X 0 A A A A A A A Z A A A A A A A A A A A Z Z Z Z A A A A A A Z A A Z i.v.c.c.v.c.c.c.c.c.c.v.c.c.v.v.v.c.v.c.v.v.v.v.v.v.v.rX4XL W V B B l l l l l B C N eXuXd.V._.1.,.,.,.,.-.-.,.,.,.,.,.,.,.,.>.@.O.[ R.U.T.H.",
"I.I.I.Y.U.G.D.G.G.H.E.7.3 : O : 0 y Z A A A A A Z Z A A A A A A A A A A A A Z Z A Z A A Z Z A A A Z i.b.c.c.v.c.c.v.v.v.c.c.x.x.v.v.v.v.v.v.v.c.v.v.v.v.v.rX4XL W V B B l l l l B B C C =XuXd.V._.1.,.,.,.,.,.,.-.,.,.,.,.,.,.,.>.@.O.X.R.T.~.w.",
"I.I.I.I.I.G.D.Z.D.Z.F.w.] 1 : , 2 y Z Z Z A Z A A A A A A A A A A Z Z A A A A A Z Z A Z A A A A Z S i.c.x.c.x.z.z.V.p.z.v.x.c.c.v.v.v.v.v.v.v.v.v.v.v.v.v.rX4XL W V B l l l l l l B C C =XuXd.9.`.4.1.,.,.,.,.,.,.,.,.,.,.,.,.,.:.+.%.X.R.K.r.r.",
"I.I.I.I.G.Z.Z.C.Z.Z.Z.F.g.t.e.6.2 2 2 2 y y Z Z Z A A A A A A A A A A A A A A A Z Z A A A A A A S S i.c.c.z.H G G G G 0.x.x.x.c.v.v.c.c.c.v.v.c.c.v.v.v.v.rX4XL W V B l l l l l z B C C eXrXb.0.l.@.>.,.,.,.,.,.,.,.-.-.-.,.,.<.&.+.O.[ r.r...).",
"G.I.U.I.D.Z.C.Z.F.G.G.G.F.F.H.!.g.t.7.3 2 2 y y Z Z Z Z A A A A A A Z Z Z Z A A A A A A A A A A Z S i.c.c.p.G G G G G p.c.c.c.c.c.c.x.v.x.x.c.c.c.v.c.c.v.rX4XL W V B l l l l l z B C N 4XrXd.0.{ 2.1.,.,.,.,.,.-.-.-.,.-.,.,.>.&.+.O.( [ X.5.3.",
"G.G.G.G.G.Z.Z.C.G.G.G.G.A.Z.F.H.K.W.!.g.e.7.c 2 2 2 y Z Z Z Z A Z A Z A Z Z Z A A A A A A A A A S S i.c.x.z.i.0.0.z.z.x.x.x.x.x.c.c.x.x.x.x.c.c.c.c.c.c.b.b.4XI W C B z x x x x x k N N s.d.0.0.)._.<.,.-.,.-.,.-.-.,.,.,.,.>.&.+.+.{ )  .5.3.<.",
"D.Z.C.Z.G.G.Z.C.G.Z.C.C.C.Z.C.C.G.U.~.W.H.g.t.e.7.3 2 2 2 Z Z Z Z A A A A A A A A A Z A A A A A S S i.z.z.x.z.c.x.x.x.x.x.x.x.c.x.x.v.x.c.c.c.c.x.c.c.c.b.rX4XI U C B x x k k k j j c S p.9.} )._.<.,.,.,.-.,.-.,.,.,.,.<.>.&.+.+.O.) +.4.3.<.,.",
"Z.C.q.C.G.G.D.C.G.D.C.C.Z.G.D.A.U.Y.T.U.F.r.r.r.E.y.e.7.c 2 2 2 y Z Z Z A Z A A A A A A A A A A S S i.z.z.x.x.x.x.x.x.x.x.x.x.c.x.x.z.z.p.z.x.x.x.x.x.x.c.b.s.Y I N k k j j v v 0.9.a.B.g.t.)._.<.,.,.,.,.-.-.,.,.<.>.>.&.&.+.+.+.) o.&.<.,.<.>.",
"G.Z.Z.D.I.I.G.Z.U.I.G.G.G.I.I.U.U.Y.Y.I.A.C.A.H.H.K.H.H.g.t.7.3 2 2 2 Z Z Z Z A A A A A A A A Z A S i.c.z.z.z.x.z.z.z.z.z.z.z.x.p.0.G G G p.x.x.x.x.z.z.a.d.f.D F S G 0.9.y.g.'.Q.Q.'.!.r.l._.<.,.-.,.,.,.,.,.,.<.&.&.@.+.+.+.+.) { +.&.>.<.>.&.",
"I.I.I.U.U.U.U.I.I.I.U.G.G.G.U.Y.G.U.U.G.A.D.U.~.T.J.H.J.~.'.'.g.t.7.c 2 2 2 y Z Z Z A A A A A A A Z i.z.z.z.z.z.x.z.z.z.z.z.z.z.0.G G G G 9.a.a.a.a.9.9.9.9.a.a.B.B.g.'.'.L.L.K.J.L.K...%._.1.-.-.-.,.,.,.,.>.>.&.+.+.+.+.%.o.) o.%.+.+.&.&.&.=.",
"G.I.U.U.I.I.I.I.U.Y.U.G.G.U.Y.U.T.U.I.I.U.U.U.U.~.T.U.J.U.T.W.K.Q.Q.g.t.7.] 2 2 2 Z Z Z A A A A A Z i.z.z.z.z.z.z.z.z.z.z.z.z.z.0.0.0.0.9.9.9.t.t.y.y.g.g.!./.!.!.W.L.H.K.J.J.J.G.K.r.X.`.1.,.-.,.,.-.,.<.>.&.+.+.+.O.#.#.{ ) o.+.+.+.+.+.+.+.+.",
"I.I.U.U.I.I.I.U.I.U.U.G.G.U.U.I.I.J.I.I.U.U.U.I.U.U.I.I.U.Y.U.J.U.K.K.W.!.!.t.7.S 2 2 2 y Z Z A Z S i.z.z.z.z.z.z.z.a.a.a.a.a.a.9.9.9.t.t.g.g.g.!.Q.Q.K.K.~.T.J.F.A.Z.F.F.F.G.G.F.r.X.).3.,.-.,.,.,.,.<.:.@.+.O. .{ [ [ ' ' #.%.+.+.+.+.+.+.+.+.",
"I.I.U.I.I.I.I.U.I.U.U.U.I.U.U.I.G.G.G.I.U.U.I.G.I.I.U.U.U.U.I.G.J.J.J.J.K.W.Q./.g.t.7.c 2 2 2 Z S c i.a.z.a.z.a.a.a.a.9.9.t.t.y.t.y.g.y.y.L.K.K.F.J.J.J.T.Y.T.J.C.C.Z.w.e.e.r.F.r.| ).3.<.,.,.,.,.,.>.&.@.%.{ ' ' | ..r.L...[  .%.+.+.+.+.+.+.+.",
"P.U.U.I.I.I.I.U.G.I.U.U.U.I.I.G.Z.D.D.G.I.I.G.D.G.I.U.U.U.I.G.G.G.G.I.I.J.J.T.~.K.H.H.g.e.7.c 3 2 c 0.a.a.a.9.9.9.t.t.t.t.g.!.W.r.K.K.F.Z.A.F.G.A.G.G.U.U.Y.U.G.Z.Z.F.| ' r.| | ..$._.<.,.-.,.<.>.:.@.@.{ [ ..r.T.K.J.J.J.L.r.[ { O.%.%.+.%.%.{ ",
"I.I.I.I.G.G.I.U.G.G.I.U.U.I.G.G.G.D.D.G.G.G.D.Z.G.J.U.U.U.G.S.Z.D.G.I.I.P.G.U.Y.G.H.K.K.W.H.g.t.6.3 7.t.e.t.y.g.y.Q.Q.L.L.K.K.F.r.F.J.G.F.D.A.Z.D.G.I.I.U.U.I.G.G.G.L.'  .).5.%.$._.<.,.,.,.<.>.&.+.O.[ ' r.L.J.U.U.U.G.G.G.J.R...' [ X. .{ [ ' ",
"I.I.I.G.G.G.I.U.G.G.I.U.U.I.G.G.G.G.D.Z.Z.D.Z.Z.D.G.I.U.I.G.D.Z.Z.G.G.I.G.G.U.Y.P.G.J.U.U.J.K.Q.!.!.!.!.!.!.Q.Q.L.~.~.T.U.T.J.G.Z.G.I.I.G.G.D.Z.G.I.I.I.U.U.I.D.J.K.Q.' $.3.3.3.3.1.,.,.,.<.:.@.O.{ ' ..R.J.G.G.I.U.I.G.D.G.G.G.K.A.r.......r.L.",
"G.G.G.G.D.D.G.I.P.G.G.U.U.G.G.I.I.G.Z.C.C.Z.D.D.C.D.G.G.G.G.D.D.Z.D.G.G.G.G.U.Y.I.P.U.Y.U.J.J.T.L.K.K.Q.~.T.T.U.T.J.J.Y.Y.U.U.U.G.I.I.G.I.U.I.G.I.U.I.G.U.Y.U.G.G.J.T.' 5.3.1.,.,.,.,.,.>.&.+.O.[ ' r.L.G.G.G.D.G.G.G.Z.Z.D.G.G.J.J.J.J.T.T.T.U.",
"G.G.G.G.Z.D.G.I.I.G.G.U.U.G.G.I.I.D.C.q.(.Z.G.G.q.Z.D.G.G.D.G.G.C.D.G.G.G.G.U.Y.U.U.U.Y.I.G.G.J.G.G.J.U.U.U.T.U.U.D.D.I.U.G.G.U.Y.Y.I.G.I.Y.U.I.I.U.I.J.U.Y.Y.U.D.G.U...` 2.<.,.-.,.,.>.&.+.O.[ | L.K.G.D.D.G.D.D.G.Z.q.C.G.G.D.G.D.G.G.I.I.I.G.",
"G.Z.Z.D.I.U.G.Z.G.U.Y.U.I.G.G.G.D.G.G.G.D.G.G.D.Z.Z.Z.D.D.G.G.I.G.q.G.U.Z.D.U.I.I.D.G.Y.U.Z.D.~.G.G.G.A.D.D.G.G.G.G.G.G.G.G.G.U.G.U.U.G.G.I.U.U.G.G.G.D.G.G.I.I.D.D.G.R... .3.<.,.,.<.&.+.O.' r.T.J.D.G.I.G.D.D.C.C.Z.D.Z.C.Z.G.D.G.U.I.U.U.U.G.",
"D.Z.Z.D.G.G.D.Z.G.G.U.U.I.I.I.I.G.U.U.G.G.I.I.G.G.G.G.G.G.G.I.U.I.C.G.U.D.D.U.G.G.D.G.I.G.Z.Z.I.G.D.Z.A.D.G.G.I.G.D.D.G.G.G.I.U.I.U.U.G.G.G.G.G.D.D.Z.Z.Z.Z.Z.D.Z.Z.D.J.R.[ ` 2.3.3.:.+.O.[ ..T.U.G.D.G.I.I.G.G.Z.Z.D.G.D.Z.Z.G.G.I.U.I.U.U.U.G.",
"Z.G.G.G.G.D.D.D.D.G.G.I.I.I.U.U.U.U.U.G.G.U.U.U.U.U.I.I.I.I.I.U.I.D.I.Y.G.D.G.G.D.G.G.G.G.G.D.D.D.Z.Z.Z.D.G.I.U.G.D.Z.G.I.I.I.U.I.U.U.G.D.D.D.A.D.D.Z.C.C.C.C.C.C.Z.A.G.J.R.' [ %.$.$.#.[ ..L.U.I.G.D.G.U.U.I.I.D.G.I.U.G.D.D.I.G.U.U.U.U.U.U.I.",
"Z.G.U.I.D.Z.Z.G.G.G.I.I.U.U.U.U.U.U.G.D.G.U.Y.U.U.U.U.I.I.I.I.U.I.G.U.Y.U.G.G.G.G.U.I.G.G.U.I.D.G.G.D.D.G.G.I.U.U.G.Z.G.U.U.I.I.I.U.U.G.G.G.D.Z.G.G.D.Z.Z.Z.Z.Z.D.D.D.J.U.U.R.| ( ( [ ( ' L.U.U.U.G.D.I.U.U.U.U.G.G.U.U.I.G.G.I.I.U.Y.U.U.U.U.I.",
"Z.G.I.G.Z.C.Z.D.I.I.I.I.U.U.U.U.I.I.G.Z.D.U.U.U.I.I.I.I.I.U.U.U.I.I.I.U.Y.I.G.I.I.Y.U.I.U.~.U.D.I.I.G.G.G.I.I.U.Y.G.G.I.U.U.I.G.I.U.I.G.G.G.G.D.G.G.G.G.G.G.G.G.G.G.G.I.U.I.G.A.R.R.L.L.J.J.J.I.U.G.G.I.U.U.I.I.I.I.U.U.I.D.G.U.I.U.U.I.I.U.U.I.",
"G.I.I.I.G.D.G.G.U.I.I.I.I.U.I.I.I.G.D.Z.G.U.Y.U.I.I.I.I.U.U.Y.Y.G.U.G.G.Y.I.D.I.I.U.U.I.U.Y.I.Z.U.U.U.I.I.U.U.U.Y.I.G.I.U.U.I.I.I.I.G.D.D.G.G.G.D.D.D.G.G.G.G.G.G.G.G.G.G.G.D.Z.A.G.G.G.G.D.G.I.U.G.G.I.U.U.U.I.U.U.U.I.G.D.G.U.I.U.U.G.G.U.U.U.",
"U.I.G.G.I.I.G.G.I.G.G.G.I.I.I.G.G.G.Z.Z.G.U.Y.I.G.G.G.G.I.U.U.U.G.U.D.Z.U.G.C.G.G.I.I.I.I.I.G.Z.I.I.I.U.U.U.U.U.G.G.G.I.U.I.I.U.U.I.G.Z.Z.G.G.D.Z.Z.D.D.D.D.D.D.G.G.G.G.I.G.D.Z.D.G.I.G.D.D.G.U.I.D.D.I.U.U.U.U.Y.U.U.I.G.D.G.U.G.I.G.D.G.I.U.U.",
"I.D.C.Z.G.G.D.C.G.G.D.D.G.I.G.G.D.D.Z.C.D.U.U.G.G.G.D.G.G.G.G.G.G.U.Z.C.G.Z.| Z.G.G.I.U.I.G.D.D.G.G.I.I.U.U.Y.Y.Z.Z.D.I.I.G.I.U.U.I.D.C.C.D.G.D.Z.Z.Z.Z.D.D.D.Z.I.G.I.U.U.U.G.G.J.I.U.U.G.G.U.Y.G.Z.Z.G.U.U.U.Y.~.Y.U.G.D.Z.G.Y.G.G.G.D.D.I.U.U.",
"G.D.Z.Z.Z.D.G.G.Z.D.I.U.I.I.G.G.D.D.G.G.U.U.U.U.D.I.G.D.I.I.D.D.G.G.G.D.C.C.Z.Z.D.G.G.G.G.G.G.I.D.G.D.Z.D.U.I.Z.G.G.G.G.G.G.I.U.I.G.D.Z.D.D.D.Z.U.I.G.Z.Z.Z.D.G.G.G.G.U.U.I.I.U.I.I.I.U.U.U.U.T.D.D.D.G.U.Y.U.G.Y.U.G.D.Z.D.G.G.Z.G.G.D.D.I.I.G.",
"G.G.Z.Z.D.G.G.G.D.G.I.U.U.I.I.I.G.G.G.I.I.U.U.U.G.Y.I.G.U.U.G.G.I.I.G.G.D.D.D.G.G.G.I.I.I.I.I.U.Z.G.G.D.G.U.G.q.G.D.D.D.G.G.I.U.U.I.G.G.G.G.G.D.U.U.G.D.D.D.G.G.G.G.G.U.U.I.U.Y.U.U.U.U.U.U.U.I.D.D.G.I.Y.U.G.Z.I.G.D.Z.C.D.G.I.D.G.I.G.G.I.I.G.",
"I.G.D.D.G.I.I.U.G.I.U.U.U.U.U.U.I.I.I.I.I.I.U.U.I.Y.I.G.U.U.I.I.U.U.I.I.I.G.G.G.D.G.G.I.I.I.U.U.D.G.G.G.G.I.D.| G.D.Z.D.G.I.I.I.U.U.I.I.U.I.G.G.U.I.G.G.D.G.G.G.D.D.G.U.U.I.I.Y.U.U.U.U.I.I.I.J.D.D.G.I.U.I.D.C.G.D.C.C.C.D.I.U.G.I.I.I.I.I.I.G.",
"G.G.D.D.G.I.U.U.I.I.U.U.I.U.U.Y.U.U.I.I.I.U.U.U.I.Y.G.Z.G.U.I.U.U.I.G.I.U.I.J.D.Z.Z.D.G.G.G.G.I.G.G.I.G.G.I.D.C.I.G.D.D.I.U.U.G.U.I.I.U.U.I.G.G.U.I.G.G.G.G.G.D.Z.Z.D.I.I.G.G.U.U.I.I.G.G.G.G.I.D.D.G.G.G.G.Z.C.D.Z.Z.Z.D.G.I.U.I.U.U.U.U.U.I.G.",
"G.G.Z.D.G.I.U.U.I.I.I.I.I.I.U.Y.I.I.I.I.U.U.U.U.I.Y.G.Z.G.U.I.U.U.I.I.I.U.U.G.D.C.Z.D.D.D.D.G.G.G.I.I.G.I.I.I.G.U.G.G.G.U.Y.U.I.I.U.I.U.U.U.I.G.U.I.I.I.I.I.G.D.Z.Z.D.I.P.G.G.U.U.I.G.G.D.G.U.Y.G.G.G.G.G.G.G.G.G.G.G.I.U.U.I.I.I.I.U.U.U.U.I.I.",
"G.G.Z.Z.D.G.I.I.G.I.I.I.I.I.U.U.I.I.I.I.I.I.U.U.I.Y.G.Z.I.U.I.U.I.I.U.U.U.U.G.G.C.Z.D.G.G.G.G.G.G.G.I.I.I.U.U.U.U.I.I.I.U.Y.U.U.U.U.U.U.U.U.U.I.Y.U.U.Y.Y.U.I.D.D.D.G.I.I.G.G.U.U.I.G.D.D.G.U.Y.I.I.G.G.G.G.I.U.I.I.U.Y.Y.U.U.I.I.G.I.U.Y.I.I.I.",
"I.G.D.Z.D.G.I.I.G.I.I.U.U.I.U.U.U.U.I.G.G.G.I.I.G.U.G.Z.G.I.G.I.D.G.I.U.U.G.D.D.C.Z.D.G.G.D.D.G.G.G.I.U.U.I.I.I.I.I.U.U.U.U.U.U.U.U.I.I.I.U.I.I.U.U.I.U.Y.U.G.Z.A.A.G.I.I.G.G.I.G.G.D.Z.D.D.G.G.J.G.G.G.G.G.G.G.U.U.U.U.U.U.U.U.G.G.G.U.U.I.G.I.",
"I.G.D.D.G.G.I.I.G.I.U.U.U.U.U.U.Y.U.I.G.G.G.G.G.Z.G.Z.C.G.G.D.G.C.D.I.I.G.D.Z.Z.C.Z.D.G.D.D.Z.D.D.G.I.Y.U.I.G.G.I.I.U.U.U.I.U.U.U.I.G.G.G.G.G.G.G.G.G.I.U.I.D.C.Z.C.D.G.G.Z.Z.D.Z.Z.Z.Z.C.C.C.C.D.D.D.D.Z.Z.Z.Z.Y.U.I.G.G.I.U.U.G.D.G.U.U.G.G.I.",
"D.G.U.Y.U.G.I.Y.Y.U.I.I.U.U.U.I.U.U.U.G.D.C.C.C.Z.C.C.C.D.G.D.Z.C.Z.G.G.G.A.C.q.q.q.C.Z.Z.C.C.Z.G.G.G.I.U.U.G.G.C.Z.G.G.G.D.G.G.D.D.D.D.D.D.D.D.q.Z.G.U.U.I.G.G.G.Z.C.C.C.C.C.C.D.C.q.q.C.C.C.C.Z.Z.q.q.Z.C.C.G.U.U.U.U.I.I.G.G.G.D.Z.D.G.I.I.G.",
"Z.Z.G.I.G.D.G.I.Y.U.I.I.U.U.U.U.U.U.U.G.D.Z.C.Z.G.Z.Z.D.G.I.G.D.Z.G.G.U.J.G.Z.C.Z.C.C.Z.G.D.Z.Z.I.I.I.U.U.U.I.G.C.Z.D.D.D.D.D.D.Z.Z.Z.Z.Z.Z.D.D.Z.D.I.U.U.I.G.G.G.D.Z.Z.Z.D.D.D.G.Z.Z.Z.Z.C.C.Z.C.Z.q.q.D.Z.C.G.U.U.U.I.I.I.I.G.I.G.G.G.I.I.I.G.",
"D.D.D.G.G.G.G.I.Y.U.I.U.U.Y.U.U.I.I.U.I.G.D.D.D.I.G.G.G.I.U.I.G.G.G.U.U.U.U.G.F.I.Z.Z.G.I.I.G.D.I.I.I.U.U.U.I.G.D.D.D.D.D.G.D.D.D.D.D.D.D.D.G.G.G.G.U.U.U.I.I.I.G.D.G.G.G.I.I.G.U.I.G.G.G.Z.D.G.C.Z.C.Z.G.D.Z.G.U.U.U.I.I.I.I.I.I.I.I.I.I.I.G.G.",
"I.G.D.J.U.U.U.U.U.U.I.U.U.U.U.U.I.U.U.U.I.G.I.I.U.I.G.I.U.U.U.I.G.U.U.Y.Y.U.J.G.U.G.D.I.U.U.I.G.I.I.I.I.U.U.I.G.U.I.G.G.I.I.I.G.G.G.I.I.I.I.I.I.G.I.I.I.I.I.U.U.G.G.G.J.U.U.U.I.U.U.T.T.G.D.G.U.Z.D.D.G.U.G.D.U.Y.U.I.I.G.I.I.U.I.I.I.I.I.I.G.G.",
"U.G.D.G.U.U.I.I.I.U.U.U.U.U.U.U.I.U.U.U.U.U.U.Y.U.I.I.I.U.U.U.U.J.U.U.U.Y.T.U.U.U.I.I.U.U.G.G.U.U.I.I.I.U.U.I.I.Y.U.I.I.U.U.U.I.I.U.U.U.U.U.U.I.G.G.G.G.I.U.U.U.I.I.I.U.U.U.I.I.U.J.U.Y.U.G.U.T.D.I.G.I.Y.G.G.U.Y.U.I.I.I.I.U.U.G.I.U.U.U.I.I.G.",
"U.G.G.I.U.I.I.I.I.U.U.U.U.U.U.Y.I.U.U.Y.U.U.U.Y.U.U.U.U.U.U.U.U.U.U.U.U.T.T.U.T.U.I.I.U.J.G.G.U.U.I.I.I.U.U.U.I.U.I.I.I.U.U.U.I.I.U.U.U.U.I.G.G.G.G.G.G.I.U.U.U.I.I.I.U.U.U.G.G.J.G.H.T.T.J.U.Y.G.U.U.U.Y.G.G.Y.U.U.U.I.I.U.U.U.I.U.U.U.U.I.I.I.",
"I.G.G.I.I.G.D.G.D.G.G.I.G.G.G.I.I.U.U.U.I.I.I.U.U.U.U.U.U.U.U.U.U.U.U.U.U.T.Y.Y.U.I.G.I.G.G.G.G.I.G.G.G.G.I.G.G.G.I.U.U.U.U.U.U.I.U.U.U.I.G.G.D.G.G.D.G.G.I.G.G.G.G.G.I.U.G.G.Z.U.G.H.U.Y.U.U.U.G.U.U.I.U.G.D.U.U.U.U.U.U.U.U.U.I.I.U.I.G.G.G.G.",
"Z.Z.Z.D.Z.C.q.q.q.C.Z.D.Z.Z.Z.D.I.I.U.I.G.G.G.I.U.U.U.U.U.U.U.U.U.U.U.U.T.Y.Y.Y.Y.G.Z.D.G.G.D.Z.G.D.Z.Z.D.D.D.D.G.I.Y.Y.U.U.U.U.U.U.U.U.I.G.D.Z.G.G.D.D.G.G.G.Z.D.D.G.G.U.G.G.Z.Y.J.H.U.~.U.J.G.G.U.U.I.I.Z.Z.U.I.I.U.U.U.U.U.U.I.I.G.G.Z.C.Z.D."
};
