/* XPM */
static char *_b3222e239a74f8def720793cdca5d56NGyhke5ZFeMxgG4k[] = {
/* columns rows colors chars-per-pixel */
"120 120 89 1 ",
"  c #96B63B",
". c #98B83D",
"X c #99B93E",
"o c #9ABA3F",
"O c #9CBC3F",
"+ c #9BBB40",
"@ c #9CBC41",
"# c #9DBD42",
"$ c #9FBF42",
"% c #9EBE43",
"& c #9EBD45",
"* c #9FBF44",
"= c #A1C144",
"- c #A0C045",
"; c #A2C245",
": c #A1C146",
"> c #A3C346",
", c #A2C247",
"< c #A4C447",
"1 c #A2C149",
"2 c #A3C348",
"3 c #A3C24A",
"4 c #A5C548",
"5 c #A4C449",
"6 c #A6C649",
"7 c #A5C54A",
"8 c #A6C64B",
"9 c #A5C44C",
"0 c #A6C54D",
"q c #A7C74C",
"w c #A7C64E",
"e c #A8C74F",
"r c #A8C84B",
"t c #A9C94C",
"y c #A8C84D",
"u c #A9C94E",
"i c #AACA4F",
"p c #A9C850",
"a c #AAC951",
"s c #ABCB50",
"d c #ABCA52",
"f c #ACCB53",
"g c #ACCC51",
"h c #ADCD52",
"j c #AFCF52",
"k c #AECE53",
"l c #ADCC54",
"z c #AECD55",
"x c #AFCF54",
"c c #AFCE56",
"v c #AFCE57",
"b c #AFCE59",
"n c #B0CF57",
"m c #B0CF58",
"M c #B0D055",
"N c #B1D156",
"B c #B2D257",
"V c #B1D058",
"C c #B1D059",
"Z c #B2D159",
"A c #B3D358",
"S c #B1D05B",
"D c #B2D15A",
"F c #B3D25A",
"G c #B4D35B",
"H c #B4D459",
"J c #B5D55A",
"K c #B6D65B",
"L c #B2D15C",
"P c #B3D25D",
"I c #B4D35C",
"U c #B4D35E",
"Y c #B5D45C",
"T c #B6D55D",
"R c #B7D75C",
"E c #B5D45F",
"W c #B7D65E",
"Q c #B7D65F",
"! c #B8D75F",
"~ c #B8D85D",
"^ c #B9D95E",
"/ c #BADA5F",
"( c #B6D560",
") c #B7D661",
"_ c #B9D860",
"` c #BBDB60",
"' c #BCDC61",
"] c #BDDD62",
"[ c #BFDF64",
/* pixels */
"8%+:2::8::::2888gyysq:yKBBxgsgBAgggBBgxKKBgsgggyyyysggy8AKKABxBAKRRBggq:X:qy828yg%+88%*xBxBK~~KxBRKg8yy8sgBKRRKK'Kxyyy8:",
"g82ysyys888qyysgyqyyq8g~gsyyyysggyyxBBBKABggBBggggggxgyqBAKABBKKBKKxgy8*%2ysy8ysg8:ys8yABBAKRKABBBxyygg8xBBAKAABKBgygggg",
"BggBKBBBsgggBBBAyyyy88sKyyyyyyyys88gAKKKBBBBAABxBAKABggggxBBBBBKBKKBggy22ygggygxyssggBBKBKKKKBBxBBgygKBsKABBBBBBBxggxBAA",
"KAAK~RKBAAAKKKKKggy82:8ssyygggsyg88gKKABBBAKKKABBKRKBxBKxBAABBBAK~~KBABgygBBBxBByBBggKKxxBKAgyygKABBBAABKABgggBBKABBBBBB",
"AKKKKRKxRRKKKAABggy8:28ygsyggggyg88gKKBxBBAKAAAABKKAxxA~KR~RKBBBARRKKKKBgBBABBAKgKKggKKgygxgy88yBKRKgygAABgggxBKKKKKBBBB",
"BAABBKAgKKKKABBByyq:2yggsy8qygy8s88gABxxBAABxxBABBxgsgBAgxBBgyqqyxBgxKKBBBBAAKKKA~RBxKKxyysyyqyyxBKAy:8BBBggxBKRBAKKKAKR",
"AKBgxKAgBBBBBBBBygy8qxABgq:2qyy888yxABBAAABgyygAKxyq8yyy:8qq2:%%:8yqsBKBABBBAKKKKKBggBAAsyysgxxxBBAAg8qBBBBBBAKKxBKKKKK~",
"KRAggKKgggxBBAKKBAxyyBKBxy::qsyq::yBBBBRAABsqqgBRxq:282::8qy8:::%288yBKKABBBBAKABgyyssxKxgygBKKK~BBKBsgABBBBBAKKBKRKABAK",
"BBxBAKBggggggBAKKKABBBBAK8X+:2qgX%8yggxBBgygggBKxy8qsgsq8ys8yxBy88qgKKBgyggyyBBBBBs8qgBgy28B~RKKKAxsgxBgxBBBBBBBgBKAxgA~",
"BBBAKKBxgggxBBKKRKKBBxxxx8%:888s:8sgxBBKKBBAKBBKKBggAKBxxKAggBxyBxgBKRBg8yy88sgyggq:8ysqq28BKxggygggsgggBBBBBBBBxBKBggBR",
"BBBBKKBBgxBAKKKKKKKBBBBBxssxBggBsgBBBBKKKAARKBgB~KAKR~~KKRKBxBxgKABBKKAx2qy88yy8gxgyyggy8qgABy8q8ygxgyggKBBBxBBAxBBxsgBR",
"BBBBBBBxxBAKRRKKBBBBAKR~BBKRKKK~BBBBxxBKKABKBgyg~KBAKRKKBBBxxxxgBgyygBBx8ysyyyq:xBxggBgy8sKRByqyygBBgygKBBgssgxBsggyygBR",
"BBBBBBBBBBKKRKKKABBAKKR~BAKABAKKBAKBBxBK~ABBgysxKABBAKKABBxxggggxy88yggg8ysyqyq:qyy88y8**yKKBsysBgggq2yKxgyyqysg8qqyygBK",
"BAABBBBKBBBAKKAAKKKBBBBBKRKBBKKKBKKKABAK~KBBxgxKKKAAAKKK~KBABsysKxyygggy8yy88q8:8y82882%+qBBggggByqy8%8Bxgsyyyyy88qygBAK",
"gxBxggBABBxxBBBBKABgggssR~KBA~KgsgBABBBAAxgBBgxKKKKKAKKK~ABKBsygKBggBABgysy88yyqgxgyysy2%yxggBBgB82yq:8BBBBxggggyygxBABB",
"ysgyqqygBxggggBBggsyyyssBBxgBKg:8ygxxgggyyyxBggxKKKABBKKBggBBggBBggxKRKBgxgyygxgBBgyygg82gBxBKKBx82gxyyBKKKKABBxgxBKKKBx",
"%8yy82yxssggggssqyq8yggqBgyyqqyyqsggy88ys8::8qq8xBgqqgg8:22:%:gK:yxAKAAAKgA~BBKB!RIAAAGGKABBKKKKgBKKKBAKKABBAKKBgBK~~Kxg",
"*8ggsysgyyyssyyygggysBgyBggyyysggggs8288sq2:8qyqggy28sy2:88qqyxAygARKKKKRgBRggBBRGAmnAAAKBBBKKKKgBKKKBAKKBBBKKKBBBKRKAxg",
":8ygxgsyqqyyyyqqgxgyygg8ABBggggxBBgy8:28yq888yyyy8::8yq::28ygxgygBKKKBBB~xBAy8ggnxxlflxxxgggBBBgsgBBBxxBBBBAKKABBAAKBBgg",
"888yggy888qyyq88yyy88yy8KKBBBBBBKBxyq8yyyq888qyyy8*:qsq::::8ggy2gBBBggss`BBB2:yssspppppsyyqyysyqqysggyyysgBAKABxAABBBggg",
"gy8qgxgsqyyyyyyq2yy88yyqKKKAAAAAKAxgggxB8qqqqyyys8:8sgy8q:*2sgy8xBBxsyyy`BBB:%ygqqeeeeeeyyqyyyy8yyysgsyqysxBBxggAABBxggg",
"KBggBAKAssggggss8ggyygxgKKKAAAAAKBBBBKKKqyssssgggyygxgysxy8ygBgsAAABgggx~BAB:*ygsssfffssgggxBBgygggxBBgyygxBggggBBBBBBBB",
"KABBAKKKxBBBBBBxsBAxgxBBBBBAAABBKBBBKKKAsgBBBxBKBgBKByyxBxgxBABxKKKBxxBKRBKK82gBxnAAAAAABBBAKABgBBBBKAxgxBBBgsggBBBAKABB",
"BBAKKABBBBAKKABBgKKBggBxBBBBBBBBABBBKKABgBKKKAK~BBK~ByyBBBBAKKBgBABBgxBKKxKRy8BKAIR!`!RRBBBKKKxgBBxBAAxyAKKBgsgBgBBKKKKA",
"gR'KBBKKBBBBAKKKKKKKKKKKBBAAAAAAB'KgKKsqBAKAKRKKBKRKABAKBBBBKAgyBgggyygRBKKKBxBKAGKKKKKAABBABgBKAKKKBBBBKKKABBBBBBAKKKKK",
"xKRKAKBgyysggBBBxBBBBBBBBAKKKKBBBRxyKKy2sgBBBABBgxBBBBBKBBBBABxgBgggyygKBAKABBAKAABBBBBBKAAKAgxKAKKKABAKAKKKKABBBBAAKAAB",
"gBAAKRBq88qygxBBggggggggBAKKKBBggByqAB8%8qsxBggyggBBBBAKBBABBBBBKBgggsxKKBBBKKABKKBxxBBAKKKRKggBBKKKKAKKxBKKKKABgggxgggg",
"8gBKKKByyyysgBBBgggggggsBBxggggggg88KB:%:2yxBgyyBBBBBBAKBBKBxgBK~ABBBgBRABxBKKAB~KBggxAKKKKRAgyggBKKKAAKygBKKKBByyyyyq88",
"%yKKAABxgggggggxgggggsyyBgy828yssg88Ax:*82yBAgygKKBBxxxxgBABxxARRBgBBgxABggBKKBgRKxssgBKKBAKxyygsgBABBBBysxAKABgyyyyq888",
"XyKKBBBBgsssyyyyysssyyq8xs8::8yssg8qBy:8y8yAKggBKAggssyyggBBBBBKKgyggsyggggBBBBgBxsyygBAKBBBgqqgygBABxggyygBBBBxyyysyyyy",
":yBABABxyyyyyyyyggggsyyqgsyyyysgys88g8%yg8yKKggKKBgyssyyyygxBABBKgyggsys8ygxxgggBxgsgxAKKBxgyqyBsxAKBggggxBBBBBBqyyyyyyy",
"ygBBAKByyyysggggBBBBggsysggBBxggyy88y*%gg8yKKgx~RBgsgxxgyyygKKBg~BgBBxgg2ygxgsggABBBBK~~~AxgyqgKgBKKAxggBBBBAAKK:288qq88",
"qgAKKKKKxxBKKKBggBKKABAKKssK`Kxggy2:qBBgyxKRKKK~KBgggyyg:qgggyygyygBg28ggyq88qsgKRRKABBB~xqqqqyggxxgBKKBKABBKKBxqqqssxxx",
"ygBAKKKABBBKKKBxAKRRKKKRAggK~KBBBxsyxKKxAKKABBBAKxggy88s8qsggggg88ygq%:qyq888ysgBAKKKAAKBs8yyyyggBABBKKBKBBBAABgssflxmnA",
"xxBAKKBBKKBAKKKBKK~RKAKKBxgBKAKRBBBBK~RxKBgggxBBBBBBs8qgyyysgBBxysggy88yyq88qyggBBAAAABBsq8sgsysyBRKBAKBKBBBBBBxnAmAAAAA",
"KBBKKABB~KBBKKKKAKKABxBBBxgggxK~BBBgBKAggy8ygBABBBAKBsgKBgygBKKBxBBBxggBggggggxxKKKABBgyy8ygBsq88B~KBBBBKKABBBBBGGGGGIGG",
"RBBKRBBA~KBBBKKKBAABggxBgggyygBKBBgyyxBg2:2yxBBgyygABxA~KBgBKRKKgBBBBBAKBBBBBBBBKBBBBBs8syyBBs828BRKxgxgBBBBgxxBRIIGGGAA",
"KBBRKgxRKBxgBBBBAAABggBKggy88gBBBBg88sgg::8yssy8828gBBARKABAKKKBBKKBBKRKBBAKKABBgssxAAxyxssBBs88qxKBgggggggsyysgGGGAAAAA",
"BgBRBqg~BgggxBxgBBBgggBKBBy8qxxyggg88qyq:88882288::sAKAABAKKBxggK~KBBKKByygBAABByyygKKxyBgygxgyggBBxgBBggxggyygBAAAAAGGG",
"syBKg:y`ggsggggssssyyygBKBy8yBBq8yy8:82::88:**8yy2:gK~KBgBKKxsyyBKByqgg8:2ygBBBBgyygAAg8AgyggggBBBBgxABgBAAxggBKAAAAGGRR",
"Bqsxq8yqygBs8qyq88:*%:sBBgsgggq:8:28ysy88ysy8:qg2yxKKAgsBBxgssggxgK8:g8qqyygxBAKggxBBggyKxssgxgsBABgsBRR~KABAKKBBKRGAGBg",
"B8qs2:y8gBAggggyyy82::qgKBxggs8:yyysgxgysgBgyygBysgBgs82AgqqgxsqgyB::x8yysgBBKKKBAKKBxxBKBgsgBBxBBgygAKARKABKKKBBKKABGBg",
"B8qs22yyxBBxxBgyyyyy8qygKABBBgyqxxxBAKABBAKAxgBKggsyy888Ky:2xKg:y:y:8B8yysgBAKKKKK~KBxBAxgysggggABgygAKBRKAKKKABBKKBBKAx",
"KygByyBBgxggxBg8ysggBBAKBBAAAAAKAAAKKKKKBAKABBAKsyyqyygxKy2qBKx8g:y:yKqy28yxBAAAKKABBBxg88yygsyqBABysBKBKBBKKABAARRBBKKB",
"RsgAggKAxBgsgAxyxBBKK~~~BKRKKKR~AAKKAKKKAKKABBAKggyygBK~KBgxKKBgA8gygK8y28ygBKKK~BgxKKBy:8yggsq8xKAgygKKBxBKKBxKK~KBBKKA",
"BygAggKBBABggBAxKKAAKKKAK~~RBgB~BBBBxxBKKKABBAKKBBBBBAKKAKKKKAAAKyBgBA8sysgxBKKRKBgBR~By8sBBBgsygBBsyxKKxsgKKggKR~KggBAB",
"g8gKggBxBAByygAKBxggxBBxBK~AsygKgBBgggxBBBggxxBBBBBAAABBBKKKABBBKyABBB8xBBxggBBKygBKKBggxBBxgggBgs88yKKBgygKKyyAKKByyggg",
"g8gRBBAxgBg8:yBKy888ygxxyxAxyqgRgxBgyygBsyyyyyyyygBAKKBBBBBBBBgyByKABB8BKAgyyygg%yAKgyygKAxy8qgKB8%%g~Kyy8sKAqyBKKg88yyy",
"BAKKKABgBggBABy8syyyyq82gBBgyygKgggy888y:8qyyy88qysggggggggy8:8y8qsgggxByygggyyqXg~Ayyssygg8:8yy%+%8BKBgq22yyygBgxBBBggg",
"xBKKKKBxgggggsq8syyssyyqgBKBggBKBBgy8:288qqyyyyy8ygBBgq888qyyy88yyyysggg88qyq88:8BKByyyq8ys8:888:::yBKBgy88ysygBysggxxgg",
"ygBKKKBggggsq888ggggyy88sBKRKBBKKABgy8yygsyyysgg8sBKAg8%::2yxxq:gy8qsggg888qq82:gggsgggq:8y88yyy888gBKBggyyggsgByq8ygBgs",
"8ygBKBxggBxy8:28gxggq8::gBKKKAKKKKKBxBBKgggggggxygAKKg8:28ygBBs8KgqqgBxgysgggsyygy28gBBy%2yysBBg88ygAKBxxssxxggBs828gBgq",
"28sxBxgyBBBg828yqysy8228BBBBBBAKKKKBBBKRgxBAABxgBBAKABgggxBBxgxB~BssBKBxBBBABBxgB8*:sBgy:8yysxgq88yxAKKBBggBBxxBxy8qgxs8",
"yyggggyyKKBgyyyg*8yyyqygBBBBBBBBAABxgsgBxBKKKAxgKABBBAKKAKRAggBRRABBAKKBBBAKABBgKs88yyqqyssyyy8%8qgBKKKKBBBKKBBKBgssgxgs",
"BBBxggsyKABxxxgs2ygxsgBKBAAKKBxgxBxgyyggBAKKKBBxKKABBAKKKKABxBBKABAAKKKKBBBAABxgKxggy88sgxgyys8*ygBKKKKKABBR~KAKABBxnBAA",
"RKABggggKBxBBBgygBKKBgBKBAK~~KgysgggsgBKKKABBBBBKKAABBBBABggBKBgxBKKABAKBBAKABBgBgxBg8yABBxgxABygBKRRKKABBA~~KK~BBABBKR~",
"R~RKBxBKAABBBBBBKABAKKBBBBK'~g8q88ysgxBBgKKg88ygygggyygKK8:gAggK~KgsgBBxsgBxgysggysg8:s~KBBKKBBKBxBRKxsgBBARRKKKAAAGIRRR",
"BAKABBKRAAAABBBAKBxgBAKKBBK~Ay8y8ysssgxABBBy888:ysgsq8sBKy8xKggBgyqqyggg8ygsy88q828y2*yKKBBKKBBKBggBBy8qxBAABgBAAAAGIIRR",
"BAKKAAAKBBAKKKABBxssgAKRgxAKg88yygxgyygKABg888:+qyyq2:8sg88gBgyy8888yggs8yssy888%:8y8:yBKBBKKBBKBgsgy828gBAgyqsBAAAIIRRR",
"AKKKABggggBKKKBxgsysxAKKygBgq2qgyxBgq8gKBBgq888*2q8:%:288:2gxy88qysgBBBxsgBBBgsy:8sggsxKKABAABAKBgysy88ygAKs::yBAAAIIRRR",
"ggggggyqssgBKKBgyysxAKBB8ygy8qgByBKByqgK8ggq::88:q8%%:2:22qgBgyygxBAKABBBAKKKKBx8gBBBBKKAABBBBAABgsgggxKsAKy:2sxAAAGGRRR",
":::8yyyyyyygBKBgsggBKAxs8yyqqgBByxKBgsxK:ygq::ys8yy::qy2yygBKBBgxBAKABBBKKAKKKAByBABxBABBABggBABAxgBABK~yBB8:qgxAAAGGRRR",
"::*:qggggyqsBKABBBBBABgyygsqsBBgygBABBBB8ggyqsggyBx8qBBygBAABBxgxBKKBBBA~KBBAKABxKKggBBgxBByyBBxKBBKKAK~2gg2:gBgAAAGGIRI",
"yq88ygxggyqyBKKBRKBxBxgsxBgygKByygBKKABxBABgBKKBgKAygR~BxBABggyyBBKKBBKR`KBBBKKKA~KgsxBsgBxyyxBgKBBKKBBK*yy::gByAAAGGIIR",
"8sxBgyqqBAAgyygKBAKKBBggKBggBKKBKggK~ABKRBBKKKKRBK~~KBBBqgBgq2qgAKABggxBKAAKBgBRBBBBgyyyBggy88g~'ggKKKKs*yyyABgBGGGGGIII",
"ygBBxsyyBBAxyyBKgxBAKKKKBBBBxBBBKBBKKxxKKBBK~KBABBAKKKAB8ygy828yqyyq88ygggBAByyggBKAxgggsq8882yK~ggBssBg:yyyBxyBGGGGGGGI",
"gBAKBxggBBABggBRxBBKKKKKxAKKxgBKABBBsqyBxggKKBxxBgsgBKAByysyyy88*:2228ys28sBg8*:qgKKxsgx8::888yBRgxB88gg8s88gyqgAAAAAAAA",
"xBAKKBBxBBBBgxARRKKKKABBBKKKBBBKgxxy:%2ygyqgggygAs88gBBsBBgxBBgy28qyyygx::ygy:+%8gKAgyygq28ygggA~gxBy8gy2y:*qq8gAAAAAAAA",
"BBBAAABBBBBBxBBK~KABBBgsBxxBAABggBBy:*8yg8::88ygKs:2yxg8KABAKKBy8yyyyyyg82qsy:%:yBKKgysgy8ygxgBKRysBgsy::8*%888xAAAAAAAA",
"BBBBAKBBABBBxxBBKBggBBBgsyqyxxgqBKKgyyggBq::28yxKg88sgs8ABBAKKgy88yy8888yqygy88yAKKKBBBByyggsygKB88xgsq+:q:%qyqBAAAAAAAA",
"ABBBKKKBKABBxgggxy8ygBBg88ysgggyBKKBBKKBKs8qysgAKgyyxBxgBBBKKBgy28yyq888yygBgyyxKBxxBABBsgBBy2yKB8yxyyy:qgq8ggyBAAAAAAAA",
"KBBBKRKAKABxggsygy88sxgy:yxBggxBxKKBB~KxRBgxBBAKABgxAKKBBBKKKBggqyggggggyygKAggBBgqygBBBxARAy:s~BygBy8gsgBgyBgyBAAAAAAAA",
"yqyBAxxBBABgxABsyxABBBBsxxxgygBRBBABxxARKKKK~~~RKBBBK~~KBKKKBgxBBBxBKKKAgBKKBBBBxy8yBKKBBK~AgygK8sBKBgggqyyq8yxKllllxmAG",
"q8yBBgyyBABgxABsyBBBxBxyggBgsysggBKKKAKKBBBAABBxgxBBBBAKBAKKBxBBKABAKKABgBAABBBKKBgxAKKKBKKBgygK8yBABgyyyyyyqyxKlxxxnmmA",
"yygABy2:xBxggBxygBBggxgyygxxgy82gBKKAxgsysgggyq8ygxgyygAxBAKBBBKRKKKRRKBxBBBBBAKRKKKKKKKAKKBggBKygBBBgyygggsysxAxxmAAmnx",
"ggxKAs88gxgygBxyBBxyyggyyggggy88AAABs8:%8qysy882qyyyqyyggBBKKAAAKKKK~~KAggBAABBBAKKKBBKKKKABBBAKgBBABBggABBxgxBKxmAIIAxf",
"KBBKKxgBBBBgBKAgKAgyyxxygggsggggKAgy8:*%:8ysyqqygq28ygy8xBBAKBBxBxxBBxsy8ygAKBgyygxBBBBKKABBBKKKAAKKKKAB~KKAAKKKAAGRRAxl",
"RABKKBBKKKKBK~~AKAgygBBsBxsygBKKKBgsssyy8yggsygBBy28gBg8BBBBABgyyyyq8:%X:8ygBxy88qygxBBBKBggBKKAABBBKKKK~KKKKKKKAGIRGAAx",
"KBBKKBxBBABBA~RBABggBKAgKBgsxAKKABxBBABggBABgsBKKxysBABgABBBBgq::::22:+ :::8yyy8yqqgBKBxBs8yxABgxgsgBAABKABBKKKAGGGIGAAA",
"BBBKKgysgggsgBBgABxgA~KgKBggBKKABBBKKKxyAKKBgsBRKBBBBBBBKBBBBs8%%%*8q82*2:%%:8yqgyygKRAggq:8gBxsyq8qgBBxBBgxAKABIIAAAGIR",
"KBBBBgy8y828ygyqxBKRKABBBKKBBKKBBAKKKABBABBBBBBBBBK~KxB~KAg8yBg2%:8sggy88qysq:8gBy8gRKgq8:%2sgy:y8:8gAKAKBBBKKKAAAKRAgBK",
"BBBBgq88888888qyAKKABBBBBKKBBKKBAAKKKKABBBBBKKKRKAK~KBBRBBgygBg8:8ygBBggyyggy8qggq8sBg8::**2yy8:y88qgBKKBBBBBKKKKBAKAxxK",
"gBKBy828ygggq8ygBBBxggBKBAABBKKBgxBBBBBxgggBBBAKKBxAKBBBgBBBBBgyygxBKKKKxxBKxysBgyqsgq::%::88q88qyysggARggxxxBBKKBBAKBBB",
"ggxgsq88gggyq8yggxBgyygAgggsgBBsqqyyyyyyssyyyyyyBy8sBBgggBKABBBBBBAABBAKKAKRKggABgxBByys:8ysyyygygBgyygAqyyyyygBKggBABgg",
"y828ggq:sq::2882gBAxy88yyyy8yggq288qqqq8yyyqqq88g8:yBBBBKKKKBBK~BKKBgggBABBABggBBBAKKBBK8sBBxgBAgBKBy8qg88888qysxy8ygyqq",
"q:%2gxy:xy22qyyqAR~Bq*%:yy88yggqqyysgggsqyyysgggBy8sAKKK~ABBABK~BAKBgysgBsyssygBABBKKBBRsBKKKAKRBKKBy88yyq88yyyyy2:8q2:8",
"sq8yBBgqKBgggBBKKR~Bq:8gggyyxKAgsggxBBBBssggxBBBKgygBAKK~xgBKBBBgBKKxggBAgqyyyxKKBBAKBBAgxAKKKKKKKRAgyysKgyyxBgyyyysy88y",
"BBBKKKABBBBxggK~xAKgyyB'BBxgK`~BggxBBBBBBBBxxgggKgsgxgxAKsyBRBsysBRRABBK~ByygxK'`KBAKBxBggBBKKKAKKRKBxgg'KggK~AsBBAKBsgK",
"xBAABBBBARKggKRARKBBAKKK~KBBAKBxABBBAKABKBBxy88syyyyyyssBgxKg8qKKABgB~RBKRKBBKBgBgyygBBxsxKKABAKgBAxgBKK[ByB~RBg~KABKKKK",
"BBKABBBABKKxxKKBBBBBKKKBKBBBKKABBBBBAAAABxggq::888888yygxxxxsygRBBgygAKBBBBBAKKxyq88ygggqygggysgqgBggAKK~xyBRKBB~KAAKKKK",
"BBKABBBKBAKBBKABssgBKKBgBBBKKKBxBBBBBBAKgsyy8%%282::8qsgsxxy8sBKsggq8sxxygBBK~Kx82::8qyq:8888888:yggxKRKAggBABBKABxBAKKK",
"BAKBBBBKgBAKKABgyysxBBgygBAKKAxsggBBBBAKgyyyq::qyq888ygBqBx82gBg8sgy8qyyqgxBK~Kg88888888*::22888:ygxBKKABBxBxxBKgsygBBBB",
"BBBBgxBKgxBKKBxgsyygggy8gBKKKxsqygBBxBAKgsgxgyyBBggssgBByBKgyBBy:yxgyyy8yxBBKKBsgggsyq88::28yygg8gBBBAABBABxggBBgssgBKAB",
"BBBgsgBAxgBKKBgxxgyqyyq8ygBABgyqqsxBgxARxgBKAxBKABBBBBAABKRKAKBg8gBBggy8gBBBAKByBBABgsysyyyygBBBgBKBxBxgBABsygxgxgxBKRKK",
"xxggysgBBgxKKxgBBg8:28yy2ygxgsyy8ygxggA~BBARKxxAxBBKKKKAKBBKKBBAxBBxBAByBABBBKKggBKKBggBBxggBAABxKKgsggygxs88ggsggxBKKKB",
"gggsyygBBggKKggBBs:%:8gx%8ygsygg2ygxggA~KAKRAgsxygBKKKKAKsyBAgxR~RBgBKKBBABBBRKBygAABBBARAxxBABBxABgyysyyy8*2ggyssggBBxg",
"gq8yBKg8xARKBgggygxsygsy888yygxBg*gK8yKBByx~K8y'xgyqyygxxssggsgKxKKxgBKKggsysgBAyygBKKKBKKBBAKKRKgygBgyy::8y8:8sygBBAKAg",
"yqqyggy8sxAKBBBBxAAxgBBxggggxBBAB2gKyyAggysBg8qBsyqqysxBgyysggBKBKKgsgxgyy8888qy88ygBKBBBBBBBAAAAgygBBgg88ygy8qgsBABAKKx",
"ygxxsyyyygBBBBAKKKKxxKRKKKABBBBAByB~gyxsyssgssyyyyqqygBABy8sBxBABKKgyyyqyy8:::::28qgBABxxBBBBBBBBsyxKABBysBAxysBxKKAKKKB",
"qgABy8qgsgBBAKKKAAxygARKKKABBBBABgA~KxgggABgxKBygsyyggBAKsqgAABBBKKgssy8gsyq8888yysxAABggBAKABBBAgyBKKAAgxAKBsgBBKRAAKKB",
"8gBg8:8yBBBBAKAABBs8yAKKBBBBBKKKBBBK~BgBB~KBA'KyBBxxxBBA~xsBKKBxBABggggygggggggggggBBBgyygBBBgxBKggBKKBBBBAKBygAAKKBBKKB",
"xBBBgysgABBBBABBBxy8sKRKBBBBKK~~xAgx~ByBBKKBA~BqKAABBAKKRBgBKABBBBgyyxxsyyysggggggggxgy8qsggsygxKgsBKKBBKAABgygKBKAggAKA",
"KBxxBBxgBxggBBBgggq8gKRBggxxBAKKxAyqKs:ggBBBBBgqBBBAAKKKxsgBABBAABs8qggy88qyyyyygggxBxy8ygBgyygAByyBKKKK~KBBsqgKxBxysBKA",
"By:8sgy2gsyygBxgyy82yAKgssysgggxgK8:x8X8ggBKBgyygxBBAKRRqqyBBgBKKBy:2ygy888qyyyqBxBAKAxsxBKBggA~gq8gKKKR`RAxyqg~gggyyBKA",
"gy888ysg8yBABBggyygBBKKKyBgyBByyyggy2:8qysggssgBygy8yKB8sggssgBKBgyyyyy8ABgq88ygssxKKBBRBBBAAKKKyyygKRAg~KgyqygB8ggyyBBg",
"xsq8ygxxygBKABBBggxBBAKKxRBsAKggBBxgyyysggBBxBBKqggygAg%gsyysgBAKBxggggyKAgyyygxssBKKBK~AKKKKKAByygBRKgqBgy22ygAyxBggBBg",
"BgyysBBAgBKKAAKKBBBBBBAAB~ByAKBBKABBBxggygxBBBAKygxggByXgyqygBBBKABBABggKBxgysggyygAKBB~AKKKABBxyygBKBy:sy2:2yBKgBBBBABx",
"xgyygBKKBBAABAK~AABBBAKKB~gqxABAKBxBABgy8qygggxBsxBgxBy:BgyyBKAxABBAKBgsABggggsy88yBBgxKABBgggBByysgxg8:yq8qygBKBAKKKKBB",
"gsqysBAKBBBBBBK~BBBBBAKKBRg8gABKABBBKKgy:8yyyygggBBxBBBgKxsgK~KBAABKKABgKBBBBBgy88yBBgxKKBgysxK~xggsgggssgxBAABBBBKKKABB",
"xsqqygBBgBBBBBAKBBBBBBKKBRg8BKBKBBAKKKxs:8ysssggxxBBBAKAKBBBK~KAKKKKKKABRKKK~KByyygBBgxKKBgyyxK~BBgggxBABBKRRKABBxBKRBBB",
"BgyqygBBgBBABBAKKABxgxBBgKg8xBgBygBKAxsy:8ygsyysggBKKBBBBBAKKKKKKABBBABBKABK~KgqyygBBsgBggyqyyggxgggsggxKKKKKKKKgsgKKBgB",
"BgyysgBBgBAKAAKKRKBggggxqxq:sgyg:yBBgy88:8ysyyqyygBRKBggBBKKABAKABgggxxxxggBKBy:88ygs88y88882:::yysyq888RKBxxBKKsygKKxgB",
"ygK~KgB~~KBBAKKBKKKxy:::q2:2ygy82qslle2*%%:88::qxgxBKAxg:qgggysgyyyyyyyy%8BKKBxggy2:::::y:O%::::88%%8::gAKKABBxggy8ygBBx",
"8qgBgysB~KBBKKKKAAAxy828sq8ygBgyqsxAxfq28::ygyqqBBBKKKBg28yyyyyyq888qqyy8yBKKBxgsy888yyygr<88::828%*y8:gKKABBBBxBgggBBBx",
"yyygxggBRKBAKKKKBBBBgyyyBgsgBKBxsxAGGmfpBq8sBBgyBBBKKKBxyyyyysyyyyyyyysssxAKABBBgyyygBBxKBggs8yg:8:8gy8xKKABBxBBBBBBBBxg",
"BgyxAAAKAABAKKKKBBABBxBBABxBKKKBxAGRRGmxKgsBKKBxBBBBKABgKBggBBBggxBBBBBBxBBBBBAAxggBAKKBGAIGxsxG8yygAgyARKBBxBBKBBBBBBgs",
"KgygAABBBAKKKKKKBKKKKAKRABBBKKKAAAGIRGAAKBBKKnnKABBBAKBBRKBBKKKBBAKKKKABxxxxBAKKBBBAKKBBAAARAxA!yBxBRxsKRKBBBBKKxBAKABBx",
"KxgBKBBBBAKKKKKRAKKKKAKRBBAAKKKAAAAGGGGAKBAKBfgKKBBBKKABKBBBKKKBBAKKABxgggsgBAAABBBAKAgsmxmIImARgKAKRgsRKKABBAKKBAKKABBB",
"BggBBgysysxBggxBBKKKBBBAAAKAKBKKAAAGGRRRKBgxxssgBxggxBxggBAKKAAKBAAABgsygsysgBxggggBBBsqIbbPRPAPgKKBKsyKAKAAKKKKBAABgsgx",
"888yy:%*%:qy888yBBABxggxKKKKAKKKGGGGIRRRRg8yggyysyqqyyyysBR~KKKRKKKKBgyqggyyggyqyysgBxy8(mbP(PbbxKABBq8ABAAKKKKABBxs828y"
};
