/* XPM */
static char *d971e3315abc4d03f572575381e19615HklO8xyAGGkGSlZ6[] = {
/* columns rows colors chars-per-pixel */
"120 120 236 2 ",
"   c #0A0706",
".  c #1C0101",
"X  c #170606",
"o  c #191919",
"O  c #230101",
"+  c #2D0000",
"@  c #280A0A",
"#  c #3B0101",
"$  c #330304",
"%  c #2C1919",
"&  c #381F21",
"*  c #232424",
"=  c #2B2B2B",
"-  c #292728",
";  c #393839",
":  c #312B2B",
">  c #470000",
",  c #570203",
"<  c #531517",
"1  c #650509",
"2  c #730E13",
"3  c #6D1F23",
"4  c #4E3132",
"5  c #713134",
"6  c #6B3E41",
"7  c #434444",
"8  c #4B4A4A",
"9  c #575252",
"0  c #655D5D",
"q  c #764E4F",
"w  c #6B6B6B",
"e  c #777777",
"r  c #726869",
"t  c #8B3E15",
"y  c #873E15",
"u  c #943C13",
"i  c #8D1C21",
"p  c #AC1F26",
"a  c #B31F26",
"s  c #97252A",
"d  c #9D3B2C",
"f  c #8D3135",
"g  c #9A3736",
"h  c #A4232A",
"j  c #AC242A",
"k  c #AD292F",
"l  c #A62725",
"z  c #B32426",
"x  c #B32B25",
"c  c #BB2D24",
"v  c #B4242B",
"b  c #BC252B",
"n  c #B4292C",
"m  c #BD2A2B",
"M  c #BC2626",
"N  c #A8362A",
"B  c #B53328",
"V  c #A42D32",
"C  c #AD2B30",
"Z  c #B42C32",
"A  c #BB2B32",
"S  c #A63D32",
"D  c #AB3836",
"F  c #B43838",
"G  c #93231B",
"H  c #C4252C",
"J  c #CB232A",
"K  c #C3292D",
"L  c #C32527",
"P  c #C12A31",
"I  c #CC282D",
"U  c #894116",
"Y  c #8C4719",
"T  c #8B4919",
"R  c #834813",
"E  c #924517",
"W  c #924718",
"Q  c #86581C",
"!  c #B54836",
"~  c #AE4B39",
"^  c #9B7536",
"/  c #983E40",
"(  c #AD3D42",
")  c #93494C",
"_  c #A54746",
"`  c #B54748",
"'  c #B85658",
"]  c #B65547",
"[  c #B46D54",
"{  c #947879",
"}  c #A16162",
"|  c #B65B60",
" . c #C75349",
".. c #CC6E55",
"X. c #CE6B6C",
"o. c #E9796D",
"O. c #9ABA3E",
"+. c #9EBE43",
"@. c #A5BB59",
"#. c #B4BF53",
"$. c #AEB350",
"%. c #9DAF69",
"&. c #A7BD66",
"*. c #A9BC72",
"=. c #A6B478",
"-. c #B5B76C",
";. c #A79651",
":. c #C7AB5D",
">. c #D0AA5F",
",. c #D68A66",
"<. c #E98772",
"1. c #E69B76",
"2. c #EE8A75",
"3. c #CDB263",
"4. c #C7BA68",
"5. c #D3B367",
"6. c #DBB56C",
"7. c #DDB96E",
"8. c #D5B96B",
"9. c #DDBB70",
"0. c #CCB168",
"q. c #E5B476",
"w. c #A1C146",
"e. c #A5C54A",
"r. c #A8C74F",
"t. c #A9C94E",
"y. c #A7C94E",
"u. c #ADCD52",
"i. c #AECB5B",
"p. c #AAC659",
"a. c #B5C155",
"s. c #B0CF57",
"d. c #BAC55A",
"f. c #B4CD5B",
"g. c #BEC95E",
"h. c #B8C156",
"j. c #AED155",
"k. c #B1D156",
"l. c #B4D459",
"z. c #B8D75F",
"x. c #B8D85D",
"c. c #ABC563",
"v. c #ADC46A",
"b. c #ADC864",
"n. c #B3CE62",
"m. c #B3CC6C",
"M. c #BAC667",
"N. c #BCDB61",
"B. c #B7D365",
"V. c #ABC077",
"C. c #B6CC71",
"Z. c #9FC148",
"A. c #C1CA5F",
"S. c #C2CC62",
"D. c #C5C76A",
"F. c #D8C273",
"G. c #CAC578",
"H. c #AB7F80",
"J. c #8B8B8B",
"K. c #858685",
"L. c #979797",
"P. c #B49495",
"I. c #B1BE89",
"U. c #ADB88D",
"Y. c #A4A5A4",
"T. c #ACADAD",
"R. c #AAA7A6",
"E. c #B4B4B4",
"W. c #BBBBBB",
"Q. c #B6B8B5",
"!. c #B3AAAA",
"~. c #C68A8C",
"^. c #D09494",
"/. c #ED9891",
"(. c #DABC92",
"). c #D5BB98",
"_. c #CFB28E",
"`. c #F6B78C",
"'. c #F4AD91",
"]. c #E49EA2",
"[. c #D6AEAF",
"{. c #E7A6A7",
"}. c #FFAEB2",
"|. c #FDB2B4",
" X c #F0ACB0",
".X c #D29EA0",
"XX c #B6C487",
"oX c #BAC59D",
"OX c #BECB98",
"+X c #BFCAA0",
"@X c #C4CB9A",
"#X c #D0CA97",
"$X c #ECC58B",
"%X c #E8CB8C",
"&X c #F3C48E",
"*X c #E5C493",
"=X c #F4C592",
"-X c #FAC394",
";X c #C3CDA7",
":X c #D3C2A6",
">X c #C5C8BB",
",X c #DCCEBA",
"<X c #CCD5B5",
"1X c #D4DBBD",
"2X c #D2D6BB",
"3X c #C4D1A3",
"4X c #E5D5BC",
"5X c #ECCDA9",
"6X c #D9E4B4",
"7X c #C3C3C3",
"8X c #CCCCCB",
"9X c #CACBC4",
"0X c #CFD1C7",
"qX c #D5D6C8",
"wX c #D4D4D3",
"eX c #DBDBDA",
"rX c #D0CDCE",
"tX c #F8C7C9",
"yX c #E7DBD8",
"uX c #F7D7D6",
"iX c #EBCEC9",
"pX c #DDE3D0",
"aX c #E7E7DB",
"sX c #FAE8D7",
"dX c #EEF0CF",
"fX c #E8DFE0",
"gX c #EBEBEB",
"hX c #E5E4E3",
"jX c #FBE8E7",
"kX c #FEFDED",
"lX c #F9F3E8",
"zX c #F2F2F2",
"xX c #FEF3F4",
"cX c #FFFEF4",
"vX c #FFF7F8",
"bX c #FFFEFE",
/* pixels */
"e.+.O.w.w.w.w.e.w.w.w.w.w.e.e.e.u.y.y.u.r.w.y.l.k.k.u.u.u.u.k.l.u.u.u.k.k.u.u.l.l.k.u.u.u.u.u.y.y.y.y.u.u.u.y.e.l.l.l.l.k.u.k.l.l.x.x.k.u.u.e.w.O.w.e.y.e.w.e.y.u.+.+.e.e.+.+.u.k.u.k.l.x.x.l.u.k.x.l.u.e.y.y.e.u.u.k.l.x.l.l.l.N.l.u.y.y.y.e.w.",
"u.e.w.y.u.y.y.u.e.e.e.e.y.y.u.u.y.e.y.y.r.e.u.x.u.u.y.y.y.y.u.u.u.y.y.u.k.k.k.l.l.k.u.u.k.k.u.u.u.u.u.u.u.u.y.e.k.l.l.l.k.k.l.l.k.l.l.u.u.y.e.+.+.w.y.u.y.e.y.u.u.e.w.y.u.e.y.l.l.k.l.l.x.l.l.k.k.k.u.y.y.u.u.e.u.k.k.l.l.l.l.k.l.k.u.y.u.u.u.u.",
"k.u.u.k.l.k.k.k.u.u.u.u.k.k.k.l.y.y.y.y.e.e.u.l.y.y.y.y.y.y.y.y.u.e.e.u.l.l.l.l.k.k.k.k.l.l.k.u.k.l.l.l.k.u.u.u.u.u.k.k.k.k.k.l.k.l.l.k.u.u.y.w.w.y.u.u.u.y.u.u.y.u.u.u.u.k.k.l.k.l.l.l.l.k.k.u.k.k.u.y.u.l.k.u.l.l.k.k.k.k.k.k.k.u.u.u.u.k.l.l.",
"l.l.l.l.x.x.l.k.k.l.l.l.l.l.l.l.u.u.y.e.w.w.e.u.u.u.y.u.u.u.u.y.u.e.e.u.l.l.l.k.k.k.l.l.l.l.l.k.k.l.x.l.k.u.k.l.u.k.l.l.k.k.k.l.l.x.x.l.k.l.k.u.y.u.k.k.k.u.k.k.y.k.k.u.u.l.l.u.u.k.l.l.u.y.y.u.l.l.k.k.k.l.l.k.l.l.k.u.u.u.k.k.l.l.k.k.k.k.k.k.",
"l.l.l.l.l.x.l.u.x.x.l.l.l.l.l.k.u.u.y.e.w.w.e.y.u.u.y.u.u.u.u.y.u.e.e.u.l.l.k.u.k.k.l.l.l.l.l.l.k.l.l.k.u.u.l.x.l.x.x.x.l.k.k.k.l.x.x.l.l.l.l.k.u.k.k.l.k.k.l.l.u.l.l.u.u.l.l.u.y.u.u.u.y.e.e.y.k.l.x.l.u.y.u.l.l.k.u.u.u.u.k.l.l.l.l.l.k.k.k.k.",
"k.k.l.k.k.l.l.u.l.l.l.l.l.k.k.k.y.y.e.w.w.y.u.u.u.y.e.e.y.u.y.e.u.e.e.u.l.k.u.u.k.k.l.k.u.u.k.l.k.k.u.u.u.u.u.l.u.u.k.k.u.y.e.e.y.u.k.u.u.l.l.k.k.k.k.l.l.l.l.l.l.x.x.u.k.l.l.u.y.y.u.u.y.e.y.y.u.k.l.l.y.w.e.k.k.k.u.u.u.k.l.x.k.l.l.l.l.l.l.x.",
"l.l.k.u.u.l.l.u.k.k.k.k.k.k.k.k.y.u.y.e.e.u.l.k.u.e.w.w.e.y.y.e.e.e.y.u.l.k.k.l.l.l.k.u.y.y.u.l.l.u.y.e.e.y.y.y.w.e.e.e.w.w.+.+.w.e.y.e.u.k.l.k.l.k.k.k.l.l.l.l.l.l.k.u.u.k.l.l.u.y.y.u.u.u.u.u.k.k.l.l.u.e.e.k.k.k.k.k.k.l.l.l.u.k.l.l.l.l.l.x.",
"l.x.l.u.u.l.l.u.u.u.u.k.k.l.l.l.k.l.u.y.y.k.l.k.u.y.w.w.e.u.y.e.w.w.y.k.k.k.k.x.l.l.k.u.e.e.u.k.x.u.e.w.w.e.w.w.w.e.e.y.e.w.w.w.+.w.e.e.y.k.l.l.l.k.k.k.k.l.l.l.k.u.y.y.u.u.u.l.s.u.y.u.k.l.l.l.x.k.k.l.k.u.u.l.k.k.k.k.k.l.l.l.k.l.x.l.l.k.l.l.",
"k.k.u.k.l.l.k.u.u.u.u.u.u.k.l.l.l.l.l.k.k.k.k.l.l.e.O.+.w.w.e.u.O.+.e.y.u.u.u.k.k.u.y.u.u.u.k.l.u.y.e.e.u.u.u.e.e.y.u.e.y.u.k.y.e.e.y.u.l.l.k.u.u.u.u.y.y.k.k.k.k.k.u.e.e.u.u.u.y.w.e.k.x.x.l.l.l.l.u.u.u.u.k.u.u.k.k.k.k.k.k.k.u.k.l.l.u.u.l.x.",
"l.k.k.l.l.x.l.u.u.u.u.u.k.k.l.l.x.l.l.l.k.u.u.u.u.e.+.w.e.e.e.u.w.e.u.u.u.k.k.l.l.k.k.l.l.k.k.l.l.k.u.u.l.l.l.u.u.l.l.u.u.k.u.y.k.s.u.k.x.x.l.u.e.y.y.e.e.u.u.y.u.u.e.w.e.y.y.e.e.w.e.k.l.u.u.u.y.u.u.u.u.u.u.u.k.k.k.k.k.k.k.k.u.l.l.k.u.u.k.x.",
"k.k.k.k.l.l.k.u.u.u.k.l.l.l.l.l.l.l.l.k.k.k.k.k.u.u.u.u.k.u.u.k.u.u.k.k.k.k.l.l.l.l.l.x.l.k.u.k.N.l.l.l.x.x.x.l.l.x.l.k.u.k.u.u.l.l.k.k.l.l.l.u.w.e.y.e.e.y.y.e.u.u.u.e.y.u.u.y.e.r.u.l.k.y.e.e.e.y.u.u.u.y.u.u.l.k.k.k.u.k.k.l.s.k.k.u.u.u.k.x.",
"k.k.k.k.k.k.k.u.u.k.l.l.x.x.l.l.k.l.k.k.l.l.x.x.k.k.l.x.l.l.l.x.k.k.l.k.u.u.k.l.l.l.k.l.k.u.y.u.x.l.k.l.l.x.l.l.k.k.k.u.u.k.u.u.k.u.y.y.u.k.k.u.e.y.u.y.y.y.r.w.u.k.u.u.u.k.u.y.e.y.l.z.k.y.e.y.y.u.k.k.u.y.u.l.k.k.u.u.u.u.u.k.u.u.u.y.y.u.k.x.",
"k.k.k.k.k.k.k.k.k.k.l.l.x.l.l.l.l.k.k.l.l.l.x.x.k.l.l.l.k.l.l.l.k.l.l.k.u.u.k.l.x.l.k.k.u.y.u.u.l.l.k.k.l.l.l.l.k.k.u.k.u.u.u.u.u.y.e.e.y.u.u.u.e.y.u.y.y.y.e.w.e.y.y.e.e.y.e.+.+.y.l.l.k.u.y.u.k.u.u.u.e.w.y.l.u.u.y.y.e.y.u.u.e.e.e.y.y.u.k.l.",
"k.l.l.k.k.k.k.l.k.k.l.l.l.l.l.l.l.l.l.k.k.k.k.k.l.x.l.k.k.l.l.l.k.l.l.l.l.k.l.l.x.l.k.k.u.u.u.l.l.l.l.l.l.l.l.l.x.l.k.l.k.u.y.u.l.u.y.y.u.u.u.y.e.y.y.e.e.e.e.w.e.y.e.w.w.e.w.+.+.e.k.k.u.u.u.u.k.y.e.y.e.+.e.k.u.u.u.y.y.y.y.y.e.e.e.y.u.k.l.l.",
"u.k.k.u.u.u.k.l.k.k.u.u.k.k.k.k.l.l.k.u.u.u.u.u.x.x.l.u.l.x.x.u.u.u.k.l.k.k.k.l.l.u.u.k.u.u.u.l.l.l.l.l.l.l.l.l.x.l.k.l.l.u.y.u.l.k.u.u.k.l.k.u.y.u.y.e.e.y.y.e.u.u.u.y.y.u.y.w.+.y.u.u.u.k.k.u.k.e.w.y.e.w.e.k.k.k.k.u.u.u.u.u.y.y.u.u.k.l.k.k.",
"y.u.u.y.e.e.y.u.k.u.u.u.u.u.k.k.u.u.u.y.y.y.u.u.k.k.u.u.k.l.u.w.e.y.u.u.u.u.u.u.y.y.y.u.k.u.u.u.l.l.l.l.k.k.l.l.k.u.u.k.k.u.u.k.k.u.u.u.l.x.l.k.u.k.u.y.y.u.k.u.k.k.u.y.y.u.u.e.w.u.k.u.k.l.l.k.k.e.w.u.u.y.y.k.l.l.l.l.l.k.k.u.u.u.k.l.l.l.k.u.",
"+.e.y.y.e.w.y.u.u.u.u.u.u.u.u.u.e.y.e.e.y.u.u.r.k.u.y.y.e.e.y.y.e.u.u.u.y.e.e.y.u.e.w.w.e.e.e.e.u.k.u.e.e.u.u.e.w.w.w.w.+.w.u.x.w.y.u.l.l.l.l.l.l.u.l.x.k.k.l.k.z.x.l.l.l.l.l.l.l.l.k.k.l.l.l.l.u.k.l.l.l.k.l.l.l.l.k.k.l.l.l.k.u.k.l.x.x.l.u.u.",
"+.e.u.u.u.y.u.u.y.y.y.u.u.y.y.y.u.u.u.y.u.k.u.y.k.u.u.y.y.y.u.u.u.u.u.y.e.w.e.e.u.e.w.w.e.e.y.e.u.u.y.w.e.u.y.w.w.e.e.e.e.y.u.l.y.u.l.x.l.l.l.l.x.u.l.x.u.u.k.k.l.l.l.s.s.l.s.l.l.k.k.k.l.l.l.l.u.k.l.l.l.k.l.l.l.k.k.k.l.l.l.k.k.k.l.x.l.l.u.u.",
"w.e.y.u.u.u.u.y.e.e.y.y.y.y.e.e.u.u.u.y.y.u.u.e.l.l.k.u.u.u.u.u.k.k.u.y.e.w.w.e.y.e.e.e.e.y.y.y.y.e.w.w.e.y.e.w.w.w.e.y.u.u.u.y.u.k.l.l.l.k.k.k.x.u.k.l.y.e.u.u.s.u.u.u.u.u.u.u.u.u.u.u.k.k.k.u.u.u.k.k.k.u.u.k.k.k.k.l.l.l.l.k.k.l.l.l.k.k.u.u.",
"e.e.e.y.u.u.y.e.e.e.e.y.y.e.e.e.y.y.y.e.e.y.y.e.l.l.k.k.k.k.k.k.l.k.u.y.e.e.y.y.y.e.e.e.e.e.y.y.y.e.+.w.e.u.r.w.w.w.w.e.u.u.y.w.u.k.k.l.u.u.u.u.N.k.k.k.w.w.y.u.u.u.r.u.u.r.r.r.y.y.e.y.y.u.y.e.e.y.u.u.u.y.y.y.u.u.k.l.l.l.k.u.k.l.k.k.k.u.u.u.",
"u.y.e.e.u.u.u.u.e.y.y.y.y.y.y.e.w.y.y.e.e.y.y.e.l.l.l.l.l.l.l.l.l.l.u.u.u.u.u.k.e.e.e.e.e.y.y.u.u.e.w.e.u.u.y.e.e.w.+.w.u.u.y.e.u.k.k.u.u.y.y.y.N.k.k.k.w.+.y.u.e.e.r.r.r.r.e.r.y.y.e.y.y.y.y.e.y.y.y.u.u.u.y.e.y.u.u.k.k.u.u.u.l.k.k.k.u.u.u.u.",
"l.k.u.u.k.l.l.l.u.u.u.u.u.u.u.u.e.u.u.y.y.u.u.u.l.l.l.l.l.l.l.l.l.k.k.k.k.l.l.l.e.y.u.u.u.u.u.u.u.y.y.u.u.u.y.y.u.y.e.y.u.k.u.y.l.l.l.k.u.u.u.u.x.k.l.k.w.+.y.u.r.u.u.u.u.u.u.u.u.u.u.u.k.k.u.y.u.u.u.u.k.k.u.u.y.u.u.k.u.u.u.u.k.k.k.k.k.k.k.k.",
"l.l.k.k.l.l.l.l.u.k.k.k.k.k.k.u.u.k.l.s.u.u.k.k.k.k.k.l.l.k.k.k.l.k.k.k.l.l.l.l.u.u.k.k.k.u.k.l.k.u.k.l.k.y.y.u.k.u.u.u.k.l.k.s.l.l.l.k.k.k.k.l.x.k.l.l.e.w.u.k.u.s.s.l.l.l.l.l.k.k.k.l.l.l.k.u.k.k.k.k.l.l.u.u.u.k.k.k.u.u.u.u.k.k.k.l.l.l.k.k.",
"k.k.l.l.l.l.l.k.k.k.l.l.l.l.k.k.u.l.l.k.u.u.k.u.k.k.k.k.k.k.k.k.l.k.k.k.l.l.l.k.u.k.l.l.l.l.l.x.k.k.l.x.k.y.y.k.k.u.k.l.l.l.k.s.k.l.k.k.u.s.k.l.l.u.l.l.e.e.j.l.l.l.x.z.N.z.x.x.k.k.k.l.l.l.u.u.k.k.u.k.l.l.u.y.l.l.l.k.u.u.u.k.u.k.k.l.l.l.l.l.",
"u.x.N.l.k.k.l.l.k.k.k.k.l.l.l.l.l.l.l.l.l.l.l.l.k.l.l.l.l.l.l.l.k.N.l.u.l.l.u.e.k.l.l.l.l.l.l.l.k.l.x.l.l.k.l.l.k.k.k.k.l.l.u.y.k.u.u.u.y.y.t.l.k.l.l.l.k.u.k.l.l.l.l.l.l.l.l.l.l.k.k.l.k.u.k.l.l.l.x.l.k.k.k.k.l.l.l.l.k.k.k.k.k.k.l.l.l.l.l.l.",
"u.l.x.l.l.l.k.u.y.y.u.u.u.k.k.k.u.k.k.k.k.k.k.k.k.l.l.l.l.l.k.k.k.x.u.y.l.l.y.w.u.u.k.k.k.l.k.k.u.u.k.k.k.k.k.l.k.k.k.k.l.k.u.u.k.u.u.u.y.y.t.l.k.l.l.l.k.k.l.l.l.l.k.k.k.k.k.k.l.l.l.l.l.u.u.l.l.l.l.l.l.k.l.l.l.l.l.l.l.l.k.k.k.k.l.l.l.l.l.k.",
"u.k.l.l.l.x.k.e.e.e.e.y.u.u.s.k.u.u.u.u.u.u.u.u.k.l.l.l.l.k.k.u.u.k.y.e.l.k.w.+.e.e.u.u.k.u.u.y.u.u.k.k.u.k.l.l.k.k.l.k.k.k.k.k.l.k.u.u.u.u.u.x.l.k.k.k.l.l.l.k.l.l.k.u.k.k.k.l.l.l.l.x.l.u.u.k.k.l.l.l.l.l.l.l.u.k.l.l.l.l.l.k.u.u.u.u.u.u.u.u.",
"e.u.k.l.l.l.k.y.y.y.y.u.u.s.k.k.u.u.u.u.u.u.u.u.k.k.u.u.u.u.u.u.u.u.e.e.l.k.w.+.w.w.y.u.k.u.y.y.k.k.k.k.k.k.l.l.s.k.l.k.u.u.k.l.x.l.k.k.k.u.k.x.l.k.u.k.l.l.l.k.x.l.k.u.u.u.l.l.l.l.l.x.l.u.y.u.u.k.l.l.l.l.l.l.y.u.k.l.l.l.k.k.y.y.y.y.y.r.e.e.",
"+.y.l.l.l.l.l.k.u.u.u.u.u.u.u.u.u.u.u.u.u.u.y.y.k.u.y.e.w.e.y.u.u.u.e.e.l.u.w.+.e.w.y.k.l.u.y.u.l.l.l.s.u.u.u.u.u.k.l.k.u.u.l.x.x.k.u.k.k.u.u.l.k.u.u.k.l.l.k.u.x.l.u.u.u.u.k.l.l.k.l.l.u.y.y.u.u.u.k.l.k.k.k.k.y.u.u.l.l.l.k.u.y.y.y.y.r.e.e.e.",
"O.y.l.l.k.k.k.k.u.u.u.u.y.y.y.y.y.u.u.u.y.y.e.e.u.u.e.w.w.e.y.u.u.u.e.e.k.y.w.e.y.e.y.l.l.u.u.k.x.l.i.i.p.c.c.c.b.v.m.m.m.m.m.m.m.b.c.i.i.u.u.u.u.u.u.k.k.k.k.u.k.u.u.y.y.u.u.l.l.k.k.k.u.e.e.u.y.u.k.k.k.u.u.u.y.u.u.k.k.k.k.u.y.y.y.u.y.y.y.y.",
"w.y.k.l.k.l.k.u.y.y.y.y.y.y.y.y.u.u.u.u.u.y.y.e.u.u.y.y.y.y.u.u.y.u.e.e.u.w.+.y.u.e.y.l.l.u.u.x.x.n.v.&.*.XXI.I.oXoX;X;X;X;XoXoXI.I.XX*.&.b.p.u.e.y.u.u.u.u.u.u.k.u.u.u.u.u.l.l.l.k.u.u.y.r.y.k.u.u.l.l.k.u.u.u.u.u.k.k.k.k.k.k.e.y.y.y.y.y.y.y.",
"y.u.k.k.l.l.k.y.y.y.y.u.u.u.u.u.k.k.k.k.u.u.u.y.u.u.u.k.k.u.u.u.y.y.e.e.y.+.+.u.u.e.y.l.x.u.u.N.B.v.XX3X<XqX<X>X>X>XW.>X>X9X0X0X0XqX1X<X@XXX&.b.w.y.u.u.u.u.u.u.l.k.k.k.k.l.x.x.x.l.u.u.y.e.u.l.u.k.l.l.l.u.u.u.k.k.k.k.k.l.l.l.w.w.e.e.y.r.e.e.",
"y.u.l.l.l.l.l.l.k.j.k.l.l.l.k.u.u.k.l.l.l.k.l.l.l.u.u.l.N.l.u.u.u.y.w.+.e.k.k.u.y.u.l.l.l.l.l.B.*.OX1X>XqX9XY.R.Q.Q.T.W.8XwXrX7X>X0XeXqX>X1X@X*.i.u.e.e.e.e.u.u.l.x.x.l.l.k.k.k.x.u.e.e.e.e.y.u.u.u.u.u.k.l.l.k.l.l.k.k.l.l.k.u.e.e.e.u.u.u.u.u.",
"u.u.k.l.l.l.l.l.k.k.k.l.l.l.k.u.l.l.x.x.l.l.l.x.l.u.u.l.x.l.k.k.k.u.u.y.u.l.l.u.l.l.l.l.k.k.k.m.%.U.wXhXgX8XE.W.W.W.W.W.Q.Y.T.E.E.Y.9XgXhXqXU.=.c.y.e.e.e.y.u.u.k.l.l.l.l.l.l.l.k.u.e.y.u.y.y.u.u.k.l.k.k.l.l.k.l.k.k.k.l.l.k.u.u.u.u.u.u.s.s.s.",
"u.u.k.l.l.l.k.k.l.l.k.l.l.l.l.k.l.l.x.x.l.l.l.l.k.u.u.l.l.l.l.x.k.k.k.s.l.x.x.u.x.k.u.u.u.u.u.m.U.>X0X8XwXeX7XQ.T.E.Q.E.T.Y.Y.E.R.L.W.wX7X0X2X=.c.e.e.e.e.y.u.u.k.k.l.l.l.l.k.k.u.e.e.y.u.u.y.u.y.k.x.l.k.l.l.k.l.k.k.k.k.k.k.u.s.l.l.l.l.l.l.l.",
"l.k.k.l.l.l.k.k.x.l.k.k.l.l.l.l.l.l.l.l.k.u.k.l.k.u.u.u.u.u.l.x.k.k.s.u.k.l.l.u.u.y.e.y.u.l.B.v.pXaXwX8X8XwX8X8X9X9X8X8X8X9XQ.Q.Q.7XwX8X8XwXaX1X&.i.u.u.u.u.u.u.l.l.l.l.k.k.u.y.y.e.y.u.k.u.e.e.e.k.x.l.k.k.k.k.l.l.l.k.k.k.k.k.l.l.l.l.l.l.l.l.",
"x.k.k.l.x.k.k.l.x.l.k.u.k.l.l.l.k.l.l.k.u.u.u.k.u.u.u.y.y.u.k.l.k.k.u.y.y.u.u.u.w.w.w.r.k.n.m.XXkXbXvXgXeXhXeXrX8X8X8X8X8X8XwX8X8XeXhXeXgXvXbXkXOXm.n.k.k.k.k.k.l.l.k.k.k.k.u.e.u.y.y.k.k.u.e.w.e.k.x.l.u.u.u.u.k.k.k.k.u.u.k.k.l.l.l.l.l.l.l.l.",
"l.k.k.x.l.u.u.x.l.k.u.u.k.k.k.k.l.l.l.k.u.u.k.l.u.u.y.e.e.u.u.k.k.k.u.e.e.u.u.u.w.w.w.r.u.c.*.dXcXbXbXbXbXbXbXvXzXzXgXgXgXgXzXzXvXbXbXbXbXbXbXcXdXV.m.l.l.l.k.k.u.u.u.u.l.l.u.y.u.u.u.k.k.u.e.e.e.u.l.k.u.u.u.u.u.u.u.u.y.y.u.u.l.l.l.l.l.l.l.l.",
"k.u.k.x.k.e.u.x.k.u.u.u.u.k.u.u.k.k.k.u.u.u.k.l.k.k.y.e.e.u.u.y.u.u.u.e.e.e.y.e.w.w.e.w.e.@.OXkXbXbXbXbXbXbXbXbXbXbXbXbXbXbXbXbXbXbXbXbXbXbXbXbXcX3Xv.f.l.l.k.k.y.y.y.u.l.l.u.y.k.u.y.u.u.u.y.u.u.k.k.u.u.k.k.u.u.u.u.u.y.y.u.u.l.l.l.l.l.l.l.l.",
"u.y.k.l.u.w.y.N.u.u.u.u.u.u.u.u.u.y.u.y.y.y.u.k.l.k.y.e.y.k.k.e.e.y.y.e.w.e.w.w.w.w.e.w.@.%.dXbXbXbXbXbXbXbXbXbXbXbXbXbXbXbXbXbXbXbXbXbXbXbXbXbXbXdX*.b.i.k.k.k.u.y.y.u.l.l.u.e.l.u.y.u.u.u.u.k.k.k.k.u.u.l.k.u.k.l.l.u.u.u.k.l.l.l.l.l.l.l.x.x.",
"k.e.u.u.e.e.y.e.y.u.k.u.e.e.y.e.e.e.w.+.+.w.u.k.k.u.u.u.u.u.e.w.e.w.w.e.y.u.y.e.e.y.u.p.@.@XkXbXbXbXbXbXbXbXbXbXbXbXbXbXbXbXbXbXbXbXbXbXbXbXbXbXbXkX6Xv.f.k.l.l.u.u.u.k.k.u.u.y.l.u.u.u.u.u.u.u.k.l.k.u.u.k.x.x.x.l.l.k.l.l.l.k.s.l.x.l.l.l.k.u.",
"k.e.e.u.w.w.y.e.u.k.l.u.u.u.u.y.y.y.e.w.w.w.e.u.l.k.u.u.u.u.e.w.y.y.y.u.u.u.u.y.u.u.k.i.v.=.dXcXcXbXbXbXbXbXbXbXbXbXbXbXbXbXbXbXbXbXbXbXbXbXbXcXcXdXXXC.n.l.l.l.k.l.l.l.k.u.u.k.l.k.u.u.u.k.k.u.k.k.u.y.u.l.l.l.x.l.l.k.l.l.l.k.s.l.l.l.k.l.k.u.",
"k.e.e.u.w.w.y.y.u.k.k.u.u.k.u.y.y.y.y.y.e.e.y.u.l.l.k.k.k.u.u.e.u.u.u.k.l.l.l.k.j.l.l.B.M.-.#X).4XsXlXkXcXcXbXbXbXbXbXbXbXbXbXbXbXbXcXcXkXlXsX4X:X#X4.M.f.l.l.l.l.l.x.l.k.u.k.l.u.u.y.u.u.u.u.u.l.k.u.y.u.l.l.k.x.l.l.l.l.l.l.k.s.l.l.k.k.l.l.u.",
"l.y.u.k.y.y.k.k.u.u.u.u.u.k.u.e.u.u.u.u.k.k.l.l.k.k.l.l.l.l.l.l.l.l.l.l.l.x.l.l.k.l.l.f.M.4.%X*X(.)._.:X4X,X,XqXiXuXuXuXuXuXyXiXqX,X,X4X:X_.).).*X%XG.M.f.l.l.l.l.l.l.k.k.k.u.u.e.e.y.y.u.u.y.e.k.l.k.y.u.k.l.k.l.k.k.l.l.l.k.l.l.l.l.k.k.l.l.k.",
"x.u.u.l.u.u.l.l.u.k.u.u.u.l.u.y.u.k.k.l.l.x.x.x.k.l.x.l.l.l.x.x.l.l.l.l.k.l.l.l.l.l.l.f.M.4.%X$X*X*X*X*X*X*X(.(.(._.[ _ _ | ^.(.(.(.(.*X*X*X*X*X$X%XG.M.f.l.l.l.x.k.u.u.l.l.k.y.w.e.y.u.u.u.e.e.u.l.l.u.y.u.l.l.k.u.k.l.l.k.u.l.l.x.l.k.k.l.l.l.",
"k.y.u.l.u.u.l.k.k.l.k.u.u.k.l.u.l.l.l.l.l.l.l.l.l.x.x.x.k.u.k.x.k.k.k.k.u.u.k.l.l.l.l.f.D.4.&X&X$X$X$X$X$X$X$X=X`.[ N n n l ] '.=X$X$X$X$X$X$X$X$X%XF.M.f.l.l.x.l.k.u.k.x.x.k.y.e.u.k.k.k.u.u.y.u.k.k.u.y.u.l.l.u.u.u.l.l.u.u.l.x.x.l.u.u.k.l.k.",
"u.e.u.l.u.u.k.u.k.l.k.y.y.u.l.l.k.u.u.u.u.k.k.u.k.l.x.l.u.y.u.l.u.k.u.u.u.u.u.k.k.k.u.d.4.^ ,.'.-X&X$X$X$X$X$X-X,.l m H H m l ..-X$X$X$X$X$X$X$X=X$X0.4.d.k.k.l.y.u.k.l.l.k.u.u.u.k.k.u.u.u.u.k.u.u.e.e.y.l.l.k.u.y.u.l.l.y.y.l.l.l.k.y.y.u.u.u.",
"u.e.u.x.k.k.l.u.u.k.u.e.w.y.k.l.y.e.w.e.y.u.u.u.y.u.l.k.y.e.u.x.u.u.k.u.y.y.u.k.u.u.y.a.3.R d ! ..1.`.-X&X$X$X-X..x H J J H x ! `.$X$X$X&X-X-X`.1.[ Q 4.a.y.u.u.+.y.l.l.u.y.y.u.l.l.u.y.e.e.u.l.k.e.+.+.u.x.l.y.y.e.u.l.l.e.y.l.l.l.u.e.e.y.y.y.",
"k.l.l.l.l.l.k.u.k.u.u.k.l.k.y.e.u.y.y.y.y.e.e.w.u.k.k.u.y.y.u.l.u.u.u.y.e.e.e.y.w.e.e.a.3.W B M x B  .,.`.-X=X-X..l H J J H x  .-X$X&X-X`.1...! x l U 5.d.y.y.e.O.u.x.l.y.y.u.u.y.u.u.e.w.e.y.y.+.+.+.e.k.l.k.u.e.w.w.y.y.y.u.k.u.u.k.k.k.u.u.u.",
"u.k.l.l.l.l.k.u.u.u.u.u.u.u.e.e.u.y.y.u.u.y.y.y.u.k.l.k.u.u.k.l.k.k.u.y.e.w.w.e.e.e.e.a.3.E c J K m x N ! ..1.`./.S x K K c N 2.-X`.q...] N x M H c u 5.#.e.e.w.e.k.l.k.y.y.y.e.e.y.u.e.w.e.e.e.w.w.w.y.k.l.k.u.y.e.e.y.u.y.u.k.y.u.u.u.k.u.u.u.",
"y.u.k.l.l.l.k.u.u.u.u.u.e.e.e.e.u.u.u.u.y.y.e.e.u.k.l.x.l.k.k.l.l.l.k.u.y.e.y.y.u.u.y.a.3.E c H j Z K K M x B  .<.<.] S N ! <.'.<. .F x c L H J J c u >.#.e.w.w.u.u.u.u.u.u.u.e.w.e.y.e.e.y.y.y.e.e.e.u.l.l.k.u.u.y.y.u.u.y.u.k.y.e.e.y.u.k.u.u.",
"e.y.u.k.l.k.u.u.u.k.u.y.e.w.w.e.u.u.u.u.e.e.w.w.u.k.l.l.l.l.l.l.l.l.l.k.u.k.k.l.u.u.u.d.5.E c v 1 1 h A H J L z N ! ..o.2.<...! N x M J H K P K J c u 6.d.u.y.y.u.y.w.e.u.k.k.y.+.w.y.y.u.k.k.u.e.e.y.u.l.l.k.u.u.u.u.u.u.u.u.k.u.e.w.e.u.k.u.e.",
"w.e.u.u.k.u.u.y.k.k.k.u.e.w.e.y.e.y.u.y.e.w.w.e.k.k.k.k.k.k.l.l.l.l.l.k.k.k.l.x.u.u.k.g.8.E B j # . # 3 A J J J L M M P  .m z m K K J H A h 2 s A c u 7.A.k.u.u.k.e.+.w.u.k.u.y.w.e.y.y.u.u.u.e.e.e.y.u.l.l.l.k.k.u.u.k.k.u.u.k.u.y.e.e.u.u.u.e.",
"y.y.u.u.u.u.u.y.l.l.k.u.y.y.y.u.+.e.y.y.y.e.u.u.k.k.k.k.k.k.k.k.l.l.k.u.u.u.u.k.u.k.l.S.8.E B s +   . $ i A H J J J J H L H J K n h m A s , + > h B u 7.A.k.k.u.l.u.e.e.y.y.e.e.y.u.u.y.y.y.e.+.e.e.u.k.l.l.l.l.k.k.k.l.l.k.k.l.k.u.u.u.u.u.u.u.",
"k.k.k.u.u.u.u.y.l.l.k.u.u.u.u.u.w.y.u.u.u.u.k.l.k.l.l.l.l.k.k.u.u.k.u.u.y.y.u.u.l.l.l.S.8.Y B s +     . # s m J J J J J J J H j , # 2 g 3 + @ O i N t 7.A.k.u.u.l.u.u.u.y.e.e.u.u.u.u.y.y.u.e.+.y.u.k.l.l.l.l.l.l.k.k.x.x.l.l.l.l.k.k.u.k.k.l.l.",
"x.l.l.k.u.u.u.u.l.k.s.k.k.k.u.y.u.k.l.l.k.u.k.l.k.l.l.x.x.l.u.y.u.u.u.u.y.u.k.l.l.l.l.g.8.Y S ( O ; r & . < ( Z Z Z Z n Z Z D 2 O . + ) 4 & [.q _ S t 7.A.k.k.u.k.u.u.k.u.e.y.l.k.k.u.u.u.l.k.y.u.k.l.x.x.l.l.l.k.k.k.x.x.l.l.x.k.k.l.k.l.l.x.N.",
"x.x.x.l.k.u.k.l.l.l.k.k.k.k.k.k.l.l.k.l.l.l.k.k.k.k.l.N.x.u.e.y.e.e.y.u.u.u.k.k.u.l.l.d.:.Y S _ . e bXrX% @ [.|. X{.].].].{. X5 4 R.@ !.0 8 bXjX}.N t 6.d.y.u.u.u.y.u.u.e.w.u.N.l.k.k.l.l.k.k.l.k.u.k.x.l.u.u.u.k.k.k.x.x.l.l.l.l.l.l.l.l.l.l.l.",
"k.l.l.l.k.k.l.x.l.l.l.l.k.k.k.l.l.k.u.u.k.l.l.l.k.k.l.x.k.y.e.y.e.y.u.u.u.u.u.l.k.k.k.a.:.Y S g . K.bXbXL.  Y.vXvXvXvXvXvXvXvX9 0 bXW.hX8 9 bXvX}.d y 5.#.e.e.e.e.w.e.y.w.+.y.l.l.k.k.l.l.k.k.l.k.u.u.k.k.y.e.e.u.k.l.l.k.u.k.l.l.l.l.l.l.l.l.l.",
"k.l.l.l.l.l.l.l.k.k.l.l.l.l.l.k.k.u.u.u.u.l.l.x.u.u.l.l.u.e.e.y.y.u.u.u.y.y.u.l.l.k.u.#.:.Y S f . L.bXbXzX: 0 bXbXbXbXbXbXbXxX; e bXbXbX7 w bXvX}.d U 5.a.e.e.e.+.w.e.y.e.w.y.k.l.k.k.l.l.k.k.l.k.u.u.u.y.e.w.e.u.k.l.u.y.e.u.k.l.l.l.l.l.l.l.l.",
"l.l.l.l.l.k.u.u.u.u.k.l.l.l.k.u.u.u.y.u.u.l.l.l.y.u.k.u.e.w.e.u.y.u.k.u.e.e.u.l.k.k.u.#.:.Y S f . L.bXbXbXw 7 vXbXbXbXvXbXbXgX- L.bXbXzX; J.bXvX}.d U 7.g.u.u.y.w.e.u.u.u.u.u.l.l.l.k.l.l.k.l.l.k.u.y.u.y.e.e.y.u.l.l.u.w.w.y.k.l.l.l.l.l.l.l.l.",
"u.u.u.u.u.u.y.e.u.u.u.k.l.l.k.u.y.y.u.u.l.l.k.k.e.y.u.y.e.e.u.k.y.k.l.k.y.e.u.l.e.u.u.#.:.Y S f . Y.bXbXbXL.; vXwX8XbXJ.K.bXeX* E.bXbXgX= L.gXP.].d U 9.S.l.j.u.e.u.k.k.k.k.l.l.l.l.k.k.k.k.l.l.k.u.u.u.u.u.u.l.u.l.l.y.w.w.u.u.l.l.l.l.l.l.l.l.",
"w.w.w.e.y.y.y.y.y.y.y.u.k.l.k.u.u.u.u.k.l.l.u.u.e.y.y.e.e.u.k.k.y.u.l.k.u.u.u.l.w.y.u.#.:.T S f O T.bXbXbXT.; zX8 7 vXw = zXwX* 9XbXbXgX- w ; 4 /.~ y 9.S.x.l.j.y.k.l.k.u.l.l.k.k.l.k.u.u.k.l.k.l.k.u.k.l.k.l.x.y.k.k.e.w.e.u.u.l.l.l.l.l.l.x.l.",
"w.w.+.w.e.u.u.u.u.y.e.u.k.l.l.k.k.k.k.k.l.k.u.y.y.u.u.e.u.k.k.u.y.u.k.l.k.k.k.k.e.t.u.a.3.T S f . T.bXbXbXT.7 gX; 7 bXL.* gX7X* 8XbXbXwXo   9 iX}.d U 6.A.l.l.k.u.l.l.u.u.k.k.u.u.k.k.y.y.k.k.u.l.k.k.l.l.l.l.x.w.u.u.e.w.u.k.u.l.l.l.l.l.l.x.x.",
"y.y.e.e.y.u.u.u.u.y.e.u.k.l.l.l.x.l.k.u.k.u.u.u.u.k.u.y.u.l.k.y.y.u.k.l.l.l.k.u.j.k.k.d.8.T S f . Y.bXbXbXY.8 vX8 7 bXY.* hXW.- eXbX7X;   J.vXvX}.d U 6.A.l.l.l.l.x.l.u.u.u.k.u.u.k.u.y.y.u.k.u.l.k.k.l.l.k.k.l.+.y.y.w.w.u.k.y.l.l.l.l.l.l.x.l.",
"e.u.u.k.u.y.e.e.k.l.l.u.y.y.u.l.k.l.l.l.k.k.u.u.l.k.u.u.l.l.l.k.l.u.u.l.x.l.j.l.x.k.u.S.9.T S g . L.bXbXbXe 9 bXw : vXJ.* gXW.= 8XK.o ; o 9XbXvX}.d t 7.g.u.k.x.k.k.k.k.u.y.y.y.k.u.u.y.e.e.u.x.N.u.u.l.l.l.l.u.+.y.y.y.l.k.u.k.l.l.l.l.l.l.l.l.",
"y.u.k.k.u.u.y.y.k.k.l.u.y.y.k.l.u.u.k.l.l.l.l.l.k.k.k.k.k.k.k.k.l.s.k.l.l.u.u.l.l.k.k.S.F.T S / . L.bXbXbX9 J.bXY.  w - 8 bXQ.o = o L.8X* 7XbXvX}.S t 7.g.y.y.u.u.k.l.l.u.u.u.u.u.e.e.e.e.w.y.l.x.u.u.k.u.u.k.u.w.y.y.y.k.u.y.k.l.l.l.l.l.l.l.l.",
"u.k.l.l.k.u.u.u.k.k.l.k.u.u.k.x.u.k.k.l.l.l.l.l.u.l.l.l.u.u.k.l.l.k.k.k.u.e.y.k.u.u.u.M.9.T S _ . K.bXbXgX; 7XbXhX-     Q.zXe   7 8XbXeX* 7XbXvX}.d U 7.d.e.+.w.e.u.l.l.u.u.u.u.e.w.w.e.e.e.y.k.x.u.u.k.e.e.u.u.e.u.e.e.u.y.e.u.l.l.l.l.l.l.l.l.",
"u.k.l.l.l.k.k.k.k.k.k.k.u.u.l.x.x.l.l.l.l.l.k.k.k.l.l.l.k.k.k.l.u.u.u.y.w.+.w.y.u.y.e.a.8.T S ' O e bXbXL.; gXbXbX8XL.7X9X8   * eXbXbXwX* W.bXvX}.S t 6.h.w.+.+.e.u.l.l.u.y.y.u.e.e.e.y.u.u.u.l.x.u.u.k.y.e.u.y.e.y.w.+.e.e.e.u.l.l.l.l.l.l.l.l.",
"k.k.k.k.l.l.k.k.k.k.k.k.u.k.k.l.N.l.l.k.k.k.u.u.k.u.u.k.l.l.k.u.u.k.k.y.w.+.e.y.u.e.w.$.:.Y S X.@ w bXhX= K.bXbXbXbXvXL.o 8 e - eXbXbXwX* W.bXxX}.N t 5.#.w.+.w.y.k.l.l.u.y.u.u.y.e.y.u.u.u.k.l.x.y.u.k.u.u.y.w.w.e.+.+.e.e.e.u.l.l.l.l.l.l.l.l.",
"k.u.k.k.l.l.k.k.l.k.k.k.u.u.k.k.l.k.u.u.k.k.k.u.u.y.e.y.u.k.u.e.k.l.l.u.y.y.u.u.k.e.w.$.:.Y N  .@ 9 E.4 & uXvXvXvXyX8 X { xX!.: yXvXvXyX% P.uX XX.N t 5.a.e.e.y.l.l.l.l.k.k.k.k.y.y.u.u.u.y.u.l.k.e.e.k.u.u.e.+.w.e.w.+.e.y.e.k.l.l.l.l.l.l.l.l.",
"l.k.k.k.l.l.l.k.l.k.k.k.u.u.u.u.u.u.e.y.u.k.k.u.e.e.y.y.u.u.u.y.k.l.l.k.k.l.l.k.l.u.e.#.3.E B V + X X . } tXtXuXuX^.5 .XjXjXP.& [.P.{ H.$ ) ` Z b x u 6.d.u.y.u.l.k.u.u.k.l.l.k.u.u.k.k.y.w.y.l.k.e.y.u.y.y.y.w.e.u.e.e.u.u.y.k.l.l.l.l.l.l.l.l.",
"l.k.k.k.l.x.l.l.l.l.k.u.u.u.u.y.u.y.e.e.y.u.u.y.w.y.u.k.u.u.u.k.u.l.l.k.k.x.l.u.x.k.u.d.8.E c k > O $ 3 D F ` ` ' ' ' | ) ) 6 $ ) < $ < > s b J J c u 9.S.u.u.k.k.u.e.y.u.k.k.k.u.l.x.l.y.w.u.x.k.y.u.k.y.e.u.u.u.k.u.y.k.u.y.k.l.l.l.l.l.l.l.l.",
"y.e.y.k.l.u.u.k.k.l.k.u.u.l.k.u.y.u.l.l.k.k.k.u.u.s.u.u.y.u.k.x.k.k.l.k.u.u.l.x.l.l.l.S.F.W c b 2 2 s Z m H b b b b b V > < < > g 2 + + 2 Z H J J c u 9.A.k.k.k.u.y.e.y.k.l.l.k.k.l.x.l.u.y.u.l.e.u.k.l.k.u.u.u.e.y.y.r.e.y.u.l.u.u.u.u.u.l.l.l.",
"y.e.u.k.k.u.y.y.k.l.k.u.u.l.k.u.y.k.k.k.u.k.u.y.u.u.k.u.u.y.u.u.u.k.l.l.l.l.l.l.k.k.k.g.8.E c H A A H J J J J J J J J A , # > 2 Z Z 2 1 j K J J J c u 9.g.k.k.l.l.k.u.u.l.l.l.l.k.l.x.k.u.y.u.l.e.y.k.k.k.u.y.y.y.y.y.y.e.y.u.l.u.u.u.u.s.s.l.l.",
"y.y.u.l.k.y.w.w.u.k.u.u.u.k.u.y.u.k.k.u.u.u.u.y.y.u.u.u.u.y.e.w.u.k.l.l.l.u.u.u.y.u.u.d.5.E c J J H J J J J J J J J J P i , , s P H A A H J J J J c u 7.g.j.k.l.x.l.l.l.l.l.l.l.l.l.l.k.u.u.k.l.y.u.k.k.k.u.y.y.u.u.u.u.y.u.u.l.u.u.s.l.l.s.s.u.",
"u.u.u.l.l.u.e.e.u.u.u.y.u.k.u.y.k.k.u.y.y.u.u.y.y.u.u.u.u.y.e.e.l.l.l.j.u.e.+.+.e.e.y.a.3.E c J J J J J J J J J J J J H Z j j A H J J J J J J J J c u 7.A.k.k.k.l.l.l.l.k.k.l.l.l.l.l.k.k.k.l.l.u.k.k.l.k.k.u.u.l.k.k.u.u.k.k.l.u.s.l.l.l.s.u.u.",
"l.k.k.l.l.u.u.k.k.k.k.u.k.l.l.u.l.l.u.y.y.u.k.y.u.u.u.u.u.u.u.u.l.l.u.y.e.w.+.+.w.e.y.a.3.E c J H L H H J J J J J J J J H H H H J J J J H H H H J c u 7.S.k.u.y.y.u.u.k.k.k.k.l.l.l.k.k.k.l.l.l.l.l.l.l.l.l.k.k.x.l.l.l.l.l.l.l.s.l.x.x.l.l.u.u.",
"x.l.l.l.l.k.k.l.l.l.l.k.l.x.x.l.l.l.u.y.u.k.k.u.k.u.u.y.u.k.l.l.l.k.u.u.u.u.y.y.e.y.u.d.3.E c J b p z b J J J J H H J J J J H H J J J J b p p b J c u 6.g.u.y.e.e.e.y.u.u.k.k.k.l.k.u.u.k.l.l.l.l.k.k.k.l.l.l.l.x.l.l.l.l.l.l.l.l.l.x.x.l.l.s.u.",
"l.k.k.l.l.k.u.k.k.l.k.k.l.x.x.k.l.k.u.u.k.l.l.u.l.k.u.y.u.l.l.l.l.k.u.k.k.l.k.u.u.k.k.g.5.E c J n h j j H J J b j z L J J H z j b J J H j h h z H c u >.a.y.r.e.y.e.e.u.k.l.k.u.k.u.e.y.u.l.k.u.u.u.u.u.k.l.l.k.l.l.k.k.l.l.l.l.l.l.l.l.l.l.l.l.",
"k.k.k.l.l.u.y.u.u.u.u.u.u.k.k.u.l.k.u.u.l.x.l.u.l.k.u.u.k.l.l.l.k.k.k.l.l.l.u.y.l.l.l.g.5.E c J v h h j H J H v h n L J J M p j n H J H n h h n H c u :.#.e.r.e.u.y.e.u.l.x.l.u.u.e.w.e.u.k.u.y.y.e.e.e.u.u.k.u.k.k.u.u.l.l.l.k.l.l.l.l.l.l.l.l.",
"l.k.k.k.k.u.y.e.y.e.w.e.y.u.y.e.u.k.l.x.l.l.k.k.k.l.l.k.k.l.l.k.k.l.l.l.l.l.l.k.l.l.k.g.8.E c H z h h j H J H z h j L J J L h h v H J J n h j a H c t 5.#.w.e.u.k.y.e.u.x.l.u.e.e.w.+.w.u.u.y.w.y.e.w.e.u.l.l.l.l.k.k.k.l.l.l.l.l.l.l.x.l.u.k.l.",
"k.k.k.k.u.e.e.e.e.e.e.e.e.e.e.y.l.l.l.l.k.k.k.k.k.l.l.k.k.l.l.k.l.l.l.l.l.l.l.k.s.s.k.g.D.Q N n C h h n H H H a j v L J J L p j v H J H b j Z k n N R 4.a.e.e.u.u.e.e.u.k.u.e.w.w.+.+.w.y.y.e.w.y.e.e.e.u.k.l.l.k.k.k.k.k.l.l.l.l.k.l.l.l.u.u.l.",
"u.k.l.k.y.e.w.e.y.u.u.u.e.e.y.u.k.k.k.u.u.u.k.l.k.l.l.k.k.l.l.k.u.u.k.k.k.k.k.u.u.u.u.s.M.;.[ _ g V k n H L H b p a L J J H z p a b H L b k V g _ [ ;.D.f.y.u.k.u.y.e.u.u.e.w.w.+.w.w.e.e.e.e.e.e.y.y.u.u.u.l.x.u.u.u.u.u.k.k.l.x.k.k.l.l.k.k.k.",
"u.u.u.u.u.e.e.w.u.u.u.y.e.e.y.u.u.k.k.u.y.y.u.l.u.u.u.u.u.k.k.u.r.r.y.y.y.y.y.y.u.u.y.u.p.&._.5X].~.' ` ( F D V V V k k k C V V V D F ( ` ' X.'.5X_.M.B.l.u.u.l.k.u.u.k.k.y.y.u.w.e.y.u.y.y.y.u.y.u.k.u.y.y.u.l.e.y.y.y.y.y.u.k.l.u.u.k.l.k.u.u.",
"y.e.w.e.u.u.e.w.u.e.w.w.w.e.e.w.u.k.l.u.y.e.e.y.y.y.y.e.y.u.u.e.w.e.e.e.e.e.e.e.y.y.y.e.e.p.@.-.#XsXjXuXtXtX[..X^.~.~.~.~.~.P.^..X[.tXtXuXsXsX5XG.M.f.l.l.u.u.k.k.k.l.l.l.k.k.l.e.u.k.k.u.u.k.l.u.k.l.k.y.e.e.u.e.e.e.e.e.e.y.u.u.y.e.y.u.y.e.e.",
"e.w.+.w.u.u.y.w.u.y.w.w.e.y.y.e.l.x.x.k.e.+.+.w.y.y.e.e.y.u.u.e.e.y.y.u.u.u.u.u.e.y.y.y.u.u.i.b.V.=.2XaXaXjXbXxXjXvXxXjXvXvXjXvXvXjXlXlXqX2XU.*.n.u.u.u.u.y.u.k.l.k.k.l.l.k.k.x.u.k.l.l.l.l.l.x.k.l.l.k.y.e.e.y.y.y.e.e.y.y.y.y.y.w.w.e.e.w.w.e.",
"u.e.e.y.k.k.u.e.l.k.u.u.u.k.k.l.l.x.x.k.e.w.e.u.u.u.y.y.u.l.l.u.y.t.u.u.k.k.k.k.u.u.u.u.u.k.l.l.B.c.XX;X2XqX0XqXyXaXhXhXfXhXgXyXqX9XqX1X+XXX&.n.l.u.e.r.y.y.u.l.l.k.k.l.l.k.k.l.u.u.l.l.l.l.l.l.l.l.x.l.u.y.y.u.l.u.y.y.u.k.u.y.y.y.y.u.y.e.e.y.",
"k.k.k.l.l.l.l.k.k.k.k.u.u.u.l.x.u.l.l.u.y.y.k.N.k.k.u.u.l.N.x.k.t.u.u.k.k.k.k.k.k.u.k.s.u.u.u.u.l.f.c.*.I.@XoXoX;X<X1X1X1X2X<X;XoXoX@XXX*.v.n.l.z.k.u.u.u.u.l.N.N.l.k.l.l.k.u.k.u.u.k.k.l.l.l.l.l.l.x.l.k.u.u.u.N.l.u.u.l.x.l.u.k.k.l.l.k.u.u.l.",
"u.k.l.l.k.k.k.k.l.x.l.u.u.l.x.l.x.l.k.k.l.l.l.l.x.l.k.k.l.l.k.u.l.k.k.k.l.l.l.k.x.l.k.u.y.e.e.u.y.u.p.p.c.c.b.b.m.v.m.C.m.&.c.C.C.m.m.b.n.B.x.k.l.x.l.k.k.l.l.u.k.u.y.y.u.k.k.u.u.u.l.l.l.k.l.l.u.k.l.u.u.k.l.l.N.k.y.k.x.x.k.u.x.l.l.k.l.l.l.l.",
"k.k.l.l.k.k.k.l.k.l.l.u.u.l.l.k.k.k.k.k.l.l.l.k.l.k.k.k.l.l.l.k.k.k.k.k.l.l.l.l.l.u.u.u.e.w.Z.e.e.e.e.e.e.y.y.u.u.u.u.u.u.y.u.x.k.k.u.y.u.l.l.k.k.k.k.k.l.l.l.s.y.e.e.e.y.u.u.u.e.y.u.u.u.y.u.u.e.u.k.u.u.l.l.l.x.u.y.k.x.l.k.k.x.l.l.l.l.l.l.l.",
"k.k.l.l.k.k.k.l.k.l.l.k.k.l.l.k.u.u.u.k.l.l.k.u.k.k.k.l.l.l.k.u.k.k.l.l.k.k.l.l.u.u.y.y.e.+.+.w.e.w.w.w.e.e.u.u.u.u.u.y.e.u.k.l.u.u.u.e.e.u.u.u.y.u.k.k.l.x.l.u.e.w.w.w.e.e.y.e.w.e.e.e.e.e.e.e.w.y.u.u.u.l.x.l.l.u.u.k.l.k.k.l.l.k.u.k.l.l.l.l.",
"k.l.l.k.k.k.k.l.u.k.l.l.l.l.k.u.y.y.u.u.k.k.u.y.u.k.l.l.l.l.u.u.u.u.s.l.k.k.l.l.u.y.y.y.y.w.w.e.y.e.w.w.e.y.u.u.e.k.u.e.e.u.k.u.e.u.u.y.e.e.y.y.y.u.u.k.l.x.l.u.e.e.e.e.e.e.e.e.+.w.w.w.w.e.e.e.w.y.u.u.k.l.l.l.k.k.u.k.u.u.k.l.u.u.y.u.k.k.k.k.",
"k.k.k.k.u.u.k.l.u.u.k.l.l.k.u.u.u.y.y.u.u.u.y.e.u.k.l.l.l.u.u.e.y.u.k.k.u.k.l.l.u.u.u.u.u.y.y.j.j.u.u.u.u.u.k.k.u.l.l.u.y.k.k.y.w.y.u.u.u.u.y.e.y.u.k.k.l.l.k.u.u.u.u.u.y.e.e.e.w.w.w.e.y.y.u.u.e.u.k.k.k.l.l.k.k.l.l.s.u.u.k.k.u.u.u.u.k.l.l.k.",
"k.k.k.u.u.u.k.l.u.u.k.l.l.k.u.u.u.u.y.e.e.y.e.e.y.u.k.l.k.u.y.e.e.u.u.k.u.u.l.x.u.u.k.l.l.u.j.l.l.k.k.k.l.l.l.l.s.x.x.l.l.l.k.u.e.u.k.k.u.u.y.e.u.k.k.k.l.l.k.y.k.l.l.k.u.u.y.u.y.y.y.y.u.k.k.k.u.k.l.k.u.k.u.u.k.l.k.u.y.u.u.u.u.u.u.k.l.x.l.l.",
"u.u.u.u.y.u.u.k.k.u.u.l.l.u.u.k.k.u.e.w.w.e.y.y.w.y.u.u.u.u.y.y.e.y.u.u.u.u.l.x.k.k.l.x.l.u.u.l.u.l.k.l.l.l.l.l.l.k.k.l.l.k.k.l.u.k.k.u.k.l.k.y.k.l.k.k.k.l.l.u.u.k.l.l.k.u.u.k.k.u.u.u.k.l.l.l.u.l.l.u.u.u.u.y.u.u.u.e.e.u.u.u.u.u.u.k.l.l.l.k.",
"u.u.u.u.y.y.u.k.k.u.u.l.l.u.u.k.k.y.w.+.w.e.u.u.+.e.y.u.u.y.u.u.w.y.u.u.u.u.l.x.l.l.l.x.l.u.u.u.u.u.s.l.l.l.l.l.l.u.y.k.l.u.u.x.x.x.k.u.k.l.l.k.k.l.k.k.k.x.l.k.y.u.l.l.k.k.k.l.x.l.u.u.k.l.k.k.u.l.k.u.y.y.u.y.y.u.e.+.w.u.u.y.u.u.u.u.k.k.u.u.",
"u.e.e.y.k.l.u.e.u.l.x.l.k.u.u.u.y.u.u.u.y.u.u.y.e.e.e.y.y.u.u.k.u.+.u.l.e.y.l.k.k.y.u.x.l.e.y.N.u.u.y.r.y.y.u.u.u.u.u.u.u.u.u.l.u.l.l.u.u.k.l.l.u.u.u.y.u.u.k.k.y.y.u.k.l.l.l.k.l.l.k.k.l.l.l.x.l.u.y.u.k.u.y.y.w.w.e.y.e.w.e.u.y.u.l.k.l.l.l.u.",
"y.e.e.y.u.u.y.e.u.u.l.l.k.k.k.k.u.l.l.u.u.k.k.u.u.u.u.u.u.k.k.l.k.w.u.l.y.y.l.u.u.y.u.k.u.e.e.k.u.y.e.r.y.u.u.k.u.y.y.u.u.u.k.l.k.l.l.u.u.u.u.u.y.y.e.e.e.e.e.y.e.e.y.u.k.l.l.k.k.k.k.k.k.l.l.l.l.u.y.u.k.k.u.u.e.e.y.u.y.e.e.u.u.k.l.k.l.l.l.u.",
"e.u.u.u.u.y.y.y.y.u.u.k.k.k.l.l.l.l.l.u.u.l.l.l.l.l.l.k.k.k.k.l.k.y.k.x.u.y.u.u.y.u.u.u.u.u.y.y.y.y.e.e.y.u.k.l.k.y.e.u.k.k.k.l.k.l.l.u.y.y.y.r.y.y.e.w.w.w.w.w.w.e.e.u.k.l.k.k.u.k.k.k.k.k.k.k.k.u.y.u.l.l.k.k.y.u.k.l.u.y.y.k.u.l.l.l.l.l.l.k.",
"e.u.l.k.y.e.e.u.u.u.k.k.l.l.l.l.l.l.u.y.u.l.x.l.l.l.l.k.k.k.k.l.k.u.l.x.l.u.u.u.u.l.k.u.u.l.k.y.u.u.y.y.u.u.k.l.l.u.e.u.l.l.k.k.k.l.l.u.u.u.y.e.u.u.y.e.e.e.e.e.y.y.u.u.l.l.k.u.u.k.l.l.l.k.k.k.l.u.y.k.l.l.l.l.u.u.l.l.k.u.u.k.k.l.x.l.l.l.l.k.",
"e.u.k.u.e.w.e.y.k.k.k.k.l.l.l.l.k.k.u.e.y.l.l.l.k.k.k.k.k.l.l.l.k.k.k.l.x.k.u.k.k.x.l.k.l.N.l.y.k.k.u.u.u.k.k.l.x.u.u.k.l.l.k.u.k.l.k.u.u.u.u.y.u.u.u.u.u.u.u.u.u.u.u.k.k.k.u.y.y.u.k.k.k.u.u.k.l.u.u.k.l.l.k.k.k.k.l.l.k.y.u.l.k.l.l.k.k.l.l.k.",
"u.k.k.k.u.y.u.u.l.k.k.k.k.l.k.k.k.u.y.e.u.l.x.l.k.k.k.k.l.l.x.x.u.l.u.u.x.k.y.k.k.l.l.k.l.x.k.e.l.l.l.k.k.l.l.l.x.k.u.k.l.l.k.k.k.k.u.y.y.u.u.u.y.y.y.u.u.u.u.u.u.u.u.u.u.u.y.e.e.u.u.u.u.y.u.u.l.u.u.k.l.l.l.k.l.l.l.k.u.y.u.l.k.l.l.u.u.l.l.l.",
"l.k.u.u.k.k.u.u.k.u.u.u.k.k.k.u.u.u.e.e.u.l.x.k.u.u.u.u.k.l.l.l.u.l.y.e.l.u.w.u.u.k.k.k.k.k.u.e.k.k.k.l.l.l.l.l.u.u.u.k.l.k.k.l.l.k.u.e.e.u.u.y.e.e.y.y.y.u.y.y.u.u.u.u.k.u.y.e.y.u.k.u.y.y.u.l.k.y.y.k.l.l.l.l.x.l.l.k.u.y.u.l.u.k.u.y.u.k.l.l.",
"k.y.w.e.u.u.y.w.u.u.y.y.u.k.u.u.y.y.e.w.y.l.l.u.u.u.y.u.u.u.u.u.u.l.e.w.u.e.O.e.u.u.k.l.k.u.y.y.u.u.k.k.l.l.x.x.e.e.y.k.k.u.k.l.l.k.y.w.w.y.u.y.e.e.e.e.y.y.y.e.k.u.k.l.l.l.u.u.u.k.l.k.u.u.l.x.u.e.e.u.l.l.l.x.N.x.l.u.y.e.u.x.u.u.u.y.y.k.l.l.",
"u.y.e.e.e.y.u.u.e.y.k.l.k.k.u.u.y.y.u.u.l.l.l.l.y.k.u.y.k.k.y.y.u.u.u.y.w.w.e.e.y.u.u.u.u.u.u.k.y.u.y.e.y.l.k.e.u.u.u.u.u.u.k.l.k.u.y.e.y.y.y.e.l.k.u.e.e.e.y.u.u.u.u.l.l.k.k.x.k.k.k.l.l.l.l.l.y.y.y.u.l.x.l.u.x.l.u.y.e.y.u.u.e.u.u.y.y.k.k.u.",
"u.u.e.e.y.u.u.u.y.u.k.l.l.k.k.k.u.u.u.k.k.l.l.l.u.x.k.u.l.l.u.u.k.k.u.u.y.y.y.u.u.u.k.k.k.k.k.l.e.u.u.y.u.l.u.+.u.y.y.y.u.u.k.l.l.k.u.u.u.u.u.y.l.l.u.y.y.y.u.u.u.u.u.l.l.k.l.x.l.l.l.l.l.l.l.k.y.y.u.k.x.l.u.e.k.u.y.e.w.y.u.k.y.u.k.u.u.k.k.u.",
"k.u.y.y.u.k.k.l.u.k.l.l.l.l.l.l.k.k.k.k.k.k.l.l.k.x.k.u.l.l.k.k.l.l.k.k.k.u.u.u.y.u.u.k.k.k.l.l.y.u.u.u.u.k.y.O.u.y.e.y.u.k.k.k.l.l.k.k.l.k.u.u.l.k.u.u.y.u.u.u.y.y.u.l.l.k.k.x.l.l.l.l.k.k.k.u.y.y.u.k.l.k.y.w.u.y.w.w.w.y.k.l.u.k.k.k.k.k.k.u.",
"u.u.y.y.u.k.l.l.k.k.l.l.k.l.l.x.l.l.k.k.k.l.l.l.k.x.u.e.u.l.k.l.l.k.u.k.l.k.s.y.e.e.y.u.u.u.u.k.u.u.k.u.u.k.y.w.k.u.y.y.k.l.l.u.l.k.k.l.l.k.u.u.l.k.u.u.u.u.u.y.e.e.y.k.k.u.u.l.l.k.k.u.u.u.u.k.y.y.u.u.u.u.e.w.y.e.e.e.y.u.k.l.k.l.l.l.l.l.k.u.",
"u.u.e.y.u.k.l.l.k.k.k.k.k.k.l.x.k.k.k.k.l.l.l.l.k.x.u.e.u.l.k.l.l.k.k.k.l.l.u.y.w.e.y.y.y.y.u.u.u.k.k.u.k.k.k.u.l.u.u.u.l.x.l.k.l.l.k.l.l.l.k.u.l.k.k.k.k.k.u.y.e.e.y.k.k.u.u.l.l.k.u.y.u.u.l.x.u.u.u.u.u.u.u.u.u.u.u.k.l.l.k.k.k.k.l.l.l.l.k.k.",
"u.u.e.e.y.u.k.k.u.k.k.k.k.k.l.l.k.k.k.k.k.k.l.l.k.x.u.e.k.l.k.l.k.k.l.l.l.l.u.u.w.e.y.u.u.u.u.u.u.u.k.k.k.l.l.l.l.k.k.k.l.x.l.l.l.l.l.l.l.l.l.k.x.l.l.x.x.l.k.y.y.y.u.k.k.u.u.l.l.k.u.y.y.u.l.x.k.k.u.u.u.u.k.l.k.k.l.x.x.l.l.k.k.u.k.l.x.k.k.k.",
"k.u.y.e.y.u.k.k.u.k.k.l.k.k.l.l.l.l.k.u.u.u.k.k.u.l.u.e.u.k.u.k.y.u.k.l.l.u.y.y.w.e.y.u.u.y.y.u.u.u.k.l.l.k.k.k.k.k.l.l.l.l.l.l.l.l.k.k.k.l.k.k.l.l.k.l.x.l.u.e.y.y.u.k.k.u.u.k.u.u.y.e.y.y.u.u.s.u.u.u.u.u.u.u.l.l.l.l.l.l.l.l.u.u.u.l.l.k.u.k.",
"k.u.y.y.u.u.k.k.u.k.l.l.l.l.l.l.x.l.k.u.u.u.u.u.e.u.e.w.u.u.y.u.w.y.k.k.u.y.e.e.w.e.y.u.y.y.e.y.y.u.k.x.l.k.u.u.k.k.l.l.l.k.l.l.l.k.u.u.u.u.u.u.u.u.u.k.l.k.y.w.e.e.y.u.u.e.e.y.e.e.e.e.w.w.w.w.y.y.y.y.e.e.e.e.x.l.k.u.u.k.l.l.u.y.u.l.l.u.u.k.",
"y.u.l.x.l.u.k.x.x.l.k.k.l.l.l.k.l.l.l.u.y.w.w.w.e.w.w.w.y.u.y.e.w.e.u.u.u.r.w.+.+.+.w.e.e.w.w.e.u.u.u.k.l.l.u.u.w.e.u.u.u.y.u.u.y.y.y.y.y.y.y.y.+.e.k.l.l.k.u.u.u.e.w.w.w.w.w.w.y.w.O.+.w.w.w.w.e.e.+.+.e.w.w.u.l.l.l.l.k.k.u.u.u.y.e.y.u.k.k.u.",
"e.e.u.k.u.y.u.k.x.l.k.k.l.l.l.l.l.l.l.u.y.e.w.e.u.e.e.y.u.k.u.y.e.u.u.l.s.u.e.w.e.w.w.e.u.y.e.e.k.k.k.l.l.l.k.u.w.e.y.y.y.y.y.y.e.e.e.e.e.e.y.y.e.y.k.l.l.k.u.u.u.y.e.e.e.y.y.y.u.e.e.e.e.w.w.e.w.e.+.+.y.e.w.u.l.l.l.k.k.k.k.u.k.u.u.u.k.k.k.u.",
"y.y.y.u.s.u.u.k.x.l.k.l.l.l.l.l.k.k.k.k.u.y.y.y.k.u.u.u.k.l.k.u.u.u.l.l.l.s.u.r.k.e.e.u.k.k.u.y.k.k.k.l.l.l.k.u.y.y.y.y.y.u.y.y.y.y.y.y.y.y.u.u.u.u.l.l.l.k.k.k.u.y.y.y.u.k.k.u.l.k.u.u.u.e.y.u.w.e.w.e.u.y.e.u.l.l.l.k.k.k.k.k.k.k.k.k.k.k.u.u.",
"k.u.y.u.l.l.l.l.l.l.k.l.l.l.l.l.k.l.l.l.k.u.k.k.l.k.u.k.l.l.l.k.u.l.l.x.x.l.s.u.l.u.y.k.l.l.k.u.k.k.k.k.l.l.k.u.l.k.u.u.k.k.k.u.u.u.k.k.k.k.k.k.u.k.k.k.k.k.l.l.u.u.u.k.l.l.l.k.l.l.l.l.u.y.u.l.e.y.y.u.l.u.y.l.x.l.k.k.u.k.k.l.k.k.k.k.k.k.u.u.",
"l.u.y.u.l.l.k.k.k.l.l.l.l.l.l.l.k.l.l.l.l.l.l.x.l.k.k.k.l.l.l.l.s.l.l.l.x.l.l.l.l.k.k.l.l.s.s.l.l.k.k.k.l.l.k.k.x.l.k.k.l.l.l.k.k.l.l.l.l.l.l.k.u.u.u.u.k.l.l.l.k.k.k.l.l.l.k.k.l.l.l.x.l.u.l.z.y.k.u.k.x.u.u.l.x.l.k.k.k.k.l.l.u.k.l.l.l.k.k.u.",
"l.u.u.k.l.k.k.k.k.l.l.l.l.l.l.x.l.l.l.x.l.l.l.x.l.l.l.l.l.l.l.l.l.l.l.l.l.l.l.l.l.k.k.l.s.u.u.l.l.k.k.k.l.l.l.k.l.k.k.k.l.l.l.k.k.l.l.l.l.k.u.u.u.u.u.u.k.l.l.l.k.k.k.l.l.l.u.u.s.i.s.l.l.s.l.x.u.l.l.l.x.u.u.x.l.l.l.k.k.l.l.l.k.l.l.l.l.k.k.k.",
"k.u.u.k.k.u.y.u.y.u.u.k.u.u.u.k.k.l.l.l.k.k.k.l.l.l.l.l.l.l.l.l.l.l.l.l.l.l.l.x.l.k.u.k.u.u.u.u.k.u.u.u.u.k.u.u.u.k.l.l.l.l.l.l.k.l.l.l.k.s.u.y.u.u.y.u.u.k.u.u.u.u.u.k.l.s.u.e.l.i.i.l.l.l.l.l.u.l.l.k.l.u.y.l.l.l.l.l.l.l.l.l.k.k.l.k.u.u.u.u.",
"e.e.e.y.e.w.+.+.+.w.e.y.e.e.e.y.k.k.l.k.u.u.u.k.l.l.l.l.l.l.l.l.l.l.l.l.l.x.x.x.x.u.e.y.u.u.y.r.u.y.e.e.y.y.y.y.u.k.x.x.l.l.l.l.l.l.l.l.k.u.y.e.u.u.y.y.u.u.u.e.y.y.u.u.l.u.y.e.x.s.i.l.B.l.s.u.u.l.l.k.k.e.e.l.k.l.l.l.l.l.l.l.k.k.u.u.e.w.e.y."
};
