/* XPM */
static char *_fd2dd990e224e82fdb3c185c94a5d9bnrEnnRFz2IaOLJ5y[] = {
/* columns rows colors chars-per-pixel */
"120 120 247 2 ",
"   c #2E1907",
".  c #291907",
"X  c #4D2F11",
"o  c #595801",
"O  c #505200",
"+  c #6E5A01",
"@  c #5F6A0A",
"#  c #676907",
"$  c #746904",
"%  c #74750A",
"&  c #7B730A",
"*  c #797608",
"=  c #697919",
"-  c #7C7D12",
";  c #777918",
":  c #746D12",
">  c #737923",
",  c #737932",
"<  c #7B523E",
"1  c #72724A",
"2  c #5A5140",
"3  c #86780B",
"4  c #987706",
"5  c #827D12",
"6  c #887D16",
"7  c #987B15",
"8  c #876D06",
"9  c #84593B",
"0  c #947827",
"q  c #886F2E",
"w  c #8C744D",
"e  c #7C8318",
"r  c #6B811F",
"t  c #7C8323",
"y  c #7A8527",
"u  c #798436",
"i  c #7F8A50",
"p  c #88830B",
"a  c #988306",
"s  c #838214",
"d  c #8B8215",
"f  c #83841D",
"g  c #89881B",
"h  c #92841B",
"j  c #9C8C1C",
"k  c #978617",
"l  c #9E9017",
"z  c #A98805",
"x  c #AB940B",
"c  c #B7970A",
"v  c #A78817",
"b  c #B48F17",
"n  c #AA941A",
"m  c #B49718",
"M  c #8A8C23",
"N  c #848C2B",
"B  c #868A26",
"V  c #978B26",
"C  c #8B9225",
"Z  c #8B942B",
"A  c #86952C",
"S  c #97962C",
"D  c #868C34",
"F  c #899637",
"G  c #949C34",
"H  c #989A37",
"J  c #998736",
"K  c #A68A24",
"L  c #A89726",
"P  c #B69928",
"I  c #A48932",
"U  c #A69934",
"Y  c #B59C33",
"T  c #95A22E",
"R  c #9BA53B",
"E  c #9CAB3B",
"W  c #96A335",
"Q  c #9ABA3E",
"!  c #B9A62B",
"~  c #A6A639",
"^  c #BDA433",
"/  c #B7A637",
"(  c #B0B13E",
")  c #C7A718",
"_  c #DAAC1D",
"`  c #D6AC1D",
"'  c #DEB11D",
"]  c #D5B41A",
"[  c #E1B41E",
"{  c #E4BA1C",
"}  c #C59E2A",
"|  c #C8A72A",
" . c #D5AB24",
".. c #D9A924",
"X. c #D6AA2B",
"o. c #DAA929",
"O. c #DAA727",
"+. c #CCB42B",
"@. c #DDB222",
"#. c #D8B72A",
"$. c #C2A533",
"%. c #CBAC34",
"&. c #CAAD3D",
"*. c #C7A936",
"=. c #D4AD33",
"-. c #D4AD3A",
";. c #D8AC34",
":. c #CEB23B",
">. c #CCB537",
",. c #D3B035",
"<. c #D3B13B",
"1. c #D7BA35",
"2. c #E3B521",
"3. c #E4BB23",
"4. c #EABD23",
"5. c #E5BC29",
"6. c #E2BD33",
"7. c #C1981C",
"8. c #FDD51E",
"9. c #E6C217",
"0. c #D6C339",
"q. c #ECC225",
"w. c #ECC229",
"e. c #E7C62A",
"r. c #F5CA2B",
"t. c #F9CE2B",
"y. c #F2C627",
"u. c #FDD421",
"i. c #F6D42D",
"p. c #FCD42B",
"a. c #F9D72A",
"s. c #E7C736",
"d. c #F3CE34",
"f. c #F8CD30",
"g. c #F6D533",
"h. c #F9D632",
"j. c #F4D53B",
"k. c #F7D838",
"l. c #EBD33D",
"z. c #899845",
"x. c #959D48",
"c. c #948D57",
"v. c #8B9051",
"b. c #A89B43",
"n. c #A69653",
"m. c #AB8E48",
"M. c #9CAC43",
"N. c #98AA49",
"B. c #9EBE43",
"V. c #9EB448",
"C. c #99AA51",
"Z. c #9DB356",
"A. c #8EA742",
"S. c #A8AA48",
"D. c #B4AA43",
"F. c #A4B443",
"G. c #A2BD46",
"H. c #A4B44B",
"J. c #A4BC4C",
"K. c #AABC4B",
"L. c #A9B746",
"P. c #BBB346",
"I. c #ACBE53",
"U. c #A5BB54",
"Y. c #B5BB5B",
"T. c #B2AA5A",
"R. c #958D68",
"E. c #A69565",
"W. c #AD9A73",
"Q. c #B9A777",
"!. c #BBB979",
"~. c #AFAD6C",
"^. c #9EA964",
"/. c #C8BB47",
"(. c #D2B845",
"). c #C8BC56",
"_. c #CAAE4D",
"`. c #D2B27C",
"'. c #D3B576",
"]. c #CBB072",
"[. c #9EC045",
"{. c #A1C146",
"}. c #A5C54B",
"|. c #A9C54E",
" X c #A6C84D",
".X c #A9C94E",
"XX c #A6C251",
"oX c #ABC553",
"OX c #ADCD52",
"+X c #ACC45A",
"@X c #AECB5A",
"#X c #A7C05A",
"$X c #B1C654",
"%X c #B1CD56",
"&X c #B3C45B",
"*X c #B3CD5B",
"=X c #B9CE5D",
"-X c #BAC45D",
";X c #AFD155",
":X c #B1D156",
">X c #B4D45A",
",X c #B8D45D",
"<X c #B9D95D",
"1X c #B7DA5C",
"2X c #AEC465",
"3X c #B4CD63",
"4X c #B7CA66",
"5X c #B6D162",
"6X c #B9D462",
"7X c #BCDB61",
"8X c #BACD74",
"9X c #BDE062",
"0X c #D9C447",
"qX c #CCC257",
"wX c #D7C755",
"eX c #DED159",
"rX c #E5CB46",
"tX c #ECD444",
"yX c #F3D542",
"uX c #F4D945",
"iX c #F4D94C",
"pX c #F3D64B",
"aX c #E3CE57",
"sX c #E8D55A",
"dX c #F4DA52",
"fX c #F3DC5B",
"gX c #F1D658",
"hX c #F4E15C",
"jX c #DDD268",
"kX c #D3CE6F",
"lX c #ECDA64",
"zX c #ECDE74",
"xX c #F2DD67",
"cX c #F4E068",
"vX c #B5AA8A",
"bX c #CCB384",
"nX c #CBBB86",
"mX c #D0B282",
"MX c #D0B588",
"NX c #C3B388",
"BX c #BBC499",
"VX c #ECE6BC",
"CX c #E1D68F",
"ZX c #F4F1D2",
"AX c #FFFEEA",
"SX c #FDFEF3",
"DX c #FDFEFB",
/* pixels */
"}.B.Q {.{.{.{.}.{.{.{.{.{.}.}.}.OX X XOX X{. X>X:X:XOXOXOXOX:X>XOXOXOX:X:XOXOX>X>X:XOXOXOXOXOX X X X XOXOXOX X}.>X>X>X>X:XOX:X>X>X<X<X:XOXOX}.{.Q {.}. X}.{.}. XOXB.B.}.}.B.B.OX:XOX:X>X<X<X>XOX:X<X>XOX}. X X}.OXOX:X>X<X>X>X>X7X>XOX X X X}.{.",
"OX}.{. XOX X XOX}.}.}.}. X XOXOX X X X X X}.OX<XOXOX X X X XOXOXOX X XOX:X:X:X>X>X:XOXOX:X:XOXOXOXOXOXOXOXOX X}.:X>X>X>X:X:X>X>X:X>X>XOXOX X}.B.B.{. XOX X}. XOXOX}.{. XOX}. X>X>X:X>X>X<X>X>X:X:X:XOX X XOXOX}.OX:X:X>X>X>X>X:X>X:XOX XOXOXOXOX",
":XOXOX:X>X:X:X:XOXOXOXOX:X:X:X>X X X X X}.}.OX>X X X X X X X X XOX}.}.OX>X>X>X>X:X:X:X:X>X>X:XOX:X>X>X>X:XOXOXOXOXOX:X:X:X:X:X>X:X>X>X:XOXOX X{.{. XOXOXOX XOXOX XOXOXOXOX:X:X>X:X>X>X>X>X:X:XOX:X:XOX XOX>X:XOX>X>X:X:X:X:X:X:X:XOXOXOXOX:X>X>X",
">X>X>X>X<X<X>X:X:X>X>X>X>X>X>X>XOXOX X}.{.{.}.OXOXOX XOXOXOXOX XOX}.}.OX>X>X>X:X:X:X>X>X>X>X>X:X:X>X<X>X:XOX:X>XOX:X>X>X:X:X:X>X>X<X<X>X:X>X:XOX XOX:X:X:XOX:X:X X:X:XOXOX>X>XOXOX:X>X>XOX X XOX>X>X:X:X:X>X>X:X>X>X:XOXOXOX:X:X>X>X:X:X:X:X:X:X",
">X>X>X>X>X<X>XOX<X<X>X>X>X>X>X:XOXOX X}.{.{.}. XOXOX XOXOXOXOX XOX}.}.OX>X>X:XOX:X:X>X>X>X>X>X>X:X>X>X:XOXOX>X<X>X<X<X<X>X:X:X:X>X<X<X>X>X>X>X:XOX:X:X>X:X:X>X>XOX>X>XOXOX>X>XOX XOXOXOX X}.}. X:X>X<X>XOX XOX>X>X:XOXOXOXOX:X>X>X>X>X>X:X:X:X:X",
":X:X>X:X:X>X>XOX>X>X>X>X>X:X:X:X X X X{.{. XOXOXOX X}.}. XOX X}.OX}.}.OX>X:XOXOX:X:X>X:XOXOX:X>X:X:XOXOXOXOXOX>XOXOX:X:XOX X}.}. XOX:XOXOX>X>X:X:X:X:X>X>X>X>X>X>X<X<XOX:X>X>XOX X XOXOX X}. X XOX:X>X>X X{.}.:X:X:XOXOXOX:X>X<X:X>X>X>X>X>X>X<X",
">X>X:XOXOX>X>XOX:X:X:X:X:X:X:X:X XOX X}.}.OX>X:XOX X{.{.}. X X}.}.}. XOX>X:X:X>X>X>X:XOX X XOX>X>XOX X}.}. X X X{.}.}.}.{.{.B.B.{.}. X}.OX:X>X:X>X:X:X:X>X>X>X>X>X>X:XOXOX:X>X>XOX X XOXOXOXOXOX:X:X>X>XOX}.}.:X:X:X:X:X:X>X>X>XOX:X>X>X>X>X>X<X",
">X<X>XOXOX>X>XOXOXOXOX:X:X>X>X>X:X>XOX X X:X>X:XOX X{.{. XOX X}.{.{. X:X:X:X:X<X>X>X:XOX}.}.OX:X<XOX}.{.{.}.{.{.{.}.}. X}.{.{.{.B.{.}.}. X:X>X>X>X:X:X:X:X>X>X>X:XOX X XOXOXOX>X%XOX XOX:X>X>X>X<X:X:X>X:XOXOX>X:X:X:X:X:X>X>X>X:X>X<X>X>X:X>X>X",
":X:XOX:X>X>X:XOXOXOXOXOXOX:X>X>X>X>X>X:X:X:X:X>X>X}.Q B.{.{.}.OXQ B.}. XOXOXOX:X:XOX XOXOXOX:X>XOX X}.}.OXOXOX}.}. XOX}. XOX:X X}.}. XOX>X>X:XOXOXOXOX X X:X:X:X:X:XOX}.}.OXOXOX X{.}.:X<X<X>X>X>X>XOXOXOXOX:XOXOX:X:X:X:X:X:X:XOX:X>X>XOXOX>X<X",
">X:X:X>X>X<X>XOXOXOXOXOX:X:X>X>X<X>X>X>X:XOXOXOXOX}.B.{.}.}.}.OX{.}.OXOXOX:X:X>X>X:X:X>X>X:X:X>X>X:XOXOX>X>X>XOXOX>X>XOXOX:XOX X:X%XOX:X<X<X>XOX}. X X}.}.OXOX XOXOX}.{.}. X X X}.{.}.:X>XOXOXOX XOXOXOXOXOXOXOX:X:X:X:X:X:X:X:XOX>X>X:XOXOX:X<X",
":X:X:X:X>X>X:XOXOXOX:X>X>X>X>X>X>X>X>X:X:X:X:X:XOXOXOXOX:XOXOX:XOXOX:X:X:X:X>X>X>X>X>X<X>X:XOX:X7X>X>X>X<X<X<X>X>X<X>X:XOX:XOXOX>X>X:X:X>X>X>XOX{. X X}.}. X X}.OXOXOX}. XOXOX X}. XOX>X:X X}.}.}. XOXOXOX XOXOX>X:X:X:XOX:X:X>X%X:X:XOXOXOX:X<X",
":X:X:X:X:X:X:XOXOX:X>X>X<X<X>X>X:X>X:X:X>X>X<X<X:X:X>X<X>X>X>X<X:X:X>X:XOXOX:X>X>X>X:X>X:XOX XOX<X>X:X>X>X<X>X>X:X:X:XOXOX:XOXOX:XOX X XOX:X:XOX}. XOX X X X X{.OX:XOXOXOX:XOX X}. X>X<X:X X}. X XOX:X:XOX XOX>X:X:XOXOXOXOXOX:XOXOXOX X XOX:X<X",
":X:X:X:X:X:X:X:X:X:X>X>X<X>X>X>X>X:X:X>X>X>X<X<X:X>X>X>X:X>X>X>X:X>X>X:XOXOX:X>X<X>X:X:XOX XOXOX>X>X:X:X>X>X>X>X:X%XOX:XOXOXOXOXOX X}.}. XOXOXOX}. XOX X X X X{.}. X X}.}. X}.B.B. X>X>X:XOX XOX:XOXOXOX}.{. X>XOXOX X X}. XOXOX}.}.}. X XOX:X>X",
":X>X>X:X:X:X:X>X:X:X>X>X>X>X>X>X>X>X>X:X:X:X:X:X>X<X>X:X:X>X>X>X:X>X>X>X>X:X>X>X<X>X:X:XOXOXOX>X>X>X>X>X>X>X>X>X<X>X:X>X:XOX XOX>XOX X XOXOXOX X}. X X}.}.}.}.{.}. X}.{.{.}.{.B.B.}.:X:XOXOXOXOX:X X}. X}.B.}.:XOXOXOX X X X X X}.}.}. XOX:X>X>X",
"OX:X:XOXOXOX:X>X:X:XOXOX:X:X:X:X>X>X:XOXOXOXOXOX<X<X>XOX>X<X<XOXOXOX:X>X:X:X:X>X>XOXOX:XOXOXOX>X>X>X>X>X>X>X>X>X<X>X:X>X>XOX XOX>X:XOXOX:X>X:XOX XOX X}.}. X X}.OXOXOX X XOX X{.B. XOXOXOX:X:XOX:X}.{. X}.{.}.:X:X:X:XOXOXOXOXOX X XOXOX:X>X:X:X",
" XOXOX X}.}. XOX:XOXOXOXOXOX:X:XOXOXOX X X XOXOX:X:XOXOX:X>XOX{.}. XOXOXOXOXOXOX X X XOX:XOXOXOX>X>X>X>X:X:X>X>X:XOXOX>X>XOXOX>X:XOXOXOX>X<X>X:XOX:XOX X XOX:XOX:X:XOX X XOXOX}.{.OX:XOX:X>X>X:X:X}.{.OXOX X X:X>X>X>X>X>X:X:XOXOXOX:X>X>X>X:XOX",
"B.}. X X}.{. XOXOXOXOXOXOXOXOXOX}. X}.}. XOXOX X:XOX X X}.}. X X}.OXOXOX X}.}. XOX}.{.{.}.}. X}.OX:XOX}.}..XOX}.{.{.}.J.Z.U.@X<X{. XOX>X>X:X>X>X>XOX>X<X:X:X>X:X<X<X>X>X>X>X>X>X>X>X:X:X>X>X>X>XOX:X>X>X>X:X>X>X>X>X:X:X>X>X>X:XOX:X>X<X<X>XOXOX",
"B.}.OXOXOX XOXOX X X XOXOX X X XOXOXOX XOX:XOX X:XOXOX X X XOXOXOXOXOX X}.{.}.}.OX}.{.{.}.}. X XOXOX X{.}.OXoXK.F.K.J.y r = A.3X+XOX>X<X>X>X>X>X<XOX>X<XOXOX:X%X,X>X>X*X%X*X*X>X>X:X:X:X>X>X>X>XOX:X>X>X>X:X>X>X>X:X:X:X>X>X>X:X:X:X>X<X>X>XOXOX",
"{.}. XOX%XOXOX X}.}. X X X X}.}.OXOXOX X XOXOX}.>X>X:XOXOXOXOX%X:X:XOX X}.{.{.}. X}.}.}.}. X X X X}.{.J.#XC.D N f M # = U.Z.> C.Z.3X<X>X>X:X:X:X<XOX:X>X X}.OXOXOXOXOXOXOXOXOXOXOXOXOXOX:X:X:XOXOXOX:X:X:XOXOX:X:X:X:X>X>X>X>X:X:X>X>X>X:X:XOXOX",
"}.}.}. XOXOX X}.}.}.}. X X}.}.}. X X X}.}. X X}.>X>X:X:X:X:X:X:X>X:XOX X}.}. X X X}.}.}.}.}. X X X{.J.V.y G ).jXsXeX/.L f # O u = N.>X:X%XOXOXOX7X;X:X:X{.{.OXOXOXOXOXOXOXOXoXoX X X}. X XOX X}.}. XOXOXOX X X XOXOX:X>X>X>X:XOX:X>X:X:X:XOXOXOX",
"OX X}.}.OXOXOXOX}. X X X X X X}.{. X X}.}. X X}.>X>X>X>X>X>X>X>X>X>XOXOXOXOXOX:X}.}.}.}.}. X XOXOXXXC.t P.fXuXj.k.k.k.uXrX3 o C.C.F *XOXOX X X X<X:X:X:X{.B. XOX}.}.}.}. X X}. X X X}. X X X X}. X X XOXOXOX X}. XOXOX:X:XOXOXOX>X:X:X:XOXOXOXOX",
">X:XOXOX:X>X>X>XOXOXOXOXOXOXOXOX}.OXOX X XOXOXOX>X>X>X>X>X>X>X>X>X:X:X:X:X>X>X>X}. XOXOXOXOXOXOX@XI.t qXfXj.p.u.8.8.8.p.d.x / - F z.,X:XOXOXOXOX<X:X>X:X{.B. XOXoXOXOXOXOXOXOXOXOXOXOXOX:X:XOX XOXOXOXOX:X:XOXOX XOXOX:XOXOXOXOX:X:X:X:X:X:X:X:X",
">X>X:X:X>X>X>X>XOX:X:X:X:X:X:XOXOX:X>X%XOX%X:X:X:X:X:X>X>X:X:X:X>X:X:X:X>X>X>X>XOXOX:X:X;XOX:X,X3XN D.cXj.p.u.8.8.8.u.u.r.e.l.^ o C.5X;XOXOX:X>X<X:X>X>X}.{.OX:XOXOX*X>X>X>X>X>X:X:X:X>X>X>X:XOX:X:X:X:X>X>XOXOXOX:X:X:XOXOXOXOX:X:X:X>X>X>X:X:X",
":X:X>X>X>X>X>X:X:X:X>X>X>X>X:X:XOX>X>X:XOXOX:X%X:X:X:X:X:X:X:X:X>X:X:X:X>X>X>X:XOX:X>X>X>X>X<X6XC.Z xXyXp.8.8.8.8.8.u.u.u.p.d.) & N =X:XOXOX:X>X>XOX>X<X}.}.:X>X>X<X<X<X7X<X<X<X:X:X:X>X>X>XOXOX:X:XOX:X>X>XOX X>X>X>X:XOXOXOX:XOX:X:X>X>X>X>X>X",
"OX<X7X>X:X:X>X>X:X:X:X:X>X>X>X>X>X>X>X>X>X>X>X>X:X>X>X>X>X>X>X>X:X7X>XOX>X>XOX}.:X>X>X>X>X<X5XN.N jXdXh.u.8.u.u.8.8.8.8.u.p.f. .&.6 K.OX X XOX<X:X>X>X>X:XOX:X>X>X>X>X>X>X>X>X>X>X:X:X>X:XOX:X>X>X>X<X>X:X:X:X:X>X>X>X>X:X:X:X:X:X:X>X>X>X>X>X>X",
"OX>X<X>X>X>X:XOX X XOXOXOX:X:X:XOX:X:X:X:X:X:X:X:X>X>X>X>X>X:X:X:X<XOX X>X>X X{.OXOX:X:X:X>X3Xu !.].0XyXa.u.8.u.8.8.8.8.8.p.r. .<.k E OXOX XOX>X:X>X>X>X:X:X>X>X>X>X:X:X:X:X:X:X>X>X>X>X>XOXOX>X>X>X>X>X>X:X>X>X>X>X>X>X>X>X:X:X:X:X>X>X>X>X>X:X",
"OX:X>X>X>X<X:X}.}.}.}. XOXOX%X:XOXOXOXOXOXOXOXOX:X>X>X>X>X:X:XOXOX:X X}.>X:X{.B.}.}.OXOX;X@X2X, R.vXn./ j.p.u.u.8.u.u.u.u.p.4. .,.v T @XOXOXOX>X>X:X:X:X>X>X>X:X<X>X:XOX:X:X:X>X>X>X>X<X>XOXOX:X:X>X>X>X>X>X>X>XOX:X>X>X>X>X>X:XOXOXOXOXOXOXOXOX",
"}.OX:X>X>X>X:X X X X XOXOX%X:X:XOXOXOXOXOXOXOXOX:X:XOXOXOXOXOXOXOXOX}.}.>X:X{.B.{.{. XOX;X@XZ.i ZXSXZX~.%.h.u.8.u.u.u.u.u.t.@. .,.j E *X%XOX;X<X>X:XOX:X>X>X>X:X<X>X:XOXOXOX>X>X>X>X>X<X>XOX XOXOX:X>X>X>X>X>X>X XOX:X>X>X>X:X:X X X X X X X}.}.",
"B. X>X>X>X>X>X:XOXOXOXOXOXOXOXOXOXOXOXOXOXOX X X:XOX X}.{.}. XOXOXOX}.}.>XOX{.B.}.{. X;X:X@Xv.BXSXDXSXVXU tXp.u.u.u.8.u.p.4._ X.(.d L.%X%XOXOX>X:XOXOX:X>X>X:XOX<X>XOXOXOXOX:X>X>X:X>X>XOX X XOXOXOX:X>X:X:X:X:X XOXOX>X>X>X:XOX X X X X X}.}.}.",
"Q  X>X>X:X:X:X:XOXOXOXOX X X X X XOXOXOX X X}.}.OXOX}.{.{.}. XOXOXOX}.}.:X X{.}. X}.XX3X5X2X1 R.SXDXDXZXb.rXh.u.p.p.u.u.r._ ..=./ s $XOXOXOX XOXOXOXOX:X:X:X:XOX:XOXOX X XOXOX>X>X:X:X:XOX X}.OX XOX:X:X:XOXOXOX XOXOX:X:X:X:XOX X X XOX X X X X",
"{. X:X>X:X>X:XOX X X X X X X X XOXOXOXOXOX X X}.OXOX X X X XOXOX XOX}.}.OX{.B. XOX}.+XN.z.^.1 R.SXDXDXZXb.0Xh.p.k.g.a.p.3... .,.d R oXOXOXOX XOX}. XOXOX%XOXOXOX:XOXOXOXOXOX>X>X>X:XOXOX X X X:XOXOX>X>X:XOXOXOXOXOX:X:X:X:X:X:X}. X X X X X X X",
" XOX:X:X>X>X:X X X X XOXOXOXOXOX:X:X:X:XOXOXOX XOXOXOX:X:XOXOXOX X X}.}. XB.B.OXOXXXF x.Y.S., nXSXDXSXZXU rXk.h.) 4 d.w...X.=.L M =X%X%X:XOXOXOX{. XOXOXOXOXOXOX>X:X:X:X:X>X<X<X<X>XOXOX X}.OX>XOX:X>X>X>XOXOXOX:X:X:X:X:X>X>X>X{.{.}.}. X X}.}.",
" XOX>X>X>X>X>X>X:X;X:X>X>X>X:XOXOX:X>X>X>X:X>X>X>XOXOX>X7X>XOXOXOX X{.B.}.:X:XOX X*XN kXhXfXaXb.VXSXAXnX! j.j.) x a s. .7.-.&.& F.oXOX:XOX{.}.OXOX X}.}.}.}.OXOX>X<X<X>X>X:X:X:X<XOX}.}.}.}. XOXOXOXOXOX:X>X>X:X>X>X:X:X>X>X:XOX}.}.}.OXOXOXOXOX",
"OXOX:X>X>X>X>X>X:X:X:X>X>X>X:XOX>X>X<X<X>X>X>X<X>XOXOX>X<X>X:X:X:XOXOX XOX>X>XOX>X,XG S aXpXgX).n.NXQ.b.l.h.] c sXn %.4 4 (.V G |.}. XOX}.B.{.}. X}.}.}.}. XOXOX:X>X>X>X>X>X>X>X:XOX}. XOX X XOXOX:X>X:X:X>X>X:X>X:X:X:X>X>X:XOXOXOXOXOXOX%X%X*X",
"OXOX:X>X>X>X:X:X>X>X:X>X>X>X>X:X>X>X<X<X>X>X>X>X:XOXOX>X>X>X>X<X:X:X:X:X>X<X<XOX>X*X2X; $ I Y _.qX/.(.tXi.a.#.1.0X7 k v K D.# Y.oXOXOXOX X}.}. X X}.}.}.}. XOXOX:X:X>X>X>X>X:X:XOX}.}. XOXOX XOX X:X<X>X:X>X>X:X>X:X:X:X:X:X:XOXOX>X>X>X>X>X>X>X",
">X:X:X>X>X>X:X:X<X>X:X:X>X>X>X>X>X>X>X>X:XOX:X>X:XOXOXOXOXOX>X<X:X:X:XOX:X>X>XOXOX+XC.u n.n.J 0 V P 1.j.h.h.s.m j 8 ^ K 0 O @ 3X*X:X:X:XOXOXOX:XOXOXOXOXOXOX%X%X>X>X>X>X:X:XOX X X}. XOX:XOX}.}.}.:X<X>X:X:X:X:X>X>X>X:X:X:X:X:X>X>X>X,X>X>X>X>X",
"<X:X:X>X<X:X:X>X<X>X:XOX:X>X>X>X:X>X>X:XOXOXOX:XOXOXOX X XOX:X>X:X:XOX X XOXOXOXXXN.z.nXnX'.'.'.].T.I K 1.pXrXa 7 k _.$ o O W 5XOX:X:X:X:X:X>X>X>X>X:X:X:X:X:X:X>X>X:X:X:X:XOX}.OX X X:X:XOX}.{.}.:X<X>XOXOXOXOX:X:X:X:XOXOX:X:X,X,X,X>X>X>X>X>X",
">X:X:X<X>XOXOX<X>X:XOXOX:X:X:X:X>X>X>X:XOXOX:X>XOXOX X}.}.OXOX:X:X:XOX}.}.OXOXOXN.u !.MXbX`.`.`.`.`.`._.k Y *.Y 7 K -.Y q > U.*X>X>X>X:X:X>X<X>X>X>X>X>X>X>X:X:XOXOXOXOX>X>XOX XOXOXOX:X:XOX}.}.}.OX>X:XOXOXOXOXOXOXOXOX X XOXOX>X>X>X>X>X>X>X>X",
":XOX:X<X:X}.OX<X:XOXOXOXOX:XOXOX:X:X:XOXOXOX:X>X:X:X X}.}.OXOX XOXOXOX}.}.}. X+Xu !.nXbX`.`.`.`.`.`.`.'.].0 7 7 v %.=.$.; N.*XOX>X<X>X:X:X>X>X:X X XOX:X>X>X:X:X X X XOX>X>XOX X:XOX XOXOXOX XOXOX:X:XOXOX:X:XOXOXOXOXOX X XOXOX>X>X>X>X>X>X>X>X",
"OX X:X>XOX{. X7XOXOXOXOXOXOXOXOXOX XOX X X XOX:X>X:X X}. X:X:X}.}. X X}.{.}.{.J.D ~.nXbXbXmXbXbXmXmXmXMXMX].q _.-.=.,.n G +XoXOX:X>XOX X}.OXOX}.{.{. XOX:X:X:X:XOX X XOX>X>XOX}.>XOX XOXOXOXOX:X:X:X:XOXOX>X:XOX:X>X>XOXOXOX:X>X>X>X>X>X>X>X<X<X",
":X}.OXOX}.}. X}. XOX:XOX}.}. X}.}.}.{.B.B.{.OX:X:XOXOXOXOXOX}.{.}.{.{.}. XOX X}.V.u c.Q.NXbXbXbXbXNXQ.W.W.bXm.I -.X.-.k F.OXOXOXOXOX>X}.{.OX}.}.}. X XOXOX:X>X>XOXOXOX:X:XOXOX X>XOXOXOXOXOXOXOX:X>X:XOXOX:X<X<X<X>X>X:X>X>X>X:XOX>X<X>X>X>X:XOX",
":X}.}.OX{.{. X}.OX:X>XOXOXOXOX X X X}.{.{.{. XOX>X:XOXOXOXOX}.{. X X XOXOXOXOXOX@X2Xu , c.c.E.E.R.R.vXvXR.c.Q.0 -.X.-.k L.%XOX}.OX X:X{.{.OX}. X XOXOX%X:X>X>X>X:X>X>X>X:XOXOX:X>X:XOXOXOX:X:XOX:X:XOX XOX>X>X>X<X>X>X:X>X>X>X:XOX>X>X>X:X>X:XOX",
":X}.}.OX{.{. X XOX:X:XOXOX:XOX X X X X X}.}. XOX>X>X:X:X:XOX X}.OXOXOX:X>X>X>X:X*X5X3Xz.u v.v.c.W.1 1 2 . X E.0 *.X.-.3 E ,XOX{. X{.OXB.}.>XXXoXOXOXOX:X>X>X>X>X>X>X<X>X:XOX:X>XOXOX XOXOXOXOXOX>X:XOX XOX>X>X:X<X>X>X>X>X>X>X:XOX>X>X:X:X>X>XOX",
">X XOX:X X X:X:XOXOXOXOXOX:XOX}.OXOXOXOX:X:X>X>X:X:X>X>X>X>X>X>X>X>X>X>X>X>X>X>X>X>X,X3X2XZ.^.~.1 1 . .   X E.0 *.X.=.n Z 6X%X|.%XK.|.F.E F.E E E |.oX%X>X>X>X>X>X>X>X:X:X:XOXOX}.}. X XOXOX X}.:X>X:X XOX:X>X:X>X:X:X>X>X>X:X>X>X>X>X:X:X>X>X:X",
"<XOXOX>XOXOX>X>XOX:XOXOXOX>XOX XOX:X:X>X>X<X1X1X:X>X<X>X>X>X<X<X>X>X>X>X>X>X>X>X>X>X>X>X*X3X3X8X1 w   < 9 9 Q.0 -.X.X.$.5 -XL.W S d 6 k 3 k k d p 5 Z I.*X>X>X>X<X:XOXOX>X>X:X X{.}. XOXOXOX}.}.OX>X>XOX XOX>X>X:XOX:X>X>X:XOX>X>X<X>X:X:X>X>X>X",
":X XOX>XOXOX>X:X:X>X:XOXOX:X>XOX>X>X>X>X>X>X>X:X>X<X<X<X:XOX>X6X*X=X=X%X%X%X%X>X>X>X>X:X:X>X,XN.v.w X 9 w ].m.K ;. . .| 8 5 k L P $.%.%.,.,.,.,.:.*.V % E ,X<X<X>X:XOX:X<X<X:X X}.OX:X:X:XOXOX XOX:X:XOX XOX>X>XOXOXOX>X>XOXOX>X<X<X>XOXOX:X>X:X",
"OX}.OX>XOXOX:XOX:X>X:X X XOX>X>X:XOXOXOXOX:X:XOX:X>X<X>XOXOX@X5XN.G M C g f G *X*X:XOXOXOXOX*XV., E.Q.`.`.m.7 s.d.{ ) c ) +.#.#.@.3.4.q.q.w.4.3.@. .,.$.3 C =X,XOXOX:X>X>X:XOXOXOX:X:XOXOXOXOX:XOXOX}.}. X>X>X:XOX XOX>X>X X X>X>X>X:X X XOXOXOX",
"OX}.OX<X:X:X>XOXOX:XOX}.{. X:X>X X}.{.}. XOXOXOX XOX>XOX XoX+XA S U /.eX( / S f oXOXOX X XOXOX&XD : J I 0 v s.k.a.p.q.5.w.r.t.p.p.p.p.p.p.p.p.p.t.w.@. .:.h C *XB. X>X>XOX X XOX>X>XOX X}.}.OX>X:X}.B.B.OX<X>X X X}.OX>X>X}. X>X>X>XOX}.}. X X X",
":X>X>X>X>X>X:XOX:XOXOX:X>X:X X}.OX X X X X}.}.{.%X:X:XOX X+XD T.fX+.x sX0Xl wXg A XX}. X XOXXXI.Z / 0X#.e.j.h.p.u.u.p.p.p.u.u.u.u.u.u.u.u.u.u.u.u.p.t.3. .:.d Z V.OX<X>XOX XOXOX XOXOX}.{.}. X XB.B.B.}.:X>X:XOX}.{.{. X X XOX:XOXOX:X:X:XOXOXOX",
"OX:X>X>X>X>X:XOXOXOXOXOXOXOX}.}.OX X XOXOX X X XOX:X>X:XOXU.z.CXdXd.c | rXz a j % +X X XOXoXI.C * 0.k.p.u.u.u.u.u.u.8.8.8.8.u.u.8.8.8.8.8.8.8.8.8.u.u.p.4. .&.& W *X,X:XOXOX X}.}. XOX}.{.}.}.}.{.{.{. X:X>X:XOX X}.}. XOX XOX:X XOXOXOX:XOXOXOX",
" XOX:X>X>X>X:XOXOXOXOXOX}.}.}.}.OXOXOXOX X X}.}.OX:X>X<X5XN.^.].rXyX| v v n | ! % M.oXOX+XV.B D.s.g.p.u.u.8.u.u.u.u.8.8.8.8.8.u.8.u.8.8.8.8.8.8.8.8.u.u.p.3. .! % I.%XOXOXOXOX}.{.}. X}.}. X X X}.}.}.OX>X>X:XOXOX X XOXOX XOX:X X}.}. XOX:XOXOX",
"}. XOX:X>X:XOXOXOX:XOX X}.{.{.}.OXOXOXOX}.}.{.{.OX:X>X<X5XA T.V m 1.*.k 4 aXpXrX~ F *X*XM.e qXfXk.p.u.8.8.8.u.u.u.u.8.8.8.8.u.u.8.8.8.8.8.u.u.u.u.8.u.u.u.p.3.+.j e K.}.OX:X:X XB.{. X XOX:X:XOX}.}. XOX>X>X:XOXOXOXOXOX%XOXOX:XOX}.{.}.OX:XOX}.",
"{.}.OXOX:XOXOX X:X:X:XOX}.{.}. X}. XOX X}.{.{.}.:X:X:X>X3XA ).K P $.7 7 8 4 m :.S H 4XH C eXuXh.p.u.u.u.8.8.u.u.8.u.8.8.8.8.8.u.8.8.u.u.u.p.h.h.u.8.u.u.u.u.p.@.>.3 S J.OX:XOX X[.}. X XOXOXOX}.}.}. XOX>X>X>X:X:XOXOX:X:XOXOX:XOX X}.}.OXOXOX}.",
" X XOXOXOXOXOX X>X>X:XOX X X XOXB.}. X X X}.OXOX:X:X:X>X3XA qXwXv v P K P $.$.K f Y.N H sXpXh.p.u.u.u.8.8.8.u.u.u.u.8.8.8.8.u.u.u.u.p.a.g.s.+.iXk.a.u.u.u.u.u.r.#.! % I.oX X}.}. XOXOX X X X}.B.}.}.OX:X>X>X>X>X:X:X:X>X>X:X:X>X:XOXOXOXOXOXOXOX",
":X:X:XOXOXOXOX X>X>X:XOXOXOXOXOX{. XOXOXOXOX:X>X:X>X>X,X5XN /.gXrX%.P v X.=.P + J B P.dXj.a.g.i.p.8.u.u.u.u.u.u.u.u.u.u.u.u.8.u.p.r.s.6.<./ : U fXyXp.u.u.8.u.p.r.#.5 G oX}.}.OXOXOXOX X XOX}.B. XOX:X>X>X>X>X>X>X:X:X<X<X>X>X>X>X:X;XOX;X:X>X>X",
"<X>X>X:XOXOXOXOX>X:X%X:X:X:XOX XOX:X>X>X:XOX:X>X:X>X>X6X6XW / gX1.z z | X.X.-.Y : qXdXj.p.p.] e.a.8.u.u.u.u.u.u.u.u.u.8.u.u.8.u.q.` b 4 8 5 D > S sXk.p.u.8.u.u.p.e.^ % J.}.OX>X%X:XOXOXOX>X:X XOX:X>X<X<X>X>X>X:X:X:X<X<X>X>X<X:X:X>X:X>X>X<X<X",
"<X<X<X>X:XOX:X>X>X>X:X:X:X:X:X:X>X>X:X>X>X>X:X:X:X:X>X7X6XF.S gXj.i.w...O.o.X.=.^ n j.a.u.h.m rXa.8.u.u.u.u.u.u.u.u.8.u.u.u.u.p.) z v + L.&X=X*XN f wXyXp.8.8.u.u.d.1.k C J.OX<X>X:X:X>X>X:X%X<X:XOX:X<X>XOXOXOX:X:X:X<X<X>X>X>X>X>X>X>X>X,X,X,X",
":X>X>X>X:X:X>X<X>X>X>X>X:X:X:X>X>X:XOXOX:X>X>X>X:X:X>X<X>XoXM aXk.u.p.[ ..o.o.X.=.c ' h.p.#.m fXi.8.u.u.u.8.u.8.8.u.8.u.u.u.u.p.5.X.(.h R @XOXOX+XF j dXi.8.8.u.u.p.6.L g U.oX>X>X:X:X>X>X:X%X<X:XOXOX:X:X X}.}.OX:X>X>X:XOX:X>X>X>X>X>X>X,X,X,X",
":X>X>X>X>X>X>X>X:X:X>X>X>X>X>X:X:XOXOXOXOX>X>X<XOXOX>X>XOX|.N qXj.u.u.y._ O.o.o.X. .5.s.#.m $.fXh.u.u.u.u.u.u.u.u.u.u.8.u.u.u.p.r.@.=.L C *XOXOXXXE U fXh.8.8.8.8.p.6.n # N.oX:X>X:X:X>X>X:X:X>X:XOXOXOX X}.{.}.OX:X>XOX X}.OX:X>X>X>X>X>X,X,X,X",
">X>X>X>X>X:XOXOXOXOX:X>X>X>X:XOXOXOX XOXOX>X>X>X XOX%XOX}.XXW ~ uXp.u.p.2...o.o.o.O... .X.b (.dXi.8.u.u.u.u.u.8.u.u.u.u.u.u.u.u.t.'  .| 3 M L.&X@XW D.lXj.p.u.u.u.h.6.v Z t *X>X>X>X:X>X>X:X>X>X:XOX XOX X}.}. XOX>X>XOX{.{. X:X>X>X>X>X>X,X,X,X",
"OXOXOXOXOXOX X}.OXOXOX:X>X>X:XOX X XOXOX>X>X:X:X}. XOX X}.}.+Xg rXk.p.u.r._ O.o.o.O.O.o.=.b rXpXi.u.u.u.i.i.u.u.8.8.u.u.8.u.u.u.p.{ ` X.=.P s G 5XM.H zX1.e.a.a.y.j.5.P D.; =X>X>X>X:X:X:X:X>X>X:XOXOXOXOXOXOX>XOX>X>X X{.{.OXOX>X>X>X>X>X,X,X,X",
"{.{.{.}. X X X X X X XOX:X>X:XOXOXOXOX:X>X>XOXOX}. X X}.}.OX*XZ ! uXa.u.p.q...o.o.o.o.o.;.b >.dXa.u.u.a.e.z i.a.u.u.u.u.u.u.u.u.u.p.4._  .=.&.h C -XD D./.x l.s.x 1.,.:.U M =X:X:X>X:XOXOX:X>X:X>X:XOX:X>X:X>X<X X:X:X}.{.}.OXOX>X>X>X>X>X,X,X<X",
"{.{.B.{.}.OXOXOXOX X}.OX:X>X>X:X:X:X:X:X>X:XOX X XOXOX}. X:X>X|.e 0Xk.p.u.p.2...O.o.O.o.o.| L gXh.p.q.c ) | 1.) ] p.u.u.u.u.8.u.u.u.p.r.'  .X.<.V g &XA e # p / h $ V d e K.%XOXOX:X:X X X:X:XOX>X:X:X>X>X>X>X<X{.OXOX}.{.OX:XOX>X>X>X>X>X,X<X<X",
" X X}.}. XOXOXOXOX X}.OX:X>X>X>X<X>X:XOX:XOXOXOXOX:XOX XOX>X:XoXE p 0.k.h.k.w.O.X.X.X.X.=.<.K :.k.p.a.3.c z z c { p.u.u.u.u.8.8.8.u.u.u.t.[ ..X.<.K Z 4XI.H.~ C Z S.S.M.oX*X%X XOX:XOX X XOX:XOX>X:X:X>X>X:X:X>XB. X X{.{.OX:X X>X>X>X>X>X,X<X<X",
"}.OXOX:XOX X}.}.:X>X>XOX X XOX>X:X>X>X>X:X:XOXOX>X:XOXOX>X>X>X*X,XE p ! rXs.1.=.=.-.<.&.Y h + (.k.u.p.p.p.p.i.a.u.u.u.u.u.u.8.u.u.u.u.u.u.t.2...X.:.h R =X*X=X<X=X=X=X=XOXOX X X:XOXOX X}.}.OX<X7XOXOX>X>X>X>XOXB. X X X>X>XOX:X>X>X>X>X>X>X>X>X",
" XOX:X:XOXOX X X:X:X>XOX X X:X>XOXOX:X>X>X>X>X>X:X:X:X:X:X:X:X:X>X=XL.g p l m P L v k d V ; S fXh.u.u.u.8.8.8.u.u.u.u.u.u.u.8.u.u.u.8.8.u.u.r.' ..=.^ 5 %XOXOXOXOX;X>X>X:XOXOXOXOX}.}.}.}.{. X>X<XOXOX:XOXOX:XOX{. X X X%XOX X%X>X>X>X>X>X>X>X>X",
"OX:X>X>X:XOXOXOX:X:X>X:XOXOX:X<XOX:X:X>X>X>X>X>XOX>X>X>XOXOX:X>X>X*X=X%XL.T T W T T F.&X4XB sXyXp.u.u.8.8.8.8.8.8.8.u.u.u.u.u.8.8.8.8.8.8.u.p.y._ X.=.j G XXG.B.}.OX>X>X%XOXOXOX}.{.{.}.}.}. X:X<XOXOX:X}.}.OXOX}.OX}.}.OX X}.OX>X>X>X>X>X>X>X>X",
"OX:X>X>X>X:X:X:X:X:X:X:XOXOX>X<X<X>X>X>X>X>X:X:X:X>X>X>X:X:X:X>XOXOXOXOX{.B.}.OX@XoX}.@XA.S.dXi.u.8.8.8.8.8.8.8.8.8.u.u.u.u.u.u.8.8.8.8.8.u.u.p.2.O.X.$.- J.B.B.}.OX>X>XOX X XOX}.{.}. XOXOXOX>X<XOXOX:X X}.OX X}. X{.B.}.}.}.OX>X>X>X>X>X>X>X>X",
":X:X:X:X>X>X:X:X:X:X:X:XOX:X:X>X7X>X>X:X:X:XOXOX:XOXOX:X>X>X:XOXOX:X:X X{.B.{. XOX}.{.U.D jXyXu.u.8.u.u.8.8.8.8.8.8.u.u.u.u.u.u.u.u.u.8.8.8.u.p.4...O.=.d R G.B. X;X>X>XOX XOXOX X}. XOXOXOX:X>X<X XOX:XOX X X{.[.}.B.Q }.}.}.OX>X>X>X>X>X>X>X>X",
":XOX:X:X>X>X:X:X>X:X:X:XOXOX:X:X>X:XOXOX:X:X:XOXOX X}. XOX:XOX}.:X>X>XOX X XOXOX:X}.B.V.D zXj.8.8.8.8.u.u.u.u.u.8.8.u.u.u.u.u.u.u.u.u.u.8.8.8.p.y._ ..=.L Z |.}.:X>X<X,X*XoXJ.|.oXoXOXOXOX XOX>X:X{.}.:XOX X}.B.{.}.{.B.}. X}.:X>X>X>X>X>X>X>X>X",
">X:X:X:X>X>X>X:X>X:X:X:XOXOXOXOXOXOX}. XOX:X:XOX}.}. X XOXOXOX X>X<X>X:X:X>X>X:X>XOX}.M.H zXk.8.8.8.u.u.u.u.u.u.8.8.u.u.u.u.8.u.u.u.u.u.u.8.8.u.y._ O.=.U C oX%X>X>X%X*XH y Z f t H.=X*X X{. X>X:X}. XOX X X X{.}.OX}.}.OXOX X:X>X>X>X>X>X>X>X>X",
">X:X:X:X>X<X>X>X>X>X:XOXOXOXOX XOX X}.}. XOXOX X{. XOX:XOXOXOX:X%X>X>XOX:X<X>XOX<X:XOXH.b.zXg.8.8.u.u.u.u.u.u.u.u.8.8.u.u.u.8.8.8.u.u.u.u.u.8.p.y._ O.=.! G $X:X:XOX+XA G jXlXaXP.s C %X XJ.OX<X:X XOX:X X}.OXOXOX:XOX X:XOX X:X>X>X>X>X>X>X>X>X",
" X}. X:X>XOXOX:X:X>X:XOXOX>X:XOX XOX>X>X:X:X:XOXOX%XOXOX XOX:X<X:X:X>X:XOXOX>X<X>X>X<XI.H zXk.8.u.u.u.u.u.u.u.8.u.8.u.8.u.u.u.8.u.u.u.u.u.8.u.p.w._ O.=.! H %X:XOXoXZ.t sXyXk.k.k.l.n * W oX@X>X}.OX:X>X:XOXOXOX}. X X X}. XOX>XOXOXOXOXOX>X>X,X",
" X}.OX:X:XOX X X:X>X:XOXOX>X:XOX X:X:X:XOX:XOX XOXOX:XOXOX XOXOXOX:X>X>X>X>X>X>X:X:X>X*XF zXtXi.9.p.u.u.u.u.u.8.u.8.8.8.u.u.u.u.8.u.u.u.u.u.u.p.3.....=.U S =X,X5X&Xy ).uXp.u.u.u.a.yX1.p * W ,X}.OX:X>X:XOX X X X X X X}. XOX>XOXOXOXOXOX>X>X>X",
" X XOX>X:X X{.{.OX:XOXOXOX:XOX XOX:X:XOXOXOXOX X XOXOXOXOX X}.{.OX:X>X>X>XOXOXOXOXOXOX*XD kXjXm ] a.u.u.u.u.u.8.u.u.u.u.u.u.u.u.u.u.u.u.u.u.u.t.' ..O.=.S R =X5X4Xy D.cXh.u.u.u.p.p.p.h.j.+.p s J.@X*X:X:XOX X XOXOXOXOX XOXOX>XOXOX*X>X>X*XOXOX",
"OXOXOX>X>XOX}.}.OXOXOX XOX:XOX X:X:XOX X XOXOX X XOXOXOXOX X}.}.>X>X>X:XOX}.B.B.}.}.OX+Xx.x.S %.uXp.u.u.u.u.u.8.u.u.u.u.u.u.u.u.u.u.u.u.u.u.p.q._ o.o.-.3 Z 4XH.e P.fXj.p.8.u.9.{ y.p.u.u.h.tX! % E +X,X>X%XOXOX>X:X:XOXOX:X:X>XOX*X>X>X>X*XOXOX",
">X:X:X>X>XOXOX:X:X:X:XOX:X>X>XOX>X>XOX X XOX:X XOXOXOXOXOXOXOXOX>X>XOX X}.{.B.B.{.}.OX+XC.# (.iXi.p.8.8.u.u.u.u.u.u.u.u.u.u.u.u.u.u.8.8.u.u.t.' ..o.X.%.3 6 ; 5 :.pXk.p.u.u.u.y._ _ q.p.u.p.h.uX>.* @ 4X,X>X>X:X<X>X>X>X>X>X>X>X*X>X<X<X,X>XOXOX",
"<X>X>X>X>X:X:X>X>X>X>X:X>X<X<X>X>X>XOX XOX:X:XOX:XOXOX XOX:X>X>X>X:XOXOXOXOXOX X}.OX*XH.; qXdXk.u.u.u.u.u.u.u.u.u.u.u.8.u.u.u.u.8.u.u.u.u.t.2._ O.X.=.b v *.3 0Xj.a.u.u.u.u.p.r....._ 4.r.p.a.] m h O 4X5X>X>X>X<X>X>X>X>X>X>X>X>X,X<X<X>X>X*XOX",
">X:X:X>X>X:XOX:X:X>X:X:X>X<X<X:X>X:XOXOX:X>X>XOX>X:XOX XOX>X>X>X>X:XOX:X:X>XOXOXOX*XU.; wXiXh.p.u.8.u.u.u.u.u.u.u.8.8.u.8.8.8.8.8.u.u.u.r.2._ O.O.X.-.4 | | e.k.p.u.u.u.u.p.4._ O.O..._ ' 3.q.e.| h o 2X*X>X>X:X>X>X:X:X>X>X>X>X<X>X>X>X>X>X>X>X",
":X:X:X>X>XOX XOXOXOXOXOXOX:X:XOX>X:X%XOX>X<X>XOX>X:XOXOX:X>X>X>X:X:X:X>X>X>XOXOX,X+Xt qXiXh.u.8.8.8.u.u.u.u.u.u.u.u.8.u.u.u.u.u.u.u.p.y.' _ O.O.o.;.b v X.3.p.u.u.u.u.u.p.q._ O.O.o.=.,.,.+.+.1.0X& # +XOX:X:XOX:X:XOXOX:X>X>X:X<X>X>X>X>X>X,X,X",
">X:X:X:X:XOX X}. X}.{.}. XOX X}.OX:X>X1X>X>X:X:X:X>X>X:X:X>X>X>X:X>X>X>X>X>X>X*X2X; /.iXk.p.u.8.8.8.u.u.u.u.u.u.8.8.8.u.u.u.p.p.t.y.2._ ....O.o.=.} 4 =. .w.p.u.u.u.u.p.w._ O.O.O.=.$.k h d 5 - f % V.XXOX>X>X>X>X:X%X:X:X>X>X>X>X>X>X<X>XOX:X>X",
":X:X:X:XOX}.}.}.}.}.}.}.}.}.}. X>X>X>X:X:X:X:X:X:X>X>X:X:X>X>X:X>X>X>X>X>X>X,X*Xt P.iXh.p.u.8.u.8.8.u.u.u.u.u.u.u.u.u.u.p.r.q.3.[ _ ..O.o.o.X.;.| 4 | X...w.p.u.u.u.p.q._ O.o.o.X.=.& M R H.H.M.G H.}.}.OX:X>X>X:X:X%X:X:X>X>X>X>X:X>X>X>XOXOX>X",
"OX:X>X:X X}.{.}. XOXOXOX}.}. XOX:X:X:XOXOXOX:X>X:X>X>X:X:X>X>X:XOXOX:X:X:X*X3Xy ( fXk.u.u.8.u.u.u.u.u.u.u.u.u.u.u.u.p.r.2._ _ ......O.o.O.X.-.P 4 } =.o.O.2.t.p.p.p.4._ O.o.o.X.=.L % I.XX X|.}.oXoXOXOXOXOX>X<XOXOXOXOXOX:X:X>X<X:X:X>X>X:X:X:X",
"OXOXOXOXOX}.}.{.OXOXOX X X}. XOXOX:X:XOX X XOX>XOXOXOXOXOX:X:XOX}.}. XOXOX+XD H fXj.p.8.8.8.u.u.u.u.u.u.u.u.u.u.p.t.4._ ..O.O.O.O.o.o.X.X.=.v 4 | ;.o.o.O...' 4.4.[ _ O.o.o.o.X.&.$ M.OXOX X XOX XOX:XOX X XOX>X}. X X X X XOX:X>XOXOX:X>X:XOXOX",
" X}.{.}.OXOX}.{.OX}.{.{.{.}.}.{.OX:X>XOX X}.}. X X X X}. XOXOX}.{.}.}.XX#XF Z lXj.p.u.8.8.8.u.u.u.u.u.u.u.u.u.p.w.@._ ..O.O.O.O.O.X.=.-.P 4 v =.X.o.o.o.o.O..._ ....O.O.o.o.o.=.V f =X>XOXOX:X>XOX:X>X:X X}.}.OX}.}.}.}.}.}. XOXOX X}. XOX X}.}.",
"}.{.B.{.OXOX X{.OX X{.{.}. X X}.>X<X<X:X}.B.B.{. X X}.}. XOXOX}.}. XOX+XN.B lXpXa.8.8.u.8.8.u.u.8.u.u.u.u.p.r.[ _ ..X.X.X.X.=.=.<.*.P 7 7 } =.X.O.O.o.o.o.O.o.o.o.o.O.o.o.o.=.$.$ I.,X>X>X>X>X<X:X>X>X:X X}.}. X X X}.}. X X X X X{.{.}.}.{.{.}.",
"OX}.}. X:X:XOX X>X:XOXOXOX:X:X>X>X<X<X>X}.{.}.OXOXOX X XOX>X>XOXOXOX@XU.t eXpXi.p.8.u.u.u.u.u.8.u.u.u.p.t.4._ ....X.=.-.&.&./ V d & $ / <.X.X.o.O.o.O.o.o.O.o.o.o.o.o.o.O.X.<.6 Z *X>X>X>X>X>X>X>X>X<X>XOX X XOX>XOX X XOX:XOX X X X XOX X}.}. X",
":X:X:X>X>X>X>X:X:X:X:XOXOXOX>X<XOX>X>XOX X X:X7X>X*X*X+X5X7X<X:XOX@X+Xe qXfXh.u.8.8.u.u.u.u.u.u.u.p.p.y.' ` X.X.,.%.v 3 3 3 5 Z M.Y.G d $.,.X.X.o.O.o.o.o.o.o.o.o.o.o.o.X.<.L - $XOX%X>X>X>X>X>X>X>X<X>X:XOXOXOX7X>XOXOX>X<X>XOX:X:X>X>X:XOXOX>X",
"OX:X>X>X:X:X:X:X>X<X>XOXOX>X<X>X<X>X:X:X>X>X>X>X6X3XF u F 4X>XOX>X3XF P.hXg.p.u.8.8.8.8.8.u.u.u.p.r.3._ .. .,.&.V % M F.L.L.|.,X,X=X=XE - L <.=.o.O.o.o.o.o.o.o.o.o.O.X.-.^ % K.OXOX>X>X>X:X>X>XOX:X>XOXOX:X>X>X9X;X X:X<X<X:XOX<X>X>X:X>X>X>X>X",
":X:X>X>X:X:X:X>X:X>X>XOXOX>X>X:X;X;X:X:X>X>X>X>X5XH > kXH F &X=X3XM.H xXj.u.u.8.8.8.8.8.u.u.p.p.4._  .X.=.:.L * B I.*X*XOX XOX<X:X:XOXoXI.C d ! ,.=.X.X.o.o.o.o.X.X.X.<.P % F.@X X XOXOXOXOXOXOX}.OX:XOXOX>X>X>X1X;X X:X<X>X:X:X<X>X>X>X>X>X>X>X",
":X:X>X>X:X:X:X>X:X>X>X:X:X>X>X:XOXOXOX:X>X>X:X@XY.> D./ eX/ M N F S lXyXa.u.8.8.8.8.u.u.u.p.r.2._  .X.:.Y & e F.$X%X%X X}.OX:X>XOXOXOX}. X$XE - d / <.=.X.X.X.X.X.=._.j % M.oX X{.{.}.}.}.}.{.}.G. XOXOXOX>X<X>X>XOXOX%X>X>X:X>X>X:XOX:X>X>X>X>X",
":X>X>X:X:X:X:X>XOX:X>X>X>X>X:XOX X XOXOX:X:XOX+Xz.D U 1.tXiXsXqXD.sXuXi.p.8.8.8.8.u.u.p.p.4._  .X.<.^ 3 - M.*X*X X:X:X}.{.OX:XOX}. XOX X}.}.oX$XW s 3 n $.%.%.%.! j & f J.XX}.}.B.G.{.{.{.}.}.}.G. XOXOX:X>X>X>X:X:XOX%XOXOX:X>XOXOX XOX:X:X:X:X",
":X:X:X:XOXOX:X>XOXOX:X>X>X:XOXOXOX X XOXOXOX XXXt H 0.e.h.i.h.k.k.k.p.u.u.8.8.u.u.u.p.y.[ _ O.=.&.h % G $X%X*X*X X:X>XOX X:X:X X{. XOXOX X X X|.oX%XL.S f s s e e A F.$XoX X}.}.{.{.{.}. X XOXOX}.OX:X:X:X>X>X:X:X>X>XOXOXOX:X:XOXOXOXOX:X>X>X:X",
":X:X:XOXOXOX:X>XOXOX:X>X>X:XOXOXOXOX X}.}. X}.|.; ~ ) h.p.8.8.8.u.u.8.8.8.8.8.u.u.t.4._  .X.<.P & Z &X*X*X:X>X:X%X>X<X<X>X>X:XOX}.OX>X:XOXOX X}.OX>X*X*X3X5X*XoX*X*X>X>XOXOX XOX X X X XOX:X:X:XOX:X>X:XOX:XOXOX:X>X:XOX XOXOXOXOXOXOX:X>X<X>X>X",
"OXOXOXOX XOXOX:X:XOXOX>X>XOXOX:X:XOX}.{.{.}. XoX= ~ tXa.p.8.8.8.8.8.8.8.8.u.u.p.r.[ _ X.=.&.h % F.=X=X,X<X>X>X>X>X:X:X>X>X:X:X>XOX:X:XOX:X>X:XOX:X>X>X%X>X<X,XOXOX>X>X>X:XOXOX:X:XOXOXOX:X>X>X>XOX>X>XOXOXOXOX XOXOXOX}.}.OXOXOXOXOXOX:X>X>X>X:X",
"OXOXOXOX X XOX:X:XOXOX>X>XOXOX:X:X X{.B.{.}.OX%XE * m j.p.u.8.8.8.8.8.8.8.u.p.y._ ..X.<.^ & B &XoXOX:X>X>X>X>X>X>XOX X:X>XOXOX<X<X>X:XOX:X>X>X:X:X>X:X:X:X<X>X:X XOX>X>X:X:X:X>X<X>XOXOX:X>X:X:XOX>X:XOX X XOX X XOX}.B.{.OXOX XOXOXOXOX:X:XOXOX",
"OX}.}. X:X>XOX}.OX>X<X>X:XOXOXOX XOX%XOX XOXOX X}.F.* >.k.u.8.8.8.8.8.8.u.p.w._ ..X.<.L - R oX7X%XOX X X X XOXOXOXOXOXOXOXOXOX>XOX>X>XOXOX:X>X>XOXOXOX XOXOX:X:X X XOX:X>X>X>X:X>X>X:X:X>X>X>X<X>XOX XOX:XOX X X{.{.}. X}.{.}.OX XOX>X:X>X>X>XOX",
" X}.}. XOXOX X}.OXOX>X>X:X:X:X:XOX>X>X%XOX:X:XOXOX%XR * 1.k.p.u.u.8.u.u.u.y._ O.X.<.j * I.XX X:XOX X}. X XOX%X:XOX X XOXOXOX:X>X:X>X>XOXOXOXOXOX X X}.}.}.}.}. X}.}. XOX:X>X>X:X:X:X:X:X:X>X>X>X>XOX XOX:X:XOXOX}.}. XOX X}.}.OXOX:X>X:X>X>X>XOX",
"}.OXOXOXOX X X X XOXOX:X:X:X>X>X>X>X>XOXOX>X>X>X>X,X=XW 3 >.d.p.u.u.u.u.t.[ _ X.<.j % I.%XOX X X X X}.}. XOX:X>X:X X}.OX:X:X:X>X:X>X>XOX X X X X X X}.{.{.{.{.{.{.}.}.OX:X>X:X:XOX:X:X:X:X:X:X:X:XOX XOX>X>X:X:X XOX:X>XOX X X:XOX>X>X>X>X>X>X:X",
"}.OX>X:X X}.}.OXOXOX:X:X>X>X>X>X>X>XOX XOX>X<X>X>X>X>X=XR * | e.r.p.p.t.3.`  .<.L * &X@X%X<X:X XOXOX X XOXOX:X>X>XOX}.OX>X>X:X:X:X>X>XOXOXOX X}.OXOX X}.}.}.}.}. X XOXOX>X>X:XOXOX:X>X>X>X:X:X:X>XOX X:X>X>X>X>XOXOX>X>X:XOXOX:X:X>X<X>X>X>X>X:X",
"}.OX:XOX}.{.}. X:X:X:X:X>X>X>X>X:X;XOX}. X>X>X>X:X:X>X>X=X~ % K >.#.@._ ..X.<.P % &X6X%X>X7X>X X:X:XOXOXOX:X:X>X<XOXOX:X>X>X:XOX:X>X:XOXOXOXOX XOXOXOXOXOXOXOXOXOXOXOX:X:X:XOX X XOX:X:X:XOXOX:X>XOXOX:X>X>X:X:X:X:X>X>X:X XOX>X:X>X>X:X:X>X>X:X",
"%X:X:X:XOX XOXOX>X:X:X:X:X>X:X:X;XOX X}.OX>X<X>X:X:X:X:X>X6X&XB 3 L %.=.,.<.! $ F.5X,X:X>X<X:X X>X>X>X:X:X>X>X>X<X:XOX:X>X>X:X:X:X:XOX X XOXOXOX X X XOXOXOXOXOXOXOXOXOXOXOX X}.}.OXOXOXOX XOXOX>XOXOX:X>X>X>X:X>X>X>X:XOX XOX>X:X>X>XOXOX>X>X>X",
">X:XOXOX:X:XOXOX:XOXOXOX:X:X:XOXOXOX}.}.OX>X<X:XOXOXOXOX:X>X,X6XR e # 5 h - # E *X%X>X:X:X%XOX}.:X:X:X>X>X>X>X>XOXOXOX:X>X:X:X>X>X:XOX}.}.OXOX X}.}. X X XOX X XOXOXOX%X:XOX X}. XOX:XOX X XOX>X:X X X:X>X>X>X>X<X>X>X:XOX XOX>XOX:XOX XOX:X>X>X",
":X X{.}.OXOX X{.OXOX X XOX:XOXOX X X}.{. X>X>XOXOXOX XOXOXOXOXOX@X5XI.I.-XI.V.XXOXOX:X>X:XOX X XOXOX:X:X>X>X<X<X}.}. X:X:XOX:X>X>X:X X{.{. XOX X}.}.}.}. X X X}.:XOX:X>X>X>XOXOXOX:X>X:XOXOX>X<XOX}.}.OX>X>X>X<X7X<X>XOX X}.OX<XOXOXOX X X:X>X>X",
"OX X}.}.}. XOXOX}. X:X>X:X:XOXOX X XOXOX>X>X>X>X X:XOX X:X:X X XOXOXOXoX{.J.}. XOXOXOXOXOXOXOX:X XOX X}. X>X:X}.OXOXOXOXOXOX:X>X:XOX X}. X X X}.>X:XOX}.}.}. XOXOXOXOX>X>X:X:X<X:X:X:X>X>X>X>X>X X X XOX>X<X>XOX<X>XOX X}. XOXOX}.OXOX X X:X:XOX",
"OXOX}.}. XOXOXOX XOX:X>X>X:X:X:XOXOXOX>X:X>X>X>XOX<X:XOX>X>XOXOX:X:X%XOX X X XOXOXOX:X:X:X:X:X>X}.OXOX XOX>XOXB.OX X X XOXOX:X>X>X:XOXOXOXOXOX X>X>XOX X X XOXOXOXOXOX>X>X:X>X<X>X>X>X>X>X>X>X:X X XOX:X<X>XOX}.:XOX X}.{. XOX:X XOX:XOXOX:X:XOX",
":XOX X XOX:X:X>XOX:X>X>X>X>X>X>X:X:X:X:X:X:X>X>X:X<X:XOX>X>X:X:X>X>X:X:X:XOXOXOX XOXOX:X:X:X>X>X XOXOXOXOX:X XQ OX X}. XOX:X:X:X>X>X:X:X>X:XOXOX>X:XOXOX XOXOXOX X XOX>X>X:X:X<X>X>X>X>X:X:X:XOX X XOX:X>X:X X{.OX X{.{.{. X:X>XOX:X:X:X:X:X:XOX",
"OXOX X XOX:X>X>X:X:X>X>X:X>X>X<X>X>X:X:X:X>X>X>X:X<XOX}.OX>X:X>X>X:XOX:X>X:X%X X}.}.OXOXOXOXOX:XOXOX:XOXOX:X X{.:XOX X X:X>X>XOX>X:X:X>X>X:XOXOX>X:XOXOXOXOXOX X}.}. X:X:XOXOX>X>X:X:XOXOXOXOX:X X XOXOXOXOX}.{. X}.}.}. XOX:X>X:X>X>X>X>X>X:XOX",
"OXOX}. XOX:X>X>X:X:X:X:X:X:X>X<X:X:X:X:X>X>X>X>X;X<XOX}.OX>X:X>X>X:X:X:X,X>XOX X{.}. X X X XOXOXOX:X:XOX:X:X:XOX>XOXOXOX>X<X>X:X>X>X:X>X>X>X:XOX>X:X:X:X:X:XOX X}.}. X:X:XOXOX>X>X:XOX XOXOX>X<XOXOXOXOXOXOXOXOXOXOXOX:X>X>X:X:X:X:X>X>X>X>X:X:X",
"OXOX}.}. XOX:X:XOX:X:X:X:X:X>X>X:X:X:X:X:X:X>X>X;X<XOX}.:X>X:X>X:X:X>X>X<X>X%XOX{.}. XOXOXOXOXOXOXOX:X:X:X>X>X>X>X:X:X:X>X<X>X>X>X>X>X>X>X>X>X:X<X>X>X<X<X>X:X X X XOX:X:XOXOX>X>X:XOX X XOX>X<X:X:XOXOXOXOX:X>X:X:X>X<X<X>X>X:X:XOX:X>X<X:X:X:X",
":XOX X}. XOX:X:XOX:X:X>X:X:X>X>X>X>X:XOXOXOX:X:XOX>XOX}.OX:XOX:X XOX:X>X>XOX X X{.}. XOX X X XOXOXOX:X>X>X:X:X:X:X:X>X>X>X>X>X>X>X>X:X:X:X>X:X:X>X>X:X>X<X>XOX}. X XOX:X:XOXOX:XOXOX X}. X XOXOX%XOXOXOXOXOXOXOX>X>X>X>X>X>X>X>XOXOXOX>X>X:XOX:X",
":XOX X XOXOX:X:XOX:X>X>X>X>X>X>X<X>X:XOXOXOXOXOX}.OX}.{.OXOX X.X{. X:X:XOX X}.}.{.}. XOX X X}. X XOX:X<X>X:XOXOX:X:X>X>X>X:X>X>X>X:XOXOXOXOXOXOXOXOXOX:X>X:X X{.}.}. XOXOX}.}. X}.}.}.}.{.{.{.{. X X X X}.}.}.}.<X>X:XOXOX:X>X>XOX XOX>X>XOXOX:X",
" XOX>X<X>XOX:X<X<X>X:X:X>X>X>X:X>X>X>XOX X{.{.{.}.{.{.{. XOX X}.{.}.OXOXOX X{.B.B.B.{.}.}.{.{.}.OXOXOX:X>X>XOXOX{.}.OXOXOX XOXOX X X X X X X X XB.}.:X>X>X:XOXOXOX}.{.{.{.{.{.{. X{.Q B.{.{.{.{.}.}.B.B.}.{.{.OX>X>X>X>X:X:XOXOXOX X}. XOX:X:XOX",
"}.}.OX:XOX XOX:X<X>X:X:X>X>X>X>X>X>X>XOX X}.{.}.OX}.}. XOX:XOX X}.OXOX>X%XOX}.{.}.{.{.}.OX X}.}.:X:X:X>X>X>X:XOX{.}. X X X X X X}.}.}.}. X}. X X}. X:X>X>X:XOXOXOX X}.}.}. X X XOX}.{.}.}.{.{.}.{.}.B.B. X}.{.OX>X>X>X:X:X:X:XOX:XOXOXOX:X:X:XOX",
" X X XOX%XOXOX:X<X>X:X>X>X>X>X>X:X:X:X:XOX X X X:XOXOXOX:X>X:XOXOXOX>X>X>X*XOXoX:X}.}.OX:X:XOX X:X:X:X>X>X>X:XOX X X X X XOX X X X X X X X XOXOXOXOX>X>X>X:X:X:XOX X X XOX:X:XOX>X:XOXOXOX}. XOX{. X{.}.OX X}.OX>X>X>X:X:X:X:X:X:X:X:X:X:X:XOXOX",
":XOX X%X>X>X>X>X>X>X:X>X>X>X>X>X:X>X>X>X:XOX:X:X>X:XOX:X>X>X>X:XOX>X>X<X<X>X*XOX>XOX X:X>X>X:XOX:X:X:X:X>X>X:XOX>X:XOXOX:X:X:XOXOXOX:X:X:X:X:X:XOX:X:X:X:X:X>X>XOXOXOX:X>X>X>X:X>X>X>X,XOX XOX>X}. X XOX>XOX X>X<X>X:X:XOX:X:X>X:X:X:X:X:X:XOXOX",
">XOX XOX>X>X:X:X:X>X>X>X>X>X>X>X:X>X>X>X>X>X>X<X>X:X:X:X>X>X>X>X*X>X>X>X<X,X>X>X>X:X:X>X>XOXOX>X>X:X:X:X>X>X:X:X<X>X:X:X>X>X>X:X:X>X>X>X>X>X>X:XOXOXOXOX:X>X>X>X:X:X:X>X>X>X:X:X>X*X>X<X>XOX>X<X X:XOX:X<XOXOX>X<X>X:X:X:X:X>X>XOX:X>X>X>X:X:XOX",
">XOXOX:X>X:X:X:X:X>X>X>X>X>X>X<X>X>X>X<X>X>X>X<X>X>X>X>X>X>X>X>X>X>X>X>X,X,X>X>X>X:X:X>X%XOXOX>X>X:X:X:X>X>X>X:X>X:X:X:X>X>X>X:X:X>X>X>X>X:XOXOXOXOXOXOX:X>X>X>X:X:X:X>X>X>XOXOX*XOX@X,X,X*X>X<XOX>X>X>X<XOXOX<X>X>X>X:X:X>X>X>X:X>X>X>X>X:X:X:X",
":XOXOX:X:XOX XOX XOXOX:XOXOXOX:X:X>X>X>X:X:X:X>X>X>X>X>X>X>X>X>X>X>X>X>X>X,X<X<X>X:XOX:XOXOXOXOX:XOXOXOXOX:XOXOXOX:X>X>X>X>X>X>X:X>X>X>X:X%XOX XOXOX XOXOX:XOXOXOXOXOX:X>X%XOX}.>X@X@X>X<X>X>X>XOX>X>X:X>XOX X>X>X>X>X>X>X>X>X>X:X:X>X:XOXOXOXOX",
"}.}.}. X}.{.B.B.B.{.}. X}.}.}. X:X:X>X:XOXOXOX:X>X>X>X>X>X>X>X>X>X>X>X>X,X<X<X<X<XOX}. XOXOX X}.OX X}.}. X X X XOX:X<X<X>X>X>X>X>X>X>X>X:XOX X}.OXOX X XOXOXOX}. X XOXOX>XOX X}.<X*X@X>X5X>X*XOXOX>X>X:X:X}.}.>X:X>X>X>X>X>X>X>X:X:XOXOX}.{.}. X"
};
