/* XPM */
static char *_2c0befa90784e08e0a2a1034e021daaNdbycjm7DTyCvFox[] = {
/* columns rows colors chars-per-pixel */
"120 120 256 2 ",
"   c #3E2F27",
".  c #43342A",
"X  c #48382C",
"o  c #473635",
"O  c #4A5C02",
"+  c #565C03",
"@  c #5A5A16",
"#  c #675B18",
"$  c #4B6202",
"%  c #576407",
"&  c #5C6217",
"*  c #68670A",
"=  c #696517",
"-  c #726717",
";  c #726C0E",
":  c #5E4B3A",
">  c #585426",
",  c #675727",
"<  c #644E3C",
"1  c #695539",
"2  c #715A2F",
"3  c #6A6223",
"4  c #7B6A3A",
"5  c #797032",
"6  c #5F612A",
"7  c #763958",
"8  c #743B79",
"9  c #6F3B6E",
"0  c #54385D",
"q  c #5C4843",
"w  c #684C49",
"e  c #6A5346",
"r  c #7C5D4A",
"t  c #775C47",
"y  c #6B4C58",
"u  c #734D5A",
"i  c #7C5B52",
"p  c #785557",
"a  c #6A5559",
"s  c #7A6B44",
"d  c #7B6547",
"f  c #757648",
"g  c #6B4768",
"h  c #764968",
"j  c #6B5564",
"k  c #785465",
"l  c #6A4875",
"z  c #784876",
"x  c #735678",
"c  c #787172",
"v  c #B94F3A",
"b  c #A95637",
"n  c #BC523C",
"m  c #B5553B",
"M  c #A3493C",
"N  c #8F743A",
"B  c #945C2C",
"V  c #87394E",
"C  c #835858",
"Z  c #8C5552",
"A  c #B95347",
"S  c #B24D5D",
"D  c #AE4F50",
"F  c #836346",
"G  c #836449",
"H  c #866745",
"J  c #866256",
"K  c #94675D",
"L  c #93734E",
"P  c #A67749",
"I  c #A67C59",
"U  c #B16A50",
"Y  c #885968",
"T  c #844A78",
"R  c #8A5976",
"E  c #9A5A79",
"W  c #925568",
"Q  c #AD556B",
"!  c #966866",
"~  c #936B74",
"^  c #A67A67",
"/  c #A8797A",
"(  c #B06C75",
")  c #B85A44",
"_  c #799601",
"`  c #6F9107",
"'  c #798733",
"]  c #75A307",
"[  c #879702",
"{  c #989901",
"}  c #879611",
"|  c #A4980D",
" . c #88A509",
".. c #97A813",
"X. c #B0AB14",
"o. c #8B8A33",
"O. c #AF9331",
"+. c #98B637",
"@. c #B6AA2D",
"#. c #C2A727",
"$. c #888A43",
"%. c #8C9345",
"&. c #938D51",
"*. c #B58457",
"=. c #B39A5B",
"-. c #AA8D4F",
";. c #9EBE43",
":. c #9CB14A",
">. c #9DA553",
",. c #AAA957",
"<. c #B3A55C",
"1. c #A9B859",
"2. c #B3B85C",
"3. c #A7B048",
"4. c #918A6B",
"5. c #AD8364",
"6. c #B68A67",
"7. c #BB9967",
"8. c #B78A76",
"9. c #B79175",
"0. c #B8A466",
"q. c #ABBC68",
"w. c #B8B964",
"e. c #B2B376",
"r. c #9EA771",
"t. c #C5966D",
"y. c #C49A6D",
"u. c #C8996F",
"i. c #C79567",
"p. c #C39672",
"a. c #C69972",
"s. c #CB9B72",
"d. c #CA9A7B",
"f. c #D19E79",
"g. c #C48D6C",
"h. c #C8A675",
"j. c #D4A37A",
"k. c #DAA57C",
"l. c #D9A67A",
"z. c #C7AF70",
"x. c #D7A070",
"c. c #A1C146",
"v. c #A5C54B",
"b. c #A8C74D",
"n. c #A9C94E",
"m. c #A7C94E",
"M. c #ADCD52",
"N. c #ACC658",
"B. c #B0CE56",
"V. c #B2CD5B",
"C. c #B5C65D",
"Z. c #AFD156",
"A. c #B1D156",
"S. c #B4D45A",
"D. c #B8D95E",
"F. c #B8D65E",
"G. c #B5CB63",
"H. c #BACD63",
"J. c #B6C767",
"K. c #BAD663",
"L. c #B8C577",
"P. c #AEC465",
"I. c #9EC045",
"U. c #C0C862",
"Y. c #743A87",
"T. c #6D4788",
"R. c #76498A",
"E. c #724499",
"W. c #6E4890",
"Q. c #7B5C8C",
"!. c #854888",
"~. c #945888",
"^. c #945796",
"/. c #8A518F",
"(. c #976386",
"). c #917584",
"_. c #B0728C",
"`. c #9450AC",
"'. c #A35BB2",
"]. c #B76EBB",
"[. c #BA78B8",
"{. c #AB6AB0",
"}. c #A16E9A",
"|. c #C17489",
" X c #C47BBB",
".X c #B66CC7",
"XX c #BB77C6",
"oX c #B669D6",
"OX c #BD77D7",
"+X c #AC66CB",
"@X c #BA6AEA",
"#X c #A154C9",
"$X c #C67AC9",
"%X c #C57AD8",
"&X c #C779E7",
"*X c #C874F1",
"=X c #8133A1",
"-X c #938E8E",
";X c #BA8987",
":X c #BC8594",
">X c #B49A98",
",X c #AD9587",
"<X c #BAB885",
"1X c #B4A98D",
"2X c #B895A6",
"3X c #BA89B7",
"4X c #B48EAB",
"5X c #A6A4A7",
"6X c #B3B2B5",
"7X c #9E9DA1",
"8X c #C3898A",
"9X c #CA9886",
"0X c #D29D85",
"qX c #C58794",
"wX c #CB9794",
"eX c #D39A98",
"rX c #D9A587",
"tX c #DBA393",
"yX c #D7A496",
"uX c #CCAD8F",
"iX c #E4AC86",
"pX c #E9B287",
"aX c #E5AA96",
"sX c #EAB297",
"dX c #C789A7",
"fX c #D89BAA",
"gX c #C885B7",
"hX c #D48DB7",
"jX c #D895B5",
"kX c #CB92AE",
"lX c #E19DB1",
"zX c #D6ADA9",
"xX c #E7A8A7",
"cX c #ECAAB0",
"vX c #EA9995",
"bX c #BDC382",
"nX c #BBCEB0",
"mX c #EAC6B1",
"MX c #CFCAA0",
"NX c #BE97C4",
"BX c #C686C7",
"VX c #D48BC7",
"CX c #C984D8",
"ZX c #D88ED2",
"AX c #E39ACC",
"SX c #CCB7CC",
"DX c #CF86E6",
"FX c #E3A6D8",
"GX c #A8EDDA",
"HX c #D2CFD3",
"JX c #ECDBEC",
"KX c #EBE6EA",
"LX c #FFFAFE",
"PX c #FBF5FA",
"IX c #FAF1EE",
"UX c #DBDBD6",
/* pixels */
"v.;.+.c.c.c.c.v.c.c.c.c.c.v.v.v.M.b.b.M.b.c.b.S.A.A.M.M.M.M.A.S.M.M.M.A.A.M.M.S.S.A.M.M.M.M.M.b.b.b.b.M.M.M.b.v.S.S.S.S.A.M.A.S.S.F.F.A.M.M.v.c.+.c.v.b.v.c.v.b.M.;.;.v.v.;.;.M.A.M.A.S.D.D.S.M.A.F.S.M.v.b.b.v.M.M.A.S.F.S.S.S.K.S.M.b.b.b.v.c.",
"M.v.c.b.M.b.b.M.v.v.v.v.b.b.M.M.b.v.b.b.b.v.M.D.M.M.b.b.b.b.M.M.M.b.b.M.A.A.A.S.S.A.M.M.A.A.M.M.M.M.M.M.M.M.b.v.A.S.S.S.A.A.S.S.A.S.S.M.M.b.v.;.;.c.b.M.b.v.b.M.M.v.c.b.M.v.b.S.S.A.S.S.F.S.S.A.A.A.M.b.b.M.M.v.M.A.A.S.S.S.S.A.S.A.M.b.M.M.M.M.",
"A.M.M.A.S.A.A.A.M.M.M.M.A.A.A.S.b.b.b.b.v.v.M.S.b.b.b.b.b.b.b.b.M.v.v.M.S.S.S.S.A.A.A.A.S.S.A.M.A.S.S.S.A.M.M.M.M.Z.A.A.A.A.A.S.A.S.S.A.M.M.b.c.c.b.M.M.M.b.M.M.b.M.M.M.M.A.A.S.A.S.S.S.S.A.A.M.A.A.M.b.M.S.A.M.S.S.A.A.A.A.A.A.A.M.M.M.M.A.S.S.",
"S.S.S.S.D.F.S.A.A.S.S.S.S.S.S.S.M.M.b.v.c.c.v.M.M.M.b.M.M.M.M.b.M.v.v.M.S.S.S.A.A.A.S.S.S.S.S.A.A.S.F.S.A.M.A.S.M.A.S.S.A.A.A.S.S.D.D.S.A.S.A.M.b.M.A.A.A.M.A.A.b.A.A.M.M.S.S.M.M.A.S.S.M.b.b.M.S.S.A.A.A.S.S.A.S.S.A.M.M.M.A.A.S.S.A.A.A.A.A.A.",
"S.S.S.S.S.F.S.M.F.F.S.S.S.S.S.A.M.M.b.v.c.c.v.b.M.M.b.M.M.M.M.b.M.v.v.M.S.S.A.M.A.A.S.S.S.S.S.S.A.S.S.A.M.M.S.D.S.F.D.F.S.A.A.A.S.F.F.S.S.S.S.A.M.A.A.S.A.A.S.S.M.S.S.M.M.S.S.M.b.M.M.M.b.v.v.b.A.S.F.S.M.b.M.S.S.A.M.M.M.M.A.S.S.S.S.S.A.A.A.A.",
"A.A.S.A.A.S.S.M.S.S.S.S.S.A.A.A.b.b.v.c.c.b.M.M.M.b.v.v.b.M.b.v.M.v.v.M.S.A.M.M.A.A.S.A.M.M.A.S.A.A.M.M.M.M.M.S.M.M.A.A.M.b.v.v.b.M.A.M.M.S.S.A.A.A.A.S.S.S.S.S.S.D.F.M.A.S.S.M.b.b.M.M.b.v.b.b.M.A.S.S.b.c.v.A.A.A.M.M.M.A.S.F.A.S.S.S.S.S.S.F.",
"S.S.A.M.M.S.S.M.A.A.A.A.A.A.A.A.b.M.b.v.v.M.S.A.M.v.c.c.v.b.b.v.v.v.b.M.S.A.A.S.S.S.A.M.b.b.M.S.S.M.b.v.v.b.b.b.c.v.v.v.c.c.;.;.c.v.b.v.M.A.S.A.S.A.A.A.S.S.S.S.S.S.A.M.M.A.S.S.M.b.b.M.M.M.M.M.A.A.S.S.M.v.v.A.A.A.A.A.A.S.S.S.M.A.S.S.S.S.S.D.",
"S.F.S.M.M.S.S.M.M.M.M.A.A.S.S.S.A.S.M.b.b.A.S.A.M.b.c.c.b.M.b.v.c.c.b.A.A.A.A.F.S.S.A.M.v.v.M.A.F.M.v.c.c.v.c.c.c.v.v.b.v.c.c.c.;.c.v.v.b.A.S.S.S.A.A.A.A.S.S.S.A.M.b.b.M.M.M.S.Z.M.b.M.A.S.S.S.D.A.A.S.A.M.M.S.A.A.A.A.A.S.S.S.A.S.F.S.S.A.S.S.",
"A.A.M.A.S.S.A.M.M.M.M.M.M.A.S.S.S.S.S.A.A.A.A.S.S.v.+.;.c.c.v.M.+.;.v.b.M.M.M.A.A.M.b.M.M.M.A.S.M.b.v.v.M.M.M.v.v.b.M.v.b.M.A.b.v.v.b.M.S.S.A.M.M.M.M.b.b.A.A.A.A.A.M.v.v.M.M.M.b.c.v.A.D.F.S.S.S.S.M.M.M.M.A.M.M.A.A.A.A.A.A.A.M.A.S.S.M.M.S.D.",
"S.A.A.S.S.F.S.M.M.M.M.M.A.A.S.S.F.S.S.S.A.M.M.M.M.v.;.c.v.v.v.M.c.v.M.M.M.A.A.S.S.A.A.S.S.A.A.S.S.A.M.M.S.S.S.M.M.S.S.M.M.A.M.b.A.Z.M.A.F.F.S.M.v.b.b.v.v.M.M.b.M.M.v.c.v.b.b.v.v.c.v.A.S.M.M.M.b.M.M.M.M.M.M.M.A.A.A.A.A.A.A.A.M.S.S.A.M.M.A.F.",
"A.A.A.A.S.S.A.M.M.M.A.S.S.S.S.S.S.S.S.A.A.A.A.A.M.M.M.M.A.M.M.A.M.M.A.A.A.A.S.S.S.S.S.F.S.A.M.A.K.S.S.S.F.D.D.S.S.F.S.A.M.A.M.M.S.S.A.A.S.S.S.M.c.v.b.v.v.b.b.v.M.M.M.v.b.M.M.b.v.b.M.S.A.b.v.v.v.b.M.M.M.b.M.M.S.A.A.A.M.A.A.S.Z.A.A.M.M.M.A.F.",
"A.A.A.A.A.A.A.M.M.A.S.S.F.F.S.S.A.S.A.A.S.S.F.D.A.A.S.F.S.S.S.D.A.A.S.A.M.M.A.S.S.S.A.S.A.M.b.M.D.S.A.S.S.F.S.S.A.A.A.M.M.A.M.M.A.M.b.b.M.A.A.M.v.b.M.b.b.b.b.c.M.A.M.M.M.A.M.b.v.b.S.D.A.b.v.b.b.M.A.A.M.b.M.S.A.A.M.M.M.M.M.A.M.M.M.b.b.M.A.F.",
"A.A.A.A.A.A.A.A.A.A.S.S.F.S.S.S.S.A.A.S.S.S.F.D.A.S.S.S.A.S.S.S.A.S.S.A.M.M.A.S.D.S.A.A.M.b.M.M.S.S.A.A.S.S.S.S.A.A.M.A.M.M.M.M.M.b.v.v.b.M.M.M.v.b.M.b.b.b.v.c.v.b.b.v.v.b.v.;.;.b.S.S.A.M.b.M.A.M.M.M.v.c.b.S.M.M.b.b.v.b.M.M.v.v.v.b.b.M.A.S.",
"A.S.S.A.A.A.A.S.A.A.S.S.S.S.S.S.S.S.S.A.A.A.A.A.S.F.S.A.A.S.S.S.A.S.S.S.S.A.S.S.D.S.A.A.M.M.M.S.S.S.S.S.S.S.S.S.D.S.A.S.A.M.b.M.S.M.b.b.M.M.M.b.v.b.b.v.v.v.v.c.v.b.v.c.c.v.c.;.;.v.A.A.M.M.M.M.A.b.v.b.v.;.v.A.M.M.M.b.b.b.b.b.v.v.v.b.M.A.S.S.",
"M.A.A.M.M.M.A.S.A.A.M.M.A.A.A.A.S.S.A.M.M.M.M.M.F.D.S.M.S.D.F.M.M.M.A.S.A.A.A.S.S.M.M.A.M.M.M.S.S.S.S.S.S.S.S.S.D.S.A.S.S.M.b.M.S.A.M.M.A.S.A.M.b.M.b.v.v.b.b.v.M.M.M.b.b.M.b.c.;.b.M.M.M.A.A.M.A.v.c.b.v.c.v.A.A.A.A.M.M.M.M.M.b.b.M.M.A.S.A.A.",
"b.M.M.b.v.v.b.M.A.M.M.M.M.M.A.A.M.M.M.b.b.b.M.M.A.A.M.M.A.S.M.c.v.b.M.M.M.M.M.M.b.b.b.M.A.M.M.M.S.S.S.S.A.A.S.S.A.M.M.A.A.M.M.A.A.M.M.M.S.F.S.A.M.A.M.b.b.M.A.M.A.A.M.b.b.M.M.v.c.M.A.M.A.S.S.A.A.v.c.M.M.b.b.A.S.S.S.S.S.A.A.M.M.M.A.S.S.S.A.M.",
";.v.b.b.v.c.b.M.M.M.M.M.M.M.M.M.v.b.v.v.b.M.M.b.A.M.b.b.v.v.b.b.v.M.M.M.b.v.v.b.M.v.c.c.v.v.v.v.M.A.M.v.v.M.M.v.c.c.c.c.;.c.M.S.c.b.M.S.S.S.S.S.S.M.S.D.A.A.S.A.F.F.S.S.S.S.S.S.S.S.A.A.S.S.S.S.M.A.S.S.S.A.S.S.S.A.A.A.S.S.S.A.M.A.S.D.D.S.M.M.",
";.v.M.M.M.b.M.M.b.b.b.M.M.b.b.b.M.M.M.b.n.A.M.b.A.M.M.b.b.b.M.M.M.M.M.b.v.c.v.v.M.v.c.c.v.v.b.v.M.M.b.c.v.M.b.c.c.v.v.v.v.b.M.S.b.M.S.F.S.S.S.S.F.M.S.F.M.M.A.A.F.S.S.B.B.S.S.S.S.A.A.A.S.S.S.S.M.A.S.S.S.A.S.S.S.A.A.A.S.S.S.A.A.A.S.F.S.S.M.M.",
"c.v.b.M.M.M.M.b.v.v.b.b.b.b.v.v.M.M.M.b.b.M.M.v.S.S.A.M.M.M.M.Z.A.A.M.b.v.c.c.v.b.b.v.v.v.b.b.b.b.v.c.c.v.b.v.c.c.c.v.b.M.M.M.b.M.A.S.S.S.A.A.A.D.M.A.S.b.v.M.M.Z.M.N.N.M.N.M.M.M.M.M.M.A.A.A.M.M.M.A.A.A.M.M.A.A.A.A.S.S.S.S.A.A.S.S.S.A.A.M.M.",
"v.v.v.b.M.M.b.v.v.v.v.b.b.v.v.v.b.b.b.v.v.b.b.v.S.S.A.A.A.A.A.A.S.S.M.b.v.v.b.b.b.b.v.v.v.v.b.b.b.v.;.c.v.M.b.c.c.c.c.v.M.M.b.c.M.A.A.S.M.M.M.M.K.A.A.A.c.c.b.M.M.M.n.n.n.n.M.M.b.b.v.b.b.M.b.v.v.b.M.M.M.b.b.b.M.M.A.S.S.S.A.M.A.S.A.A.A.M.M.M.",
"M.b.v.v.M.M.M.M.v.b.b.b.b.b.b.v.c.b.b.v.v.b.b.v.S.S.S.S.S.S.S.S.S.S.M.M.M.M.M.A.v.v.b.b.v.b.b.M.M.v.c.v.M.M.b.v.v.c.;.c.M.M.b.v.M.A.A.M.M.M.b.M.K.A.A.A.c.;.b.M.v.v.b.v.b.b.v.b.b.b.v.b.b.b.b.v.b.b.b.M.M.M.b.v.b.M.M.A.A.M.M.M.S.A.A.A.M.M.M.M.",
"S.A.M.M.A.S.S.S.M.M.M.M.M.M.M.M.v.M.M.b.b.M.M.M.S.S.S.S.S.S.S.S.S.A.A.A.S.S.S.S.v.b.M.M.M.M.M.M.M.b.b.M.M.M.b.M.M.b.v.b.M.A.M.M.S.S.S.A.M.M.M.A.D.A.S.A.c.;.b.M.M.M.M.M.M.M.M.M.M.M.M.M.A.A.M.b.M.M.M.M.A.A.M.M.b.M.M.A.M.M.M.M.A.A.A.A.A.A.A.A.",
"S.S.A.A.S.S.S.S.M.A.A.A.A.A.A.M.M.Z.S.Z.M.Z.A.A.A.A.A.S.A.A.A.S.S.A.A.A.S.S.S.S.b.M.A.A.Z.Z.A.S.A.M.A.S.A.b.b.M.A.M.M.M.A.S.A.B.S.S.S.A.M.M.A.S.F.A.F.F.v.c.M.A.M.M.S.S.S.S.S.S.A.A.A.S.S.S.A.M.A.A.A.A.S.S.M.M.M.A.A.A.M.M.M.M.A.A.A.S.S.S.A.A.",
"A.A.S.S.S.S.S.A.A.A.S.S.S.A.A.A.M.S.S.A.M.M.A.M.A.A.A.A.A.A.A.A.A.A.A.A.S.S.S.A.M.A.S.S.S.A.S.D.A.A.S.D.A.b.b.A.A.M.A.S.S.S.A.B.A.S.A.A.M.M.S.F.S.M.F.F.v.v.A.S.S.F.F.F.K.F.F.F.A.A.A.S.S.S.M.M.A.A.M.A.S.S.M.b.S.S.S.A.M.M.M.A.M.A.A.S.S.S.S.S.",
"M.F.K.S.A.A.S.S.A.A.A.A.S.S.S.S.S.S.S.S.S.F.S.S.S.S.S.S.S.A.S.S.A.K.S.M.S.S.M.b.Z.S.S.A.S.D.S.S.A.S.F.S.S.A.S.S.A.A.A.A.S.S.M.b.A.M.M.M.b.b.M.F.A.S.S.S.A.B.S.S.S.S.S.S.S.S.S.S.S.A.A.A.A.M.A.S.S.S.S.S.S.Z.A.A.S.S.S.S.A.A.A.A.A.A.S.S.S.S.S.S.",
"M.S.F.S.S.S.A.M.b.b.M.M.M.Z.A.A.M.A.A.A.A.S.A.A.S.S.S.S.S.S.A.A.A.F.M.b.S.S.n.v.N.N.G.G.J.L.L.L.L.L.bXbXL.L.L.L.L.L.L.J.H.G.G.N.G.N.N.M.b.b.M.S.A.S.S.S.A.A.S.S.S.S.S.A.A.A.A.A.S.S.A.S.S.M.M.S.S.S.S.S.S.S.S.S.S.S.S.S.S.S.A.A.A.A.S.S.S.S.S.A.",
"M.A.S.S.S.F.A.v.v.v.v.b.M.M.M.Z.M.M.M.M.M.M.M.M.A.S.S.S.S.A.A.M.M.A.b.v.S.S.b.1.q.q.e.1X,X-X).c x }.3X3X4X2X2X>X>X1X1X<X<XbXL.L.L.J.G.C.N.M.M.S.S.A.A.A.S.S.S.A.S.A.A.M.M.A.A.S.F.S.S.D.S.M.M.A.A.S.S.S.S.S.S.S.M.A.S.S.F.S.S.A.M.M.M.M.M.M.M.M.",
"v.M.A.S.S.S.A.b.b.b.b.M.M.M.Z.Z.M.M.M.M.Z.M.M.M.A.S.M.M.N.N.N.P.P.J.q.q.L.e.r.4.4.c c c x l T.W.E.+X&X&X%XOXBXBX3X3X4X2X2X>X>X1X1X1X1X<Xe.e.e.bXL.L.L.L.L.L.L.J.K.H.H.C.N.B.S.S.F.F.S.D.S.M.b.M.M.A.S.S.S.S.S.S.b.M.A.S.F.S.S.A.b.b.b.b.b.b.v.v.",
";.b.S.S.S.S.A.A.M.M.M.M.M.M.M.M.M.M.M.M.M.M.b.b.S.M.N.N.q.q.e.e.,X-X4.~ Q.x T.T.T.W.W.W.E.E.E.E.E.+X*X*X&X&X&X&X&X&X&X%X&X%X%X%XBXBXBXBX3X3X3X4X2X2X2X>X1X1X<X<XbXbXL.J.P.P.G.G.S.S.S.S.M.b.b.n.M.M.A.S.S.A.A.A.b.M.M.S.S.A.A.M.b.b.b.b.b.v.v.v.",
"+.b.S.S.A.A.A.A.M.M.M.M.b.M.M.N.N.N.N.P.P.P.q.q.L.e.r.4.4.c c j j l l T.W.E.E.E.E.E.E.E.W.W.T.Y.Y./.`.#X#X#X+X.XoXOX%X%X&X&X*X*X*X*X*X&X&X&XCXCXCXBXBXBX3X3X4X2X>X>X>X1X1X1X<X<X<Xe.e.L.e.q.q.J.P.J.L.H.G.G.C.C.N.N.V.B.S.S.A.M.b.b.b.M.b.b.b.b.",
"c.b.A.S.A.A.A.M.M.b.b.b.M.M.N.N.P.L.e.e.1X,X4.~ c x x T.T.T.W.W.W.W.W.W.T.T.T.T.l l l g g y g y h z Y.+X`.8 z h h z T T ~./.`.`.oXoX.X].XXXXOX%X%XCXDXDXDXDXCXCXCXCXCXCXCXBXBXBXgXgX3X4X2X>X>X>X1X1XuX<X<XL.L.J.J.J.G.G.V.S.S.S.v.b.b.b.b.b.b.b.",
"b.M.A.A.A.S.A.n.N.P.P.P.L.e.e.r.4.4.c c j j l T.T.W.E.E.E.E.W.W.T.T.8 l l g g g g y u u p i i i i k R.+XXX^.R C C i p p p u 9 8 +X'.z z T T !./.^.`.`.#X@XoXoXoX%X%X%X&X&X&X*X&XDXCXCXCXBXBXBXBX3X3X2X2X>X>X>X,X1X1X<X<Xe.e.bXL.1.1.v.v.b.b.v.v.",
"b.M.S.S.S.S.S.K.e.r.-X-X).Q.x T.T.T.T.T.T.T.T.T.T.l l l 9 l g g y y u u u p i p p i r r t r r r r p z /.OX$X[.;X8.5.^ ^ ^ ! R 8 XX].R C C C C p u 9 Y.#X&X`.z z T T T /./.`.+X+X{.].].XXXX%X%X&XCXCXCXCXCXCXCXCXCXBXBXBXgX3X3X2Xr.e.N.M.M.N.M.M.",
"M.M.A.S.S.S.S.J.f a j l T.W.W.W.W.W.T.Y.Y.8 l g g g g u u p u i i t t t r t r r r d r r r r F F F J k 9 `.%XgXfX0Xj.f.f.f.9X_.z .XBX8X6.6.6.6.5./ ~.'.&XOXOX(.Y Y C C C h 9 .X'.z T T T !.Y.=X+X+X'.'.{.]..XoX&X&X&X%XCXCXCXCXBX>X<XP.M.M.B.M.Z.",
"M.M.A.S.S.S.A.J.f a j g l g 0 0 g y y u u u p p p p i r i r r r r r d r r r r r F F F F F F F F F G K k 8 '.$XVXxXiXrXrXrXtX:XT ].VXyXk.k.k.rXeXgX{.%XoX`.XXBXdX8X8.8.8._.T ].[.( ! ! ! R Y.'.&X.X!.T u u h 8 /.{././.~.~.^.'.}.,XbXJ.S.S.S.S.S.",
"S.A.A.S.F.S.A.G.e.1X-Xj j 0   o y i t t r r r r r r d d r r r F d d F F F F F F F F F F F F F F G G ^ ! h R..X$XjXxXaXiXiXaX:XT ].VXxXiXiXiXaXfX[.%X$X'.8 /.$XVXxXrXrXtXwXR ].VXeXf.0XwX4X{.%X+XXX[._.^ ^ ~ !.^.[.E Y Y Y z 8 /.,XbXH.S.S.S.S.S.",
"F.A.A.S.S.A.A.S.K.L.L.f t q   o t r r r r r r r r r F F F F F F F F F F F F F F G F F F F F G G G H 6.8.J h /.XXBXlXaXpXiXaX:XT .XZXxXpXpXaXcX XXX%XdX:XR 9 '.BXlXsXpXsXfX~.].AXaXiXaXxXBX%X$X!.`.BXfXyXrXeX{.^.gXdX8Xp.;X_.{.3X1XJ.G.S.S.S.S.S.",
"S.A.A.F.S.M.Z.D.S.V.P.5 d :   X t d d F F F F F F F F F F F G G F F F F F F F F G G F F F F G F G H 9.d.^ C 9 ^.$XVXcXaXpXaX:XT ].ZXxXpXaXxXhXXX$X XeXtX8.h Y.XXhXcXsXsXfX~.].AXxXsXcXjX$X%XgX~.8 {.jXcXsXaXdX}.hXxXaXaXxXkXgX4X<XG.S.S.S.S.S.S.",
"A.M.A.F.A.b.M.K.Z.V.q.5 s :   X t d d F F F F F F F F F G F G G G F G G G G G G G G G G G G G G F H p.rXa.^ p 9 '.%XhXxXaXaX:XT .XZXxXaXxXjX.X%X XeXaXiX0X! h /.$XAXxXsXfX~.].AXxXsXAX X$XgXfX8XT !. XAXxXxXgX}.kXcXsXxXAXgX3X>XL.F.S.S.S.F.S.S.",
"M.b.A.S.M.c.b.K.M.N.q.$.s :   X t d F G G F F F G F G F G G G G G G G G G G G G G G G G G G G G G H p.rXj.9.K k Y..X$XjXxXtX:XT .XZXxXaXjX[.%X$XdXtXiXpXiXd.Y 9 '.BXlXcXfX~.].AXcXcXVX$XgXfXaXrX/ h '.VXcXcXgX}.jXcXxXcXVXBX2X1XL.S.S.S.S.F.F.F.",
"A.v.M.M.b.v.b.v.b.V.P.' s :   X t d G G G G G F G G G G F F F G F G G G G G G G G G G G G G G G F H p.iXk.j.6.K h !..X$XjXxX:XT ].ZXlXlX XXX$XdXeXiXpXpXiXrX8.Y R.].VXAXjX~.].ZXAXhX$X$XdXaXpXpX9XW 8 ].jXAXgX}.hXcXcXjX$XgXwXe.J.S.D.S.S.S.A.M.",
"A.v.v.M.c.c.b.v.M.V.J.o.s :   X t F G G G G G G G G G G F F G G G G G G G G G G G G G G G G G G G H t.iXiXk.d.5.Y 9 `.OXgXjX[.!..XDXAXgX.X%X XeXaXpXpXpXpXiXrX^ z /.$XZXVX^..XDXZX X$XgXaXpXpXpXrX;Xz /.gXAX$X'.hXAXAXgX$XgXuXw.C.S.S.A.A.S.A.M.",
"A.v.v.M.c.c.b.b.M.V.J.$.s :   X t F G F G G G G G G G G G G G G G G G G G G G G G G G G G G G G G H p.iXiXiXk.a.^ Y 8 '.%XCX[.!.oXDX%X.X%X XwXaXiXpXpXpXpXpXiX9X! z '.%XCX`.oXDX%X$XgXfXaXpXpXpXpXtX/ 9 {.DX%X'.VXFXZX$XgXeXuXw.C.S.S.A.A.S.A.Z.",
"S.b.M.A.b.b.A.A.M.V.P.' s :   X r F G F G G G G G G G G G G G G G G G G G G G G G G G G G G G G G H t.iXiXiXk.j.p.! h 8 +X&X.X`.oX*XoXoX$XdXtXiXpXpXiXpXpXpXpXrX8.Y !.oX%X`.oX&X&X$XkXaXsXpXpXpXpXiX9XY !.%XoX'.ZXZX%X$XdXtXiXz.H.S.S.A.A.S.S.A.",
"F.M.M.S.M.M.S.S.M.V.P.$.s :   X r F G G G G G G G G G G G G G G G G G G G G G G G G G G G G G G G H t.iXiXiXiXk.f.8.! h !.oX@X`.@X@X@X$XdXeXaXiXiXpXpXpXpXpXsXaXuX/ z /.OX+XoX%X%XgXfXsXsXpXpXpXiXpXrX/ z `.@X#X*X%X$XgXyXiXl.z.H.D.F.A.A.S.S.A.",
"A.b.M.S.M.M.S.A.S.G.J.$.s :   X r F G G G G G G G G G G G G G G G G G G G G G G G G G G G G G G G H p.tXaXaXaXaXrX9X8.R Y.`.@X@X@X*X&X$XfXaXaXaXaXiXaXaXaXaXyXmXmXzX2X3XDXFXFXFXFXFXmXmXmXmXmXsXaXaXaXeX(.Y.oX@X*X&X$XjXaXiXl.z.H.D.S.M.M.A.A.A.",
"M.v.M.S.M.M.A.M.B.G.J.$.s :   X r F G G G G G G G G G G G G G G G G G G G G G G G G G G G G G G G J 8XfXfXlXlXlXfXfXdX}.R.Y.#X@X*X*XXXgXlXxXxXxXxXxXxXxXxXcXzXJXLXLXLXLXLXLXLXLXLXLXPXIXIXIXIXmXxXxXxXxXdX!.`.@X*X%XgXlXxXaXuXz.H.F.A.b.b.M.M.M.",
"M.v.M.F.Z.Z.S.M.M.V.J.o.s :   X r F G G G G G G G G G G G G G G G G G G G G G G G G G G G G G G G J ~ _.gXgXgXgXgXgXgX[.{.`.#X@X*X&X$XBXhXhXhXhXhXjXjXjXjXkX4XJXIXKXLXKXKXIXHXPXKXUXUXUXUXKXPXSXfXfXjXjXkX{.`.oX&X%XVXjXfXfXeXe.J.S.M.v.v.b.b.b.",
"A.S.S.S.S.S.A.M.A.V.J.$.s :   X t F G G G G G G G G G G G G G G G G G G G G G G G G G G G G G G G J z }.XXXXXXXXXXXXXXXXXXOXOXOXOXOXOXXXXXXXXXXXXX$XXXXXXX[.4XJXSXc IX-X6X5Xj 6X5Xc 6X6Xc 6XLXSX[.[. X XXXXXOXOXOXOXXX[. X[.4X,X,.V.S.A.A.M.M.M.",
"M.A.S.S.S.S.A.M.M.N.P.$.s < . X t F G G G G G G G G G G G G G G G G G G G G G G G G G G G G G G G J k /.^.^.^.^.^.^.^.^.^.^.^.^.^.^.^.^.^.^.^.^.^.^.^.^.^.^.}.JXSXc UX-X5X7XHX7X5XUXHX6X6XPXLX4X~.~.~.~.~.~.~.~.~.~.~.~.~.~.R ,Xq.N.M.M.M.M.M.M.",
"b.M.A.S.S.S.A.M.M.V.P.o.s < . X t F F F G G G G G G G G G G G G G G G G G G F G G G G G G G G G G J C C p C C C C C C C C C C C C C C C C C C C C C C C C Y ).JXHX-X6X-X5X5XPX7X-X5XKXUX-XKXLX,XJ K K K K K K ! ! ! ! ! ! K L 0.P.v.v.b.M.B.M.M.",
"v.b.M.A.S.A.M.M.M.B.J.o.s <   X t F F F G G G G G G G G G G G G G G G G G G F G G G G G G G G G G H L I I I I ^ I I I ^ ^ ^ 5.5.5.5.5.5.5.L L L L 5.5.5.^ K -XKXHX-X7X7X5X5XPX7X-X-XIXPX-X5XPXzX9.p.p.p.p.p.p.a.9.6.6.p.p.7.7.w.C.v.c.v.M.B.M.v.",
"c.v.M.M.A.M.M.b.A.V.J.$.s < . X r G F F F F G F F F G G F F F F F F F F F G F F G G G G G G G G G G 5.p.p.p.p.p.p.a.a.p.a.a.s.s.s.s.s.s.i.P P P P a.f.d.9.! -XKXSX7Xc 5X5X7XKX7X5XKXLXLXUX7XIXmX0Xj.j.l.l.k.k.k.i.*.*.s.l.j.z.w.C.b.v.v.M.M.b.v.",
"b.b.M.M.M.M.M.b.S.S.J.$.s <   X t F F F F F F F F F F F F F F F F F F F F F F F G G G G G G G G G H 6.j.j.j.j.j.j.j.j.j.j.j.j.l.l.l.l.g.*.P P *.x.l.k.j.9.^ -XKXSX6Xc 6X6X-X7X5X7X7XKXUX-X5XIXmXrXk.k.k.k.k.k.k.x.i.i.l.k.l.z.w.H.M.M.M.M.M.M.b.",
"A.A.A.M.M.M.M.b.S.S.J.$.s < . X t F F r F F F F F F F F F F F F F F F F F F G G G G F F G F G G G H 6.j.l.l.l.l.k.k.k.k.k.k.k.k.k.k.k.*.*.*.*.i.k.k.k.l.p.^ -XKXHXHX6XHXHX6Xc UX6X-XKXKX5XUXIXmXrXk.rXrXk.k.k.k.k.k.k.k.k.l.z.w.H.A.A.M.Z.A.S.S.",
"F.S.S.A.M.M.M.M.S.V.J.$.s <   X i i i i i i i i i i r r r r r r G r F F F G F F G F F F F F G G G H 6.j.l.l.l.l.k.k.l.k.k.k.k.k.k.k.k.s.i.i.u.k.k.rXk.j.p.^ 4.JXLXPXPXPXLXLXLXLXLXLXLXLXLXPXIXmXtXtXtXtXaXtXtXtXtXtXtXtXrXl.z.w.V.A.S.A.A.S.F.D.",
"F.D.F.S.A.M.A.S.S.S.J.$.s < . o a k y y y y j j u p p p p i i i i i r r r r r r r r r r F F G G G H 6.l.l.l.l.l.k.k.k.k.k.k.k.k.k.k.k.k.rXrXrXrXrXrXk.j.p.I / UXKXJXJXJXJXHXHXHXSXSXSXSXzXmXmXzXfXfXfXfXfXfXfXfXfXkXkXwXeXtXz.w.V.S.S.S.S.S.F.F.",
"A.S.S.S.A.A.S.F.S.S.H.%.s < . o j y y w y w w y y y y w y y w w w w w y y p p i i p p p p i C G G H 6.l.l.l.l.j.rXrXtXtXtXtXyXyXtXtXyXyXyXyXtXyXyXyXrXrX9.I Y ~ ).~.R x x x x h h h l g Y ;XuXyX_._._./ / ^ ^ ^ ^ ^ ^ ! 8XyXh.w.V.S.S.S.S.S.F.F.",
"A.S.S.S.S.S.S.S.A.V.H.%.s e . o j w , , , , , , < e < < e e w w y y j j j j g g g g g h h h p J F H 6.j.j.j.j.rXwXwXkXjXkXkXkXkXkXkXkXkXdXdXdX:X4X:XwXwX8.K p g l 9 9 7 7 7 7 7 7 7 7 7 R ;XtXeX(.(.P N O.O.O.O.O.O.-.-.p.yXh.w.H.S.S.S.S.F.F.F.",
"S.S.S.S.S.A.M.M.M.V.J.%.s e . o a w 3 = = = - 3 2 1 , , , 1 < : < e w w q w w y y y y g z z k C G H 6.l.j.j.j.0X_.(._._._./ / / ~ / ! ! ~ K K ! Y ~ qXeX8.K k h T 7 7 7 V V V V V V V Z _.qXtXeX(._.<.@.@.X.@.X.X.X.@.O.8.yXh.w.H.S.S.S.S.F.F.F.",
"M.M.M.M.M.M.b.v.b.N.P.%.s < . o j q 6 % % % * = 3 , - - - - - - 3 2 , 2 # 3 # , # , > e l R.h p G H 6.j.j.j.j.0X(.R ~ L $.B O.O.B O.o.o.@.| O.O.-.5.8XeXp.^ ~ T E V D M M D D D D D D W _.wXrX9X(.).>..... ... ..._ } o.8.yXh.w.H.S.S.S.S.F.S.S.",
"c.c.c.v.b.b.b.b.b.n.C.%.s < . o j q @ O O O + + & # * * * * * * = - # - * ; * ; * - = 4 z R.h p J H 6.l.j.j.j.9X(.R 5.-.@.| #.#.| @.X.X.#.X.X.#.O.-.8XeXd.8._.E ( S D v m b b b m A D S |.eXrX9X(.).o._ [ _ _ _ _ _ } o.8.yX0.w.H.S.S.S.S.S.S.S.",
"c.c.;.c.v.M.M.M.M.n.C.%.s < . o j e # * + + + + & & O O O $ $ $ + & & & % * % * % ; * 4 z R.h p G H 6.j.j.j.j.9X(.R 4.>.@.| X.X.{ X... .X.[ ....o.&.;XeXd.d.:XE _.S A m m *.i.I m A S Q qXeXrX9X(./ o.[ ..{ ..{ X.| @.O.8.wX0.2.H.S.S.S.S.S.S.S.",
"b.b.v.v.b.M.M.M.M.N.C.$.s <   o a w 3 ; * * * = 3 = % % $ $ $ O O & & + O $ O $ O % + , l R.h C G H 6.j.j.j.j.9X(.R 4.o...[ { { _  ._ _  ._ _ [ ` N ;XeXf.0X:XE _.S A m g.MXMXuXg.A S Q qXeXrXwX(.).3.X.X.X.X.X.X.X.@.O.8.wX0.2.H.S.S.S.S.F.S.S.",
"v.M.M.A.M.b.v.v.A.S.H.%.s e   o a q 6 % * * * = 3 = - ; * * * * * = # @ + $ O $ O $ O > l R.h C J H 6.j.j.j.f.9X(.R 4.' ] ` _ _ ` ] ` `  ._ [ ..' $.;XeXf.0XqXE _.S A U uXnXGXnXuXU S Q qXeXrX9X(.).3..... ...[  ._ } o.8.wX0.w.H.S.S.S.S.S.S.S.",
"b.M.A.A.M.M.b.b.A.S.H.%.s e . o j q @ + + + % + # = = ; * ; * ; - - = = * * % * % % $ 6 l R.h C J H 6.h.f.s.f.9X(.R 4.' ..`  . ._ .. . .X.{ X.@.O.&.;XeXf.0XqXE |.S A U nXGXGXGXuXU S Q qXeXrX9X(.~ o.[ [ _ _ _ _ _ ' ' 8.wX0.w.H.F.S.S.S.S.S.S.",
"M.A.S.S.A.M.M.M.A.S.H.%.s e . o j w # + + + + O & & O $ $ % % % = = = - * ; * ; * ; ; 4 z R.h p J H 6.h.d.d.d.9X(.R 4.-.@.{ X.X.| X.X.X.X.X.X.@.O.&.;XeX0XrXqXE |.S A U nXGXGXGXMXU S Q qXeXrX9X(.~ o.[ { [ | { X.| O.-.8.wX0.w.H.S.S.S.S.S.S.S.",
"M.A.S.S.S.A.A.A.A.S.G.%.s < . o j w 2 3 = = = & 3 6 + O O O O O + & = @ + * + * * ; * 4 x R.h C J H 6.h.f.d.d.9X(.R 5.3.@.| X.X.{ X...{ X.{ { | } $.;XeX0XrXqXE _.S A b 1XGXGXGXuXU S Q qXeXrX9X(.).=.O.@.@.@.O.@.O.=.*.8.9X0.2.H.S.S.S.S.S.S.S.",
"A.A.A.A.S.S.A.A.A.S.G.%.s < . o j y w e e 1 2 2 2 2 - * * * % % + & = + O $ O $ O $ O 6 l R.h C G H 6.d.d.d.d.9X~.R 4.o.+._  . .` ] ] ` ] ` _ _ ' f ;XeXf.0XqXE _.S A M 5.mXUXMX6.A S S qXeX0X9X~.}.;X6.9.6.8.8.8./ / / ;X0X0.2.H.S.S.S.S.S.S.S.",
"A.M.A.A.S.S.A.A.S.S.G.%.s < . o a k u u y e 1 1 1 1 2 2 3 3 3 3 3 3 , & + % O $ O $ O > l R.h p J H 6.h.d.d.s.9X~.R 4.' ] ` _ _ ` _ ` `  .` [ ..' &.;XeXf.0XqXE _.S A b B I 9.I b A S Q qXeX0X9XE }./ ^ ^ ! ! ! W Y Y ! 9Xh.0.2.H.S.S.S.S.S.S.S.",
"S.A.A.A.S.S.S.A.S.S.J.%.s e . . t i i i i p i u p u u w w w e 1 1 2 2 2 - - * * + * + , l R.h p J H 6.d.s.s.s.9X~.R 4.' .._ { | [ ....{ X.| X.@.-.5.;XeX0X0X:XE ( S A n M B B b n A ( ( 8XwX0Xd.! C C J J K K I ^ ^ 5.8.d.h.0.w.H.S.S.S.S.S.S.S.",
"S.A.A.A.S.F.S.S.S.S.J.%.s e . . t d F G r i i p k k k k k u u w w e e 1 , 2 , 3 3 3 # 4 z R.h p J H 6.h.s.s.s.9X(.R 4.&.3.| @.@.O.@.@.O.#.O.O.=.*.^ 8XeXf.0XqXE ( S A n n n n n n A vX8X8XwXf.d.5.^ 5.6.6.6.9.t.p.p.s.a.d.h.0.w.H.S.S.S.S.S.S.S.",
"b.v.b.A.S.M.M.A.A.S.J.%.s e . . t F F F F F G C i C i i i i i i p p p u u y w w w e 1 i R.R.h p J H 5.s.d.d.d.9X(.~./ 9.i.-.*.i.I 9.8./ ;X/ 8.;X_._.8X9Xf.0X:XE ( S A n n n n n n U aX9X8XwXf.d.s.a.a.s.s.s.d.d.h.s.d.s.s.y.<.w.C.N.N.N.M.S.S.S.",
"b.v.M.A.A.M.b.b.A.S.J.%.s e . . t F G G G F F F F F F F d d r i p p k k k k h h u y w y z R.h p G H 5.s.d.s.s.9XE ~._./ 8.^ ^ / / / / ~ ~ R R R Y / 9X0Xf.0X:XE ( S A n n n n n m U 0X8X8XwXf.s.d.d.f.s.s.s.d.s.s.s.s.s.s.y.<.w.C.M.M.M.B.S.S.S.",
"b.b.M.S.A.b.c.c.M.B.G.%.s e . . t F G G G G G G F G F F F F G G G i i i i i i i i i p k z z p C G H 5.s.s.s.a.d.~ Y (.~ ! ! C C C C C C J K K K ^ 8.d.f.d.0X:XE ( S A n n n n n m U g.;X:XwXf.s.s.d.d.s.s.s.s.s.s.s.s.s.s.y.<.w.C.M.B.S.S.S.B.M.",
"M.M.M.S.S.M.v.v.M.B.P.%.s e . . t F G G G G G G F F G G F F G G F F G F F F d r r i p p k p i G G H 5.s.s.s.s.a.^ C Y Y Y K ! ! ^ ^ ^ 5.6.6.6.6.9.p.d.d.d.9X:XE ( S A n n n n n m D ( / :XwXd.s.i.*.*.6.d.s.s.s.s.s.s.s.s.y.0.w.C.A.S.S.S.S.M.M.",
"S.A.A.S.S.M.M.A.A.S.J.%.s e . . t F G G G G G G G G G G F F G G G G F F F F F F F G G i i r G F F H 5.s.d.s.s.p.5.I ^ ^ 6.6.8.9.9.9.t.t.p.p.p.a.a.s.s.s.s.0X:XE ( S A n n n n n n D Z W :XwXd.s.*.P P P i.s.s.s.s.s.s.s.a.y.<.w.V.S.F.F.F.S.M.N.",
"F.S.S.S.S.A.A.S.S.K.H.%.s e . X t F G G G G G G G G G G G F G G G G F F F F F F F F F F F F G G G H 5.a.a.s.a.p.7.7.7.t.t.t.p.p.p.p.a.a.s.s.s.s.s.s.s.u.s.0X:XE ( S A n n n n n n A D W qXwXd.s.i.P N P P u.s.s.s.s.a.s.a.y.<.w.H.S.F.F.S.S.B.M.",
"S.A.A.S.S.B.M.S.A.S.G.%.s e . X t F G G G G G G G G G G G G G G G G G G G G F F G F F F F F G G G H 5.a.a.a.s.a.t.t.p.p.a.a.a.a.s.s.s.s.s.s.s.s.s.s.s.s.s.9X:XE |.S A n n n n n n A S Q |.wXd.s.s.*.P *.6.a.s.s.a.p.a.a.t.y.<.w.H.S.S.S.S.S.S.S.",
"A.A.A.S.S.M.M.M.M.M.C.%.4 > . : t G G G G G G G G G G G G G G G G G G G G G G F G F F F G G G G G H 5.a.a.a.s.s.s.s.s.s.a.a.a.a.s.s.s.s.s.s.s.s.s.s.s.s.s.9X:XE ( S A n n n n n n A S S |.wXd.s.a.a.i.a.s.a.a.a.p.p.p.t.t.0.<.w.H.S.S.S.S.S.S.S.",
"S.A.A.A.A.M.b.v.b.v.;.:.o.3 > 1 d d G G G G G G G G G G G G G G G G G G G G G G G G G G G G G G G H 5.a.u.u.t.i.i.g.*.i.s.a.a.a.a.a.s.s.s.s.s.s.s.s.a.a.s.9X:XE ( S A v v n n n v A S S |.wXd.s.a.a.a.a.p.t.a.a.t.p.t.y.7.0.,.C.S.S.S.F.S.M.A.S.",
"A.A.A.A.M.v.v.c.v.v.v.b.1.1.>.$.4 4 4 H s H F G G G G G G G G G G G G G G G G G G G G G G G G G G H 5.a.a.i.P P P P P *.u.u.a.a.s.s.a.a.a.a.s.a.a.s.a.a.a.9X:XE ( S A v n n v v n A S S _.wXd.p.a.y.t.y.y.y.y.7.7.7.=.<.<.<.2.H.S.A.S.S.S.M.M.S.",
"M.A.S.A.b.v.c.v.n.M.M.M.n.N.N.G.C.>.%.5 4 s H G G G G G G G G G G G G G G G G G G G G G G G G G G H 5.a.a.6.P P P P P 6.a.a.a.a.u.u.a.a.a.a.a.a.a.s.a.a.a.d.:XE Q S A v n n n n n A D S ;XwXd.p.y.y.7.0.<.<.<.,.,.2.2.C.C.C.V.F.F.A.A.S.S.A.A.A.",
"M.M.M.M.M.v.v.c.N.M.M.b.v.v.b.M.M.C.J.q.>.&.H 4 4 s H H G G G G G G G G G G G G G G G G G G G G G H 5.p.t.t.*.*.*.7.i.u.u.u.u.u.u.u.a.a.a.a.a.u.a.a.a.a.u.d.:XE Q S A v n n m m m b D Z 8.9.7.7.=.<.<.2.2.2.C.H.N.N.M.M.b.b.M.A.S.M.M.A.S.A.M.M.",
"b.v.c.v.M.M.v.c.M.v.c.c.c.v.v.c.M.S.S.C.N.1.1.>.$.5 4 4 H G G G G G G G G G G G G G G G G G G G G H 5.p.t.t.t.u.u.u.a.a.u.t.a.a.u.u.s.a.a.a.a.u.a.a.a.u.p.9X:XE ( S A v v m b b b B N H =.0.2.2.2.G.H.C.N.b.b.N.c.v.v.v.v.v.b.M.M.b.v.b.M.b.v.v.",
"v.c.;.c.M.M.b.c.M.b.c.c.v.b.b.v.S.D.D.A.v.;.;.1.C.1.>.%.H 4 4 s H H G G G G G G G G G G G G G G G H 5.p.t.t.t.t.t.t.t.t.t.u.t.a.u.u.t.i.6.t.u.u.a.u.u.t.t.d.;XE ( D b b b b b P -.=.0.w.L.J.H.K.B.F.S.A.b.v.v.b.b.b.v.v.b.b.b.b.b.c.c.v.v.c.c.v.",
"M.v.v.b.A.A.M.v.S.A.M.N.M.A.A.S.S.D.D.A.b.c.v.N.N.N.N.C.2.,.%.5 4 4 s G G G G G G G G G G G G G G H 5.p.t.t.t.t.t.t.t.t.t.t.t.t.6.I P P P *.a.a.u.u.t.t.t.p.8.K I L N -.-.,.2.C.C.C.H.H.H.S.S.F.S.S.F.S.M.M.b.M.S.M.b.b.M.A.M.b.b.b.b.M.b.v.v.b.",
"A.A.A.S.S.S.S.A.A.A.S.M.M.M.S.D.Z.S.S.M.b.b.S.K.S.A.Z.M.F.K.K.q.,.%.H 4 4 s F F G G G G G G G G G H 5.p.t.t.t.t.t.t.t.t.t.t.t.t.*.P P P P =.y.y.7.7.7.7.=.0.0.0.e.z.w.U.H.V.B.B.M.M.A.A.S.S.S.S.S.S.F.S.A.M.M.M.K.S.M.M.S.D.S.M.A.A.S.S.A.M.M.S.",
"M.A.S.S.A.A.A.A.S.F.S.M.M.S.F.S.F.S.A.A.S.S.S.S.D.S.A.A.S.S.S.B.H.G.C.,.%.o.4 4 H G G G G G G G G H 5.p.t.t.t.t.t.t.t.t.t.t.t.t.*.P *.=.7.7.=.<.,.2.2.2.C.J.J.G.H.C.N.N.B.B.B.M.M.B.S.S.S.A.S.S.M.A.S.M.M.A.F.S.K.A.b.A.D.F.A.M.D.S.S.A.S.S.S.S.",
"A.A.S.S.A.A.A.S.A.S.S.M.M.S.S.A.A.B.A.A.S.S.S.A.S.S.A.A.S.S.S.A.A.S.B.H.H.P.,.&.L 4 4 H s H G G G H 5.t.t.t.t.t.t.t.y.y.7.7.7.7.=.=.=.<.<.w.w.J.G.H.H.B.S.F.S.M.b.v.v.v.b.M.M.M.b.M.M.M.M.b.M.M.v.M.A.M.M.S.F.F.D.M.b.A.F.S.A.A.D.S.S.S.S.S.S.S.",
"Z.A.S.S.A.A.A.S.A.S.S.A.A.S.S.A.M.M.M.A.S.S.A.M.A.A.S.S.S.S.A.M.A.A.S.B.V.V.H.H.C.,.%.N 4 4 H H G H 5.t.t.t.t.t.7.7.7.7.=.<.,.,.,.1.C.1.N.N.V.V.n.N.B.B.S.D.S.M.v.c.c.c.v.v.b.v.c.v.v.v.v.v.v.v.c.b.M.M.M.S.F.S.S.M.M.A.S.A.A.S.S.A.M.A.S.S.S.S.",
"Z.S.S.A.A.A.A.S.M.A.S.S.S.A.A.M.b.b.b.M.A.A.M.b.M.A.S.S.S.A.M.M.M.M.A.A.A.A.S.F.N.N.N.q.>.%.N 4 4 N -.7.7.7.7.7.=.<.<.,.,.2.G.C.b.N.M.b.v.v.b.b.v.M.M.A.S.F.S.M.v.v.v.v.v.v.v.v.;.;.c.c.c.v.v.v.c.b.M.M.Z.S.S.S.A.A.M.A.M.M.A.S.M.M.b.M.A.A.A.A.",
"A.A.A.A.M.M.A.S.M.M.A.S.S.A.M.M.M.b.b.M.M.M.b.v.M.A.S.S.S.M.b.v.b.M.A.A.Z.Z.S.S.M.M.N.B.C.C.1.,.%.5 %.,.>.,.,.2.1.G.H.C.N.V.B.n.;.M.M.M.b.b.v.v.b.M.A.A.S.S.A.M.M.M.M.M.b.v.v.v.c.c.c.v.b.b.M.M.v.M.A.A.A.S.S.A.A.S.S.B.M.M.A.A.M.M.M.M.A.S.S.A.",
"A.A.A.M.M.M.A.S.M.M.A.S.S.A.M.M.M.M.b.v.v.b.v.v.b.M.A.S.A.M.b.v.v.M.M.A.M.M.S.F.Z.M.Z.S.S.M.B.H.H.J.J.J.J.H.H.S.B.F.D.S.S.S.S.M.v.M.A.A.M.M.b.v.M.A.A.A.S.S.A.b.A.S.S.A.M.M.b.M.b.b.b.b.M.A.A.A.M.A.S.A.M.A.M.M.B.S.A.M.b.M.M.M.M.M.M.A.S.F.S.S.",
"M.M.M.M.b.M.M.A.Z.M.M.S.S.M.M.A.A.M.v.c.c.v.b.b.c.b.M.Z.M.M.b.b.v.b.M.M.M.M.S.D.A.Z.S.F.S.B.B.S.V.V.V.F.S.S.S.S.F.A.A.S.S.A.A.S.M.A.A.M.A.S.A.b.A.S.A.A.S.F.S.M.M.A.S.S.A.M.M.A.A.M.M.M.A.A.S.S.M.S.S.M.M.M.M.b.M.M.M.v.v.M.M.M.M.M.M.A.S.S.S.A.",
"M.M.M.M.b.b.M.A.A.M.M.S.S.M.M.A.A.b.c.;.I.v.M.M.;.v.b.M.M.b.M.M.c.b.M.M.M.M.S.D.S.S.S.D.A.M.M.B.b.M.Z.S.S.S.S.A.S.b.b.A.S.M.M.S.D.F.A.M.A.S.S.A.A.S.A.A.S.F.F.S.b.M.S.S.A.A.A.A.F.S.M.M.A.A.A.A.M.S.A.M.b.b.M.b.b.M.v.;.c.M.M.b.M.M.M.M.A.A.M.M.",
"M.v.v.b.A.S.M.v.M.S.F.S.A.M.M.M.b.M.M.M.b.M.M.b.v.v.v.b.b.M.M.A.M.;.M.S.v.b.S.A.A.b.M.D.S.v.b.K.M.M.b.b.b.b.M.M.M.M.M.M.M.M.M.S.M.S.S.M.M.A.S.S.M.M.M.b.M.M.A.A.b.b.M.A.S.S.S.A.S.S.A.A.S.S.S.F.S.M.b.M.A.M.b.b.c.c.v.b.v.c.v.M.b.M.S.A.S.S.S.M.",
"b.v.v.b.M.M.b.v.M.M.S.S.A.A.A.A.M.S.S.M.M.A.A.M.M.M.M.M.M.A.A.S.A.c.M.S.b.b.S.M.M.b.M.A.M.v.v.A.M.b.v.b.b.M.M.A.M.b.b.M.M.M.A.S.A.S.S.M.M.M.M.M.b.b.v.v.v.v.v.b.v.v.b.M.A.S.S.A.A.A.A.A.A.S.S.S.S.M.b.M.A.A.M.M.v.v.b.M.b.v.v.M.M.A.S.A.S.S.S.M.",
"v.M.M.M.M.b.b.b.b.M.M.A.A.A.S.S.S.S.S.M.M.S.S.S.S.S.S.A.A.A.A.S.A.b.A.D.M.b.M.M.b.M.M.M.M.M.b.b.b.b.v.v.b.M.A.S.A.b.v.M.A.A.A.S.A.S.S.M.b.b.b.b.b.b.v.c.c.c.c.c.c.v.v.M.A.S.A.A.M.A.A.A.A.A.A.A.A.M.b.M.S.S.A.A.b.M.A.S.M.b.b.A.M.S.S.S.S.S.S.A.",
"v.M.S.A.b.v.v.M.M.M.A.A.S.S.S.S.S.S.M.b.M.S.F.S.S.S.S.A.A.A.A.S.A.M.S.D.S.M.M.M.M.S.A.M.M.S.A.b.M.M.b.b.M.M.A.S.S.M.v.M.S.S.A.A.A.S.S.M.M.M.b.v.M.M.b.v.v.v.v.v.b.b.M.M.S.S.A.M.M.A.S.S.S.A.A.A.S.M.b.A.S.S.S.S.M.M.S.S.A.M.M.A.A.S.F.S.S.S.S.A.",
"v.M.A.M.v.c.v.b.A.A.A.A.S.S.S.S.A.A.M.v.b.S.S.S.A.A.A.A.A.S.S.S.A.A.A.S.D.A.M.A.A.D.S.A.S.K.S.b.A.A.M.M.M.A.A.S.D.M.M.A.S.S.A.M.A.S.A.M.M.M.M.b.M.M.M.M.M.M.M.M.M.M.M.A.A.A.M.b.b.M.A.A.A.M.M.A.S.M.M.A.S.S.A.A.A.A.S.S.A.b.M.S.A.S.S.A.A.S.S.A.",
"M.A.A.A.M.b.M.M.S.A.A.A.A.S.A.A.A.M.b.v.M.S.F.S.A.A.A.A.S.S.F.D.M.S.M.M.D.A.b.A.A.S.S.A.S.D.A.b.S.S.S.A.A.S.S.S.F.A.M.A.S.S.A.A.A.A.M.b.b.M.M.M.b.b.b.M.M.M.M.M.M.M.M.M.M.M.b.v.v.M.M.M.M.b.M.M.S.M.M.A.S.S.S.A.S.S.S.A.M.b.M.S.A.S.S.M.M.S.S.S.",
"S.A.M.M.A.A.M.M.A.M.M.M.A.A.A.M.M.M.v.v.M.S.F.A.M.M.M.M.A.S.S.S.M.S.b.v.S.M.c.M.M.A.A.A.A.A.M.v.A.A.A.S.S.S.S.S.M.M.M.A.S.A.A.S.S.A.M.v.v.M.M.b.v.v.b.b.b.M.b.b.M.M.M.Z.A.M.b.v.b.M.A.M.b.b.M.S.A.b.b.A.S.S.S.S.D.S.S.A.M.b.M.S.M.A.M.b.M.A.S.S.",
"A.b.c.v.M.M.b.c.M.M.b.b.M.A.M.M.b.b.v.c.b.S.S.M.M.M.b.M.M.M.M.M.M.S.v.c.M.v.+.v.M.M.A.S.A.M.b.b.M.M.A.A.S.S.F.F.v.v.b.A.A.M.A.S.S.A.b.c.c.b.M.b.v.v.v.v.b.b.b.v.A.M.A.S.S.S.M.M.M.A.S.A.M.M.S.D.M.v.v.M.S.S.S.F.K.F.S.M.b.v.M.D.M.M.M.b.b.A.S.S.",
"M.b.v.v.v.b.M.M.v.b.A.S.A.A.M.M.b.b.M.M.S.S.S.S.b.A.M.b.A.A.b.b.M.M.M.b.c.c.v.v.b.M.M.M.M.M.M.A.b.M.b.v.b.S.A.v.M.M.M.M.M.M.A.S.A.M.b.v.b.b.b.v.S.A.M.v.v.v.b.M.M.M.M.S.S.A.A.F.A.A.A.S.S.S.S.S.b.b.b.M.S.F.S.M.D.S.M.b.v.b.M.M.v.M.M.b.b.A.A.M.",
"M.M.v.v.b.M.M.M.b.M.A.S.S.A.A.A.M.M.M.A.A.S.S.S.M.F.A.M.S.S.M.M.A.A.Z.M.b.b.b.M.M.M.A.A.A.A.A.S.v.M.M.b.M.S.M.;.M.b.b.b.M.M.A.S.S.A.M.M.M.M.M.b.S.S.M.b.b.b.M.M.M.M.M.S.S.A.S.D.S.S.S.S.S.S.S.A.b.b.M.A.F.S.M.v.A.M.b.v.c.b.M.A.b.M.A.M.M.A.A.M.",
"A.M.b.b.M.A.A.S.M.A.S.S.S.S.S.S.A.A.A.A.A.A.S.S.A.D.A.M.S.S.A.A.S.S.A.A.A.M.M.M.b.M.M.A.A.A.S.S.b.M.M.M.M.A.b.+.M.b.v.b.M.A.A.A.S.S.A.A.S.A.M.M.S.A.M.M.b.M.M.M.b.b.M.S.S.A.A.D.S.S.S.S.A.A.A.M.b.b.M.A.S.A.b.c.M.b.c.c.c.b.A.S.M.A.A.A.A.A.A.M.",
"M.M.b.b.M.A.S.S.A.A.S.S.A.S.S.F.S.S.A.A.A.S.S.S.A.D.M.v.M.S.A.S.S.A.M.A.S.A.Z.b.v.v.b.M.M.M.M.A.M.M.A.M.M.A.b.c.A.M.b.b.A.S.S.M.S.A.A.S.S.A.M.M.S.A.M.M.M.M.M.b.v.v.b.A.A.M.M.S.S.A.A.M.M.M.M.A.b.b.M.M.M.M.v.c.b.v.v.v.b.M.A.S.A.S.S.S.S.S.A.M.",
"M.M.v.b.M.A.S.S.A.A.A.A.A.A.S.D.A.A.A.A.S.S.S.S.A.F.M.v.M.S.A.S.S.A.A.A.S.S.M.b.c.v.b.b.b.b.M.M.M.A.A.M.A.A.A.M.S.M.M.M.S.F.S.A.S.S.A.S.S.S.A.M.S.A.A.A.A.A.M.b.v.v.b.A.A.M.M.S.S.A.M.b.M.M.S.D.M.M.M.M.M.M.M.M.M.M.M.A.S.S.A.A.A.A.S.S.S.S.A.A.",
"M.M.v.v.b.M.A.A.M.A.A.A.A.A.S.S.A.A.A.A.A.A.S.S.A.F.M.v.A.S.A.S.A.A.S.S.S.S.M.M.c.v.b.M.M.M.M.M.M.M.A.A.A.S.S.S.S.A.A.A.S.D.S.S.S.S.S.S.S.S.S.A.F.S.S.F.D.S.A.b.b.b.M.A.A.M.M.S.S.A.M.b.b.M.S.D.A.A.M.M.M.M.A.S.A.A.S.F.D.S.S.A.A.M.A.S.F.A.A.A.",
"A.M.b.v.b.M.A.A.M.A.A.S.A.A.S.S.S.S.A.M.M.M.A.A.M.S.M.v.M.A.M.A.b.M.A.S.S.M.b.b.c.v.b.M.M.b.b.M.M.M.A.S.S.A.A.A.A.A.S.S.S.S.S.S.S.S.A.A.A.S.A.A.S.S.A.S.D.S.M.v.b.b.M.A.A.M.M.A.M.M.b.v.b.b.M.M.Z.M.M.M.M.M.M.M.S.S.S.S.S.S.S.S.M.M.M.S.S.A.M.A.",
"A.M.b.b.M.M.A.A.M.A.S.S.S.S.S.S.F.S.A.M.M.M.M.M.v.M.v.c.M.M.b.M.c.b.A.A.M.b.v.v.c.v.b.M.b.b.v.b.b.M.A.F.S.A.M.M.A.A.S.S.S.A.S.S.S.A.M.M.M.M.M.M.M.M.M.A.S.A.b.c.v.v.b.M.M.v.v.b.v.v.v.v.c.c.c.c.b.b.b.b.v.v.v.v.F.S.A.M.M.A.S.S.M.b.M.S.S.M.M.A.",
"b.M.S.D.S.M.A.D.D.S.A.A.S.S.S.A.S.S.S.M.b.c.c.c.v.c.c.c.b.M.b.v.c.v.M.N.N.b.c.;.;.;.c.v.v.c.c.v.M.M.M.A.S.S.M.M.c.v.M.M.M.b.M.M.b.b.b.b.b.b.b.b.;.v.A.S.S.A.M.M.M.v.c.c.c.c.c.c.b.c.+.;.c.c.c.c.v.v.;.;.v.c.c.M.S.S.S.S.A.A.M.M.M.b.v.b.M.A.A.M.",
"v.v.M.A.M.b.M.A.D.S.A.A.S.S.S.S.S.S.S.M.b.v.c.v.M.v.v.b.M.A.M.b.v.M.M.S.B.M.v.c.v.c.c.v.M.b.v.v.A.A.A.S.S.S.A.M.c.v.b.b.b.b.b.b.v.v.v.v.v.v.b.b.v.b.A.S.S.A.M.M.M.b.v.v.v.b.b.b.M.v.c.v.v.c.c.v.c.v.;.;.b.v.c.M.S.S.S.A.A.A.A.M.A.M.M.M.A.A.A.M.",
"b.b.b.M.Z.M.M.A.F.S.A.S.S.S.S.S.A.A.A.A.M.b.b.b.A.M.M.M.A.S.A.M.M.M.S.S.S.S.M.M.A.v.v.M.A.A.M.b.A.A.A.S.S.S.A.M.b.b.b.b.b.M.b.b.b.b.b.b.b.b.M.M.M.M.S.S.S.A.A.A.M.b.b.b.M.A.A.M.S.Z.M.M.M.v.b.M.c.b.c.v.M.b.v.M.S.S.S.A.A.A.A.A.A.A.A.A.A.A.M.M.",
"A.M.b.Z.S.S.S.S.S.S.A.S.S.S.S.S.A.S.S.S.A.M.A.A.S.A.M.A.S.S.S.A.M.S.S.F.F.S.S.M.S.M.b.A.S.S.A.M.A.A.A.A.S.S.A.M.S.A.M.M.A.A.A.M.M.M.A.A.A.A.A.A.M.A.A.A.A.A.S.S.M.M.M.A.S.S.S.A.S.S.S.S.M.b.M.S.v.b.b.M.S.M.b.S.F.S.A.A.M.A.A.S.A.A.A.A.A.A.M.M.",
"S.M.b.M.S.S.A.A.A.S.S.S.S.S.S.S.A.S.S.S.S.S.S.F.S.A.A.A.S.S.S.S.S.S.S.S.F.S.S.B.S.A.A.S.S.M.M.S.S.A.A.A.S.S.A.A.D.S.A.A.S.S.S.A.A.S.S.S.S.S.S.A.M.M.M.M.A.S.S.S.A.A.A.S.S.S.A.A.S.B.S.F.S.M.S.F.b.A.M.A.F.M.M.S.F.S.A.A.A.A.S.S.M.A.S.S.S.A.A.M.",
"S.M.M.A.S.A.A.A.A.S.S.S.S.S.S.D.S.S.S.F.S.S.S.F.S.S.S.S.S.S.S.S.S.S.S.S.S.S.S.S.S.A.A.S.B.M.M.S.S.A.A.A.S.S.S.A.S.A.A.A.S.S.S.A.A.S.S.S.S.A.M.M.M.M.M.M.A.S.S.S.A.A.A.S.S.S.M.M.B.V.V.S.S.B.S.F.M.S.S.S.F.M.M.F.S.S.S.A.A.S.S.S.A.S.S.S.S.A.A.A.",
"A.M.M.A.A.M.b.M.b.M.M.A.M.M.M.A.A.S.S.S.A.A.A.S.S.S.S.S.S.S.S.S.S.S.S.S.S.S.S.F.S.A.M.A.M.M.M.M.A.M.M.M.M.A.M.M.M.A.S.S.S.S.S.S.A.S.S.S.A.Z.M.b.M.M.b.M.M.A.M.M.M.M.M.A.S.B.M.v.S.V.V.S.F.S.S.S.M.S.S.A.S.M.b.S.S.S.S.S.S.S.S.S.A.A.S.A.M.M.M.M.",
"v.v.v.b.v.c.;.;.;.c.v.b.v.v.v.b.A.A.S.A.M.M.M.A.S.S.S.S.S.S.S.S.S.S.S.S.F.F.F.F.D.M.v.b.M.M.b.b.M.b.v.v.b.b.b.b.M.A.F.D.S.S.S.S.S.S.S.S.A.M.b.v.M.M.b.b.M.M.M.v.b.b.M.M.S.M.b.v.F.B.V.S.K.S.B.M.M.S.S.A.A.v.v.S.A.S.S.S.S.S.S.S.A.A.M.M.v.c.v.b."
};
